guyguy404/RL_class_project/result_pbrl_share/walker_run-Share_walker_walk_walker_run-medium-pbrl-05-25-19-17-24/train.csv
actor_loss,batch_reward,critic_loss_in,critic_loss_ood,critic_q1,critic_target_q,fps,frame,share_ratio_now,step,total_time,ucb_curr_actions_ood,ucb_current,ucb_next,ucb_next_actions_ood,ucb_ratio_ood
0.18847867846488953,0.27402570843696594,0.26215511560440063,0.5207212567329407,-0.11342796683311462,0.8189688324928284,97.1549919337552,0,1.5,0.0,10.29283332824707,0.32835325598716736,0.3245680630207062,0.3231389820575714,0.3230540156364441,3.0
-0.15431275129923597,0.2767750264108181,0.05118733667396009,0.03740210361778736,0.32486895463243126,0.5002638810276985,34.974009706894016,1000,1.4994994999999987,1000.0,38.885494232177734,0.0589875878021121,0.0629699440933764,0.06574837029725313,0.05895607216656208,2.9261595592038483
-0.20834257121384145,0.2769306109249592,0.05175227473676205,0.033629556799307465,0.4171995532214642,0.5498796171844006,34.37595010567093,2000,1.498499500000001,2000.0,67.97559976577759,0.06131751652061939,0.06473880268260837,0.06655232956632971,0.061319512262940405,2.783445594073607
-0.17309098790585994,0.27676911774277685,0.055235567580908536,0.031619928371161225,0.3779785282313824,0.5449185086190701,34.79954727361285,3000,1.4974995000000009,3000.0,96.7116060256958,0.06666916178166866,0.0776738616861403,0.07610518428683281,0.06667441915720701,2.647692040852256
-0.1416119890511036,0.27677259904146195,0.05079672832041979,0.025519296277314425,0.3766193131655455,0.49753439411520956,34.798565052342944,4000,1.4964994999999994,4000.0,125.44842338562012,0.06812022150307893,0.07586757595092058,0.07173220236971975,0.068109663374722,2.51855942796883
-0.16423128996789454,0.27686407604813573,0.06524113537371158,0.030535640040412544,0.4052400865405798,0.5677427175343037,34.55553714942441,5000,1.4954995000000004,5000.0,154.38734602928162,0.07078232854604721,0.09044306958466768,0.08213076381757856,0.07074724751710891,2.395724840479903
-0.17421275423467159,0.27680428004264834,0.06994206017628313,0.03434345001354813,0.4316894171833992,0.5989644121527672,34.95829387752612,6000,1.4944995000000003,6000.0,182.99286127090454,0.07713097110390663,0.10059474055469037,0.09304975229501725,0.07717998707666993,2.2788811125736492
-0.19838762898743154,0.2768660389184952,0.06757058953493833,0.03117071450315416,0.483183768093586,0.6132940172851086,34.55828379226028,7000,1.4934995000000002,7000.0,211.92948389053345,0.07643668388575316,0.0968393753990531,0.08679756007343531,0.07644084247201681,2.1677360594568955
-0.16598868511617185,0.27670823377370835,0.06389967374503612,0.025766364615410566,0.46485072892904283,0.591743430942297,34.51280738014329,8000,1.4924995000000003,8000.0,240.904235124588,0.07386143346130848,0.09667296657711268,0.08755015897005797,0.07385438080132008,2.0620117467044237
-0.16918229481577873,0.276883702814579,0.06229795632883906,0.024297715010121464,0.48274291583895684,0.5912863489091397,34.21768320831962,9000,1.4914995000000002,9000.0,270.12889099121094,0.07504124184325338,0.09495375794172287,0.08648777164518834,0.07507948285341262,1.9614437952433663
-0.19223841361701488,0.27690219900012014,0.05815505240857601,0.023677270386368035,0.5070024946630001,0.607361642986536,28.5469063412989,10000,1.4904994999999992,10000.0,305.15895676612854,0.07457097218930721,0.09123988657444715,0.08490317710489034,0.07459324300289154,1.8657807202347552
-0.19805825199186802,0.27679369843006135,0.06464864518493414,0.026120566425845027,0.523477503746748,0.6337664831280708,34.78068342572198,11000,1.4894995000000004,11000.0,333.9105489253998,0.08089022772014141,0.0967708535566926,0.09079964581131936,0.08089235012233258,1.7747833021989736
-0.23999900148808956,0.2768736070394516,0.07241769152507185,0.028456027954816818,0.5774134185314178,0.69632833892107,34.86730688455452,12000,1.4884995000000005,12000.0,362.5907108783722,0.08611949575692415,0.10336428406834602,0.09647888567298651,0.08611297065019607,1.6882239888125683
-0.24869350408017635,0.276858737975359,0.07147732369601727,0.025686454508453607,0.6024647601544857,0.7178047017455101,34.87906465286628,13000,1.4874995,13000.0,391.26120495796204,0.08452877305448055,0.10286617470532655,0.09606267031282187,0.08453695847839117,1.6058863258804101
-0.28479383774101735,0.2767459323704243,0.07377792685851454,0.02573824443295598,0.6459855640530586,0.7429065211415291,34.84830958981727,14000,1.4864994999999992,14000.0,419.95700192451477,0.08782447939366102,0.10341010980308056,0.0969946698397398,0.08788405428081751,1.5275644160604327
-0.309046257853508,0.2769724511802196,0.07470682711154222,0.024926002860069275,0.6794268891215325,0.7834062492847442,35.0646804084781,15000,1.4854994999999998,15000.0,448.47572803497314,0.08945980563014745,0.10460092885792255,0.09841744317114354,0.08945238690078258,1.4530624039872562
-0.33774363458156587,0.2769050056934357,0.07390290995314718,0.024550976322963835,0.7289925844073296,0.7962022807002067,34.220917214839524,16000,1.4844995000000005,16000.0,477.69762229919434,0.09252075197547674,0.1058518070653081,0.09977340033650398,0.09265209243446589,1.3821939865072734
-0.3572521819472313,0.27700739669799807,0.0765357250533998,0.024728689851239324,0.741839203953743,0.8389635871648788,34.76296883642844,17000,1.4834994999999997,17000.0,506.46386528015137,0.09653855422884226,0.1090049684420228,0.10335455513745546,0.09657586988806724,1.314781946800423
-0.37617703852057455,0.2768897176682949,0.0767606201544404,0.023955333050340415,0.766179684638977,0.8531155845522881,34.911349868533,18000,1.4824995,18000.0,535.1078455448151,0.09975878912210465,0.11083269928395748,0.10603531516343355,0.09980232989042997,1.250657711223672
-0.4151239192187786,0.2768403020501137,0.07764359369128943,0.024263424901291727,0.812451581954956,0.8944285706877708,34.60264265664817,19000,1.4814994999999997,19000.0,564.0073730945587,0.10405953688919545,0.11373932553827762,0.10961114025115967,0.10410561725497246,1.1896609277680197
-0.5151197814941406,0.2768239615857601,0.08278097838163376,0.02463913336582482,0.8996450909376145,1.0066052635908127,28.292027707044404,20000,1.4804994999999994,20000.0,599.353019952774,0.1087575579881668,0.11784158528596163,0.11368716581910848,0.10878647170215845,1.1316390650748966
-0.6204071419835091,0.2767001247704029,0.0852379204556346,0.02450534238666296,1.0138320149183273,1.093706172823906,34.8193490331204,21000,1.479499500000001,21000.0,628.0726845264435,0.11417565020173788,0.1239553559422493,0.12059076669067144,0.11414839968085289,1.076447031009242
-0.657196075797081,0.27699937000870706,0.08734968480467796,0.025270552607253194,1.016586909532547,1.145868228673935,34.60220618037729,22000,1.4784995,22000.0,656.9725761413574,0.12182599559426308,0.12979287143051624,0.12658175456523896,0.12186729089170695,1.0239468098354505
-0.8063745483756065,0.2767270000874996,0.08984348955750465,0.02341513550840318,1.174610333442688,1.3036601735949516,34.23871853748804,23000,1.4774994999999989,23000.0,686.1792771816254,0.12176779232174158,0.1309106061011553,0.12811284974962472,0.12183241939544678,0.9740071170888802
-0.8677207052707672,0.27674452927708626,0.08891571892797948,0.02350614142417908,1.2666773473620414,1.3361063868403436,34.56949098580963,24000,1.4764995000000003,24000.0,715.1065187454224,0.12993585153669118,0.1371453547999263,0.1347991396188736,0.12998852647840978,0.9265030712798921
-0.9169090604782104,0.27692782279849054,0.09250713937729597,0.023976982165127992,1.3171387745141983,1.3840036522150039,34.615908336521706,25000,1.4754995000000006,25000.0,743.994971036911,0.13769049966335298,0.1436048143878579,0.14207217539846898,0.13771314377337693,0.8813158816094583
-1.058091034412384,0.2768856838941574,0.09143555970489979,0.022098208939656614,1.4723428572416306,1.5292411596775055,34.865442943405,26000,1.4744994999999994,26000.0,772.6766662597656,0.13951693149656058,0.14491920384764673,0.14323664410412312,0.13958253706991672,0.8383325509154325
-1.0478353506326676,0.2767591676414013,0.09459008115530014,0.021959329405799508,1.4768716622591018,1.540025347471237,34.719064980869476,27000,1.4734995000000004,27000.0,801.4792857170105,0.1460406068265438,0.15101758249104022,0.15014131629467012,0.14612962842732669,0.7974455931066636
-1.1786151840686798,0.2768754877448082,0.1045379574894905,0.02553544018417597,1.605538316011429,1.7008978873491287,34.91663902841213,28000,1.4724994999999999,28000.0,830.1189270019531,0.16200801044702529,0.16657116675376893,0.16594459669291972,0.16225485941767692,0.7585527643783305
-1.3316060806512833,0.2767605818212032,0.10810871126502752,0.024279129508882762,1.7503791337013244,1.8871268565654755,34.835237572846275,29000,1.4714994999999995,29000.0,858.825492143631,0.16795909217000007,0.17426727820932866,0.17340714605152607,0.16806188908219338,0.7215568075363916
-1.1046190575361252,0.2768006557226181,0.09586908071488141,0.024729979801923038,1.5245301930308341,1.5929160007238388,28.080847966753186,30000,1.4704995000000014,30000.0,894.436952829361,0.18256851942837238,0.18145968854427338,0.18265640138089656,0.18278005546331405,0.6863652087917703
-1.3209981735944747,0.2769468591213226,0.11042669361084699,0.024939181741327046,1.7403958674669266,1.8193805193901063,34.42647386174332,31000,1.4694995000000008,31000.0,923.484365940094,0.1898664199113846,0.19069588856399058,0.19148396797478198,0.19006126528978348,0.6528899664161381
-1.614020376443863,0.27677103799581526,0.11578915674239397,0.023141571703366934,2.1025240994691847,2.1407697137594224,34.85167896388632,32000,1.468499499999999,32000.0,952.1773889064789,0.1922562999278307,0.1935256182104349,0.19379022523760794,0.1923424245417118,0.621047370680741
-1.6580457428693771,0.27676732748746874,0.11628180799633264,0.026320912787690758,2.172428121328354,2.1705668147802353,34.79960963874011,33000,1.4674995,33000.0,980.9133439064026,0.21370672430098056,0.21421573708951475,0.2164220741689205,0.21373323328793048,0.5907577945280045
-1.8014847397804261,0.2768160511851311,0.10898277411609888,0.022777390823699534,2.3679418951272964,2.369191987872124,34.89963101848422,34000,1.4664995000000005,34000.0,1009.5669422149658,0.2102302916198969,0.21203017131984234,0.21291283068060876,0.21035508550703524,0.5619454944524661
-1.8187526718378066,0.27680062058568,0.12506588042527436,0.024351860378868877,2.257189602971077,2.320128502249718,34.89329237387328,35000,1.4654995000000004,35000.0,1038.2257459163666,0.22876131246984005,0.22918533354997636,0.23080549773573875,0.22894101950526238,0.5345384210930749
-2.2427900903224947,0.27678681194782256,0.11375649959594011,0.024337760769762098,2.74225295817852,2.8915765348672866,34.81929006587749,36000,1.4644994999999996,36000.0,1066.9454588890076,0.23640214551985264,0.23739946050941943,0.2393402719348669,0.23637873396277428,0.5084680390632548
-2.0932835025787355,0.27669899687170985,0.12913594782352447,0.02596427933499217,2.6918269822597503,2.729219715833664,34.45616641401464,37000,1.4634994999999995,37000.0,1095.9678409099579,0.2573731927573681,0.25738340616226196,0.2599885566234589,0.2576237237602472,0.4836691555681731
-2.585847406864166,0.2768490593135357,0.1288728025704622,0.024512758035212755,3.0500045166015624,3.3133548591136934,34.41656446177482,38000,1.4624994999999996,38000.0,1125.0236179828644,0.2595834566801786,0.2596643814742565,0.2623631570935249,0.25980508235096933,0.46007975738063583
-3.0121674027442933,0.27697959181666376,0.14142495445907116,0.02603723283857107,3.5572037081718446,3.7232787387371062,34.83554946201872,39000,1.4614995000000006,39000.0,1153.7299258708954,0.2825352403819561,0.2840072282254696,0.2859463824927807,0.28260680371522906,0.4376408557679648
-2.80165952539444,0.2768296413421631,0.1210541090220213,0.025521895684301854,3.317108856678009,3.475863191127777,28.68523949861042,40000,1.4604995000000003,40000.0,1188.5910613536835,0.30028537921607495,0.2998525000363588,0.30294924817979335,0.30046680472791193,0.41629633898206825
-3.4612501308918,0.27679835075139997,0.13638330864161252,0.025711713102646173,4.076122175455094,4.087351360321045,34.88416124938856,41000,1.4594994999999997,41000.0,1217.257366657257,0.3072202318608761,0.3075379240065813,0.3110027199834585,0.30741869780421255,0.39599283194381996
-3.2383147394657135,0.2769650062918663,0.11883865578472615,0.02277704057563096,3.877143045902252,3.9338842113018035,34.92168526265657,42000,1.4584994999999994,42000.0,1245.8928694725037,0.306840249568224,0.30652199962735177,0.3097292932271957,0.3069938044101,0.37667956277088704
-3.4026140739917756,0.27685347908735275,0.11471790116280317,0.023703521750867367,3.9880587918758392,4.17538681101799,35.10965224551681,43000,1.4574995000000006,43000.0,1274.3750660419464,0.3342517316043377,0.33217625638842585,0.3364434756338596,0.3343941111266613,0.3583082358152284
-3.3351467044353487,0.2769948030412197,0.14023480101674796,0.025335058648139237,4.049172917842865,4.077469274282455,34.713760517242235,44000,1.4564995000000007,44000.0,1303.1820874214172,0.36136122146248817,0.36120676338672636,0.36494563177227973,0.361507964938879,0.34083291089278106
-3.5292792603969576,0.27681820654869077,0.12791848392784597,0.026130433645099403,4.158054780721664,4.2009060108661656,34.382962933901176,45000,1.4554994999999993,45000.0,1332.266259431839,0.3768711755573749,0.37719873240590096,0.3820037381350994,0.3772334608733654,0.3242098884033219
-3.5626228790283205,0.2768226455748081,0.1487022015452385,0.02617779757734388,4.389897396564484,4.327834022283554,34.75268425763567,46000,1.4544994999999996,46000.0,1361.0410153865814,0.40322816678881646,0.3993400774002075,0.40403057262301445,0.40342931818962097,0.3083976000532428
-3.497892057657242,0.27663409456610677,0.15531738358736039,0.02390587468724698,4.081282028198242,4.426491284370423,34.75627593889607,47000,1.4534995,47000.0,1389.8127977848053,0.39150329554080965,0.3907330315709114,0.39544487243890764,0.39155700385570524,0.2933565049079651
-4.69073478269577,0.276929155677557,0.11991811799257994,0.022927214150317014,5.243128653049469,5.617359107494354,34.55308726304955,48000,1.4524994999999996,48000.0,1418.7537722587585,0.418303082793951,0.416518743544817,0.42090145218372343,0.4185811847448349,0.27904899051406257
-4.496843382596969,0.2770177896022797,0.1279815462231636,0.028273160736076535,5.331390357971191,5.376903361439705,34.93387224101339,49000,1.451499500000001,49000.0,1447.3792855739594,0.46872200244665146,0.46504055058956145,0.470343095690012,0.4690104368925095,0.2654392788438319
-5.661246623039245,0.2767365288436413,0.12413803545385599,0.02227049826271832,6.274672096967697,6.603619983673096,28.514745660955274,50000,1.4504995,50000.0,1482.4488606452942,0.45628407046198843,0.45391488936543467,0.45908585301041605,0.4566118896305561,0.252493336827115
-6.0854186325073245,0.2768100389838219,0.14032292911410332,0.021918669178150593,6.766171468257904,6.914946415901184,34.45891681604217,51000,1.4494994999999988,51000.0,1511.46892619133,0.47597699931263926,0.4738688684403896,0.47890883377194404,0.47609548503160476,0.24017879124663816
-6.888772160053253,0.276791646361351,0.15520532097667455,0.02595355595834553,7.656798537611961,7.879222263097763,34.28891257709868,52000,1.4484995000000005,52000.0,1540.6328728199005,0.5031567172408103,0.5014160682559013,0.5080992030501366,0.5032972620725632,0.22846484778406018
-6.2261596814394,0.27693275648355486,0.10952341058850289,0.01807423405908048,6.862525553941727,7.056050690889358,34.72515418125958,53000,1.4474995000000013,53000.0,1569.4304413795471,0.4625180927813053,0.4655485160648823,0.4699299146234989,0.462524224370718,0.2173222140142833
-7.859270213127136,0.2768150757551193,0.15659294280409813,0.02430622087046504,8.575372282385826,8.788520443677902,34.74837648653182,54000,1.4464994999999994,54000.0,1598.2087647914886,0.5286487819254398,0.528935113787651,0.534600694000721,0.5286828026175499,0.20672302615547075
-9.390915776252747,0.2768404249846935,0.11050635881721974,0.015626065985765308,10.121271971225738,10.243871940135955,34.83018794440512,55000,1.4454995,55000.0,1626.9194915294647,0.4840104348659515,0.48426184076070783,0.4893420796990395,0.484025504052639,0.19664077939159413
-9.030137840270996,0.27683253079652786,0.11891113330051303,0.018479984676465392,9.801895113706589,9.750720408916473,34.99547715824114,56000,1.4444995,56000.0,1655.4946131706238,0.5385588388741016,0.5392459399402142,0.5452580040693283,0.5386058297455311,0.18705026159327173
-10.376868075370789,0.2767432072758675,0.10491779169812798,0.01373965888703242,11.125280151844025,11.464525193214417,34.88847750715557,57000,1.4434994999999997,57000.0,1684.1573719978333,0.5041190745830536,0.501130285769701,0.5068439451158047,0.5041724231541157,0.17792749027116103
-9.592648210525512,0.2768546139597893,0.1478968041241169,0.01820910151442513,10.167935416936874,10.538765818595886,34.53962137041571,58000,1.4424995000000007,58000.0,1713.109629392624,0.575777082413435,0.5736128746569157,0.5799385842680931,0.5757961015701294,0.1692496526042433
-6.733135278403759,0.2767920926809311,0.11883630181849003,0.022426464485470206,7.9518191953897475,7.754348701953888,34.22038980448585,59000,1.4414995000000002,59000.0,1742.3319735527039,0.6603578295707703,0.6643722306191922,0.6726743422746658,0.6605253430902958,0.16099504839303616
-10.595704419136048,0.2768569086790085,0.1282652328386903,0.01202022179355845,11.244741077423095,11.44963356924057,28.53209895485463,60000,1.440499499999999,60000.0,1777.380219221115,0.5573147534132004,0.5557699227035046,0.5616070500910282,0.5574347057342529,0.15314303579507796
-10.91326168203354,0.2769158599972725,0.1254529073610902,0.015642429494997487,11.727589940071105,11.935909685134888,34.82917362473058,61000,1.4394995,61000.0,1806.0917823314667,0.6164710710346699,0.6133227615952491,0.6203919597268105,0.6165543740391731,0.14567397970698662
-13.061133248329163,0.27692317911982534,0.09211627208068966,0.009252073558280244,14.00190514755249,13.761003972530364,34.88482044331867,62000,1.4384995000000005,62000.0,1834.7575461864471,0.5454489686489106,0.5441284664571285,0.5511421885192395,0.5455597175359725,0.1385692026640207
-15.656679597854614,0.27673202285170556,0.12073029340803623,0.007635379528161138,16.221551529884337,16.408675855636595,34.90232749863746,63000,1.4374995000000004,63000.0,1863.4089307785034,0.48738052767515183,0.4842009956538677,0.4908276903927326,0.4872459611594677,0.131810938134352
-13.203668530941009,0.2767821678519249,0.11062358082458378,0.014026090341620147,13.873857119560242,14.067938858270645,34.93607262045033,64000,1.4364994999999992,64000.0,1892.032641172409,0.6204682713747025,0.6192491064667702,0.6268773965239525,0.6202859291434288,0.1253822860912596
-15.879034145355224,0.2767754226326942,0.09716191155090928,0.006822342382976785,16.399603219985963,16.601758020401,34.617154836889995,65000,1.4354994999999997,65000.0,1920.9200530052185,0.5238001904785633,0.521790655374527,0.5291355454325676,0.5236554199159146,0.11926717075214711
-16.32737202644348,0.2767956718504429,0.09191684493422508,0.005955095496028661,17.05740845489502,17.087116248130798,34.5172100465979,66000,1.4344994999999998,66000.0,1949.891108751297,0.5031642939150334,0.4984936615526676,0.5053631562888622,0.5030471774637699,0.11345030037870259
-18.002201477050782,0.27679068624973296,0.11031538024917245,0.00525263664056547,18.7246550989151,18.733311482429503,34.37327518633714,67000,1.4334995000000004,67000.0,1978.9834787845612,0.4988756955564022,0.4949996047914028,0.5013625509738923,0.4987199623584747,0.1079171290376746
-17.865822700500487,0.2767553601264954,0.09705675412714482,0.005569782255915925,18.45448579597473,18.622213814735414,34.77254426922935,68000,1.4324995000000003,68000.0,2007.7418007850647,0.5306102683842182,0.5262988058179617,0.5337344790101052,0.530431585907936,0.10265382022664421
-11.241347125474364,0.27686695763468744,0.16184244267269968,0.019481158249778672,12.199714000642299,12.115038209557532,34.93056288254429,69000,1.4314994999999995,69000.0,2036.3700258731842,0.7816037768423557,0.7772380468547344,0.7876126564145088,0.7816719329357147,0.10000118263024259
-15.041454881668091,0.2768651723861694,0.08899136975407601,0.006948780371574685,15.811731882095337,16.118533601760863,28.60540552647069,70000,1.430499499999999,70000.0,2071.328454017639,0.6350701313018798,0.6322377616167069,0.6399479568600654,0.6351137590706348,0.09999999999999859
-16.84863087272644,0.2768735907971859,0.11584699622169137,0.006545621938537806,17.63426100063324,17.788543941497803,35.05215037629776,71000,1.4294995000000006,71000.0,2099.8573744297028,0.60894845110178,0.6051202950179577,0.6119883767068386,0.6089194630086422,0.09999999999999859
-16.951389649391174,0.2767976523935795,0.09415420480072498,0.006480862594675273,17.883790616989135,17.72382441139221,34.972533542390664,72000,1.4284995000000007,72000.0,2128.451242685318,0.5872059260010719,0.5832642556130886,0.5910203476548195,0.5869861652851105,0.09999999999999859
-13.154875382181258,0.27692126941680906,0.09461584228277206,0.011275519259041175,13.923065202448518,14.163063199281693,34.751696617837,73000,1.427499499999999,73000.0,2157.2268166542053,0.7279407089650631,0.7295710552632809,0.7387796082496643,0.7278751491606236,0.09999999999999859
-17.58537297821045,0.2769535790383816,0.10643112913146616,0.004894996174960397,18.234748559951782,18.275673732757568,34.26934173553857,74000,1.4264995,74000.0,2186.4074187278748,0.547933289796114,0.5431415155231952,0.5504419380128384,0.547587776094675,0.09999999999999859
-16.63504316139221,0.2768383777439594,0.10132326989248396,0.0067436827402561905,17.289613017082214,17.566365281105043,34.57825113920031,75000,1.4254995000000001,75000.0,2215.3273317813873,0.5905088033080101,0.5835425799489021,0.5925649475157261,0.5900966798961162,0.09999999999999859
-18.528955951690673,0.2767832691967487,0.09357665041461587,0.005269352096365765,19.16850040245056,19.4230939950943,34.71765911140227,76000,1.4244994999999996,76000.0,2244.131117582321,0.5431700390875339,0.5378642795979977,0.5452122603952885,0.5427118716239929,0.09999999999999859
-17.5371282453537,0.2769568627178669,0.10787501756101847,0.007623759246547707,18.14757586812973,18.25781707572937,33.2267792739941,77000,1.423499500000001,77000.0,2274.227324485779,0.5926386715173722,0.5899456917047501,0.5984629943966866,0.5922216203510762,0.09999999999999859
-14.9939933450222,0.2768314940929413,0.09167924505472183,0.008947671897127293,15.875386891126633,15.956530978202819,34.15537450139842,78000,1.4224994999999998,78000.0,2303.505294084549,0.6382773489654064,0.6349847124814987,0.6429467698931695,0.6379147877991199,0.09999999999999859
-19.285473857879637,0.27675256416201593,0.10055757846683264,0.003762060083448887,19.889106533050537,19.99595845031738,34.09193859519628,79000,1.4214994999999992,79000.0,2332.837742328644,0.45967776343226435,0.45473029121756553,0.4621584677696228,0.45939678931236266,0.09999999999999859
-20.505844745635986,0.2769244813323021,0.08483917539566756,0.0035981542703229933,20.97288101005554,21.075928846359254,28.091208772073173,80000,1.4204995000000005,80000.0,2368.436068534851,0.43340566210448744,0.42842524525523185,0.4355411873459816,0.43271963262557983,0.09999999999999859
-20.927276691436766,0.27696565991640093,0.07539788882806897,0.00351254541776143,21.67834249305725,21.511143955230715,33.62221357563536,81000,1.4194995000000008,81000.0,2398.1783106327057,0.4373555582463741,0.4312703226655722,0.43880922451615334,0.43694247034192085,0.09999999999999859
-21.202016563415526,0.27682227209210397,0.0833870708681643,0.003155135925160721,21.71717275238037,21.775663793563844,34.09709102249724,82000,1.4184994999999996,82000.0,2427.506326198578,0.4224608095884323,0.4166834118664265,0.42329460486769677,0.4219934880435467,0.09999999999999859
-19.587296384811403,0.27680414262413977,0.09085777535662055,0.0047845117232063784,20.197630333900452,20.540088571548463,34.22710942956169,83000,1.4174995,83000.0,2456.7229342460632,0.5090778594911098,0.504481605052948,0.511942105025053,0.5085488588809967,0.09999999999999859
-14.107120705842972,0.2768203386962414,0.11728935650736093,0.012282544618123212,15.107425950050354,14.965176865816117,34.29204427048575,84000,1.4164995,84000.0,2485.884217262268,0.7457290376722813,0.7417334261238575,0.7502615229189395,0.7459508806765079,0.09999999999999859
-12.177744731903076,0.27685030198097227,0.11032982131838799,0.014507234341348521,13.127435140609741,13.046212158203126,34.158334966201664,85000,1.4154994999999997,85000.0,2515.159649372101,0.798095845669508,0.7981887193322181,0.8089587962627411,0.798130168646574,0.09999999999999859
-15.563973932266235,0.27696949532628057,0.07863493604213,0.006959924118826166,16.490986013412474,16.3390593624115,33.65488564113984,86000,1.4144995000000002,86000.0,2544.873018026352,0.6519222264885902,0.6479962031543255,0.6562119264304638,0.6518193972408771,0.09999999999999859
-18.377264705657957,0.27680146357417107,0.09490546936914325,0.005062896090326831,18.97614339542389,19.141343561172484,34.241063107787376,87000,1.4134995,87000.0,2574.07771897316,0.5401143981516361,0.5348879545927048,0.5420869975984096,0.53988816639781,0.09999999999999859
-14.9359461145401,0.27675698107481,0.11419832265377045,0.012032285428489558,16.11727614545822,15.947234991550445,34.221373721309554,88000,1.4124994999999998,88000.0,2603.299223423004,0.7810480679869651,0.7784706001579762,0.7888207893818617,0.78088626383245,0.09999999999999859
-14.373026218414306,0.27682560095191,0.1288674488402903,0.010798198621254414,15.310487464904785,15.096336259365081,34.36592362721322,89000,1.4114995,89000.0,2632.397816181183,0.69224062743783,0.6874352369904518,0.6970207155644894,0.6920143051445484,0.09999999999999859
-18.043265214920044,0.2768105120956898,0.08708713388815523,0.005023133076378144,18.748436151504517,19.05069092464447,28.25215558629044,90000,1.4104994999999998,90000.0,2667.793345928192,0.5483831615149974,0.5420756384730339,0.5500077626556158,0.5480271852463484,0.09999999999999859
-13.964096783667802,0.27684677693247794,0.1228035190217197,0.016081348814768717,14.672748798698187,15.103347840413452,34.26800396751259,91000,1.4094995000000001,91000.0,2696.975086927414,0.7337155518531799,0.7335607770979404,0.7444792878627777,0.7332852658033371,0.09999999999999859
-14.967338877677918,0.2768088761270046,0.08435837208107114,0.006316271361429244,15.772181341171265,15.996975285530091,34.085343400019475,92000,1.4084994999999993,92000.0,2726.3132104873657,0.6187937380969525,0.6141665940880775,0.6222047365903854,0.6185245988965035,0.09999999999999859
-18.77833115577698,0.27683145737648013,0.08460199827700854,0.004310211278148927,19.49327599143982,19.449236612319947,34.25085490682736,93000,1.4074995000000001,93000.0,2755.5095624923706,0.5059266996383667,0.5006685773134232,0.5090604474842548,0.5055584464371204,0.09999999999999859
-19.65067904281616,0.2768842844367027,0.08638251630961895,0.004417800451163203,20.25048655605316,20.385124782562254,34.17272763595376,94000,1.4064995000000002,94000.0,2784.7726645469666,0.4972496529519558,0.4925150312781334,0.4997479158341885,0.49694628712534905,0.09999999999999859
-18.61412919998169,0.2768412518203259,0.08795819299668074,0.00545220108050853,19.372766924858094,19.36297137260437,33.84016836498409,95000,1.4054994999999995,95000.0,2814.3233456611633,0.5168573237806559,0.5118761566132307,0.5196925739198923,0.5164777571707964,0.09999999999999859
-18.732237991333008,0.27683311599493027,0.07527882917970419,0.005487584442365915,19.385625082969664,19.71389926624298,33.94041900788211,96000,1.4044995000000005,96000.0,2843.7867419719696,0.5477255359888077,0.541998892635107,0.5498880793154239,0.5473609627783298,0.09999999999999859
-20.648970867156983,0.2769597102403641,0.06643128177709877,0.00317782316415105,21.265683617591858,21.31731790447235,34.13251724173457,97000,1.4034995000000001,97000.0,2873.0843176841736,0.422822672277689,0.41790658804774283,0.42459391635656357,0.4224093368947506,0.09999999999999859
-19.907727390289306,0.2768374317884445,0.07045802459493279,0.005206312643596903,20.489603649139404,20.72830104923248,33.73759475140919,98000,1.4024994999999993,98000.0,2902.7248430252075,0.49666897118091585,0.490314215272665,0.4976164365708828,0.4962256039083004,0.09999999999999859
-20.41537455368042,0.276744640827179,0.0661085762437433,0.0035561632085591554,20.905717971801757,21.15341072845459,34.07676584656455,99000,1.4014995000000003,99000.0,2932.0703513622284,0.44683455365896224,0.44204701092839244,0.4491453112065792,0.44650890889763833,0.09999999999999859
-16.906563131332398,0.2768539843261242,0.0941830725055188,0.008575985674047843,17.619787288188935,17.758695785045624,28.222605228135233,100000,1.4004995000000002,100000.0,2967.502941608429,0.6137868741750717,0.6099166582822799,0.617297816157341,0.6134564341604709,0.09999999999999859
-22.164759716033934,0.27692513954639436,0.06285439370572567,0.002608949577435851,22.594232944488525,22.763688026428223,34.2921852956512,101000,1.3994994999999992,101000.0,2996.6641051769257,0.36429883578419686,0.3588149019926786,0.3657528440952301,0.3638186855912209,0.09999999999999859
-22.805726528167725,0.27692078390717506,0.06244673796743155,0.002308043389231898,23.201792011260988,23.271184114456176,34.068051759931635,102000,1.398499500000001,102000.0,3026.0171196460724,0.34403776851296425,0.3393784991502762,0.34581496532261374,0.34340255677700043,0.09999999999999859
-19.399253498077393,0.2769672822654247,0.08050020756199956,0.00529348551039584,19.902507747650148,20.23956072330475,34.21843889043634,103000,1.3974995000000006,103000.0,3055.2411301136017,0.5008145869374275,0.49582821877300737,0.5033696207404137,0.5004255462884903,0.09999999999999859
-22.159143115997313,0.2768158995509148,0.05824329310469329,0.002630417829146609,22.643866390228272,22.76769459915161,34.089864871685506,104000,1.396499499999999,104000.0,3084.5753622055054,0.3689882592558861,0.36374515014886855,0.3703918924033642,0.36847520326077937,0.09999999999999859
-17.20421613276005,0.27691594940423964,0.10971111536212265,0.013683277623727917,17.91087523651123,18.401948488235472,34.32589327010254,105000,1.3954995000000001,105000.0,3113.707889318466,0.6375717261731625,0.6330374363958836,0.642205901145935,0.6371059437692166,0.09999999999999859
-13.505498302459717,0.27689891001582145,0.08704141770303249,0.009999113230034709,14.435015081882478,14.449911938667297,34.10227661647914,106000,1.3944995000000007,106000.0,3143.0314452648163,0.7210256938636302,0.7199257685244084,0.7280622990131378,0.7208682858645916,0.09999999999999859
-20.13016024017334,0.2768965961933136,0.07146779481694102,0.003732894596410915,20.799102355957032,20.939284084320068,34.09022534452182,107000,1.3934995,107000.0,3172.3653676509857,0.4609451767206192,0.4556336008608341,0.46242750772833824,0.46037057527899744,0.09999999999999859
-22.331918979644776,0.27674384143948555,0.061085661675781014,0.0027761914412258192,22.839195751190186,22.818135766983033,33.25635106855957,108000,1.3924995000000004,108000.0,3202.4348125457764,0.37516567000746726,0.3703889203667641,0.37661736719310285,0.3745760132521391,0.09999999999999859
-22.181972568511963,0.27670601069927214,0.0643459437340498,0.00293570047034882,22.650487758636476,22.86863766860962,33.24267079777967,109000,1.3914995000000001,109000.0,3232.5166323184967,0.3986031614691019,0.39289370357990266,0.39992743891477583,0.39822236049175264,0.09999999999999859
-22.143137062072753,0.27695369702577594,0.053338321337476374,0.0029259194544283672,22.616762573242188,22.827212421417236,27.47326195152239,110000,1.3904994999999993,110000.0,3268.915659427643,0.3953133546859026,0.3890830582678318,0.39631700684130194,0.3947829416245222,0.09999999999999859
-21.21273889541626,0.27690881031751635,0.06135697730071843,0.0035285539017058908,21.802866250991823,21.92539161872864,33.17885505823515,111000,1.3894995000000003,111000.0,3299.0553374290466,0.43809069658815863,0.43247342440485953,0.4397646420001984,0.4378328386247158,0.09999999999999859
-22.49990282058716,0.27697253772616387,0.05175311845168471,0.0027158581706462426,22.891004144668578,23.137606367111207,33.16385543767198,112000,1.3884995000000007,112000.0,3329.2086477279663,0.3809683358222246,0.37490529277920726,0.3820102333277464,0.3806015162616968,0.09999999999999859
-22.23152685928345,0.2767710440456867,0.05017899049259722,0.0028876537097385154,22.73425926589966,22.873131372451784,33.22681586142092,113000,1.3874994999999994,113000.0,3359.3048210144043,0.39431639221310616,0.3890596031993628,0.3963167717009783,0.393756107121706,0.09999999999999859
-20.959735469818114,0.2767872277200222,0.0698777573313564,0.003999991761054844,21.512286847114563,21.697546591758726,33.211500934720384,114000,1.386499499999999,114000.0,3389.4148733615875,0.4521462985277176,0.4470658119022846,0.45424295994639396,0.4516600425243378,0.09999999999999859
-22.767564796447754,0.27677333480119704,0.051050159575417635,0.002517223500297405,23.252236602783203,23.313922637939452,33.20170531673789,115000,1.3854994999999999,115000.0,3419.533808708191,0.3649425157010555,0.35870897823572157,0.36627072836458685,0.36421640793979165,0.09999999999999859
-22.636651351928712,0.2769590261280537,0.05511594333685935,0.0028079625517129897,22.99626104927063,23.299706455230712,33.17927421192002,116000,1.3844995000000007,116000.0,3449.673106431961,0.37812288931012156,0.3727179912775755,0.38009000071883203,0.3775703528523445,0.09999999999999859
-22.19431855773926,0.2768686048090458,0.06404663652554154,0.003421450521796942,22.674402158737184,22.83611313056946,33.19065813839891,117000,1.3834994999999997,117000.0,3479.80206656456,0.4026918751448393,0.39624407385289667,0.40382158683240416,0.40201866172254086,0.09999999999999859
-20.75570746803284,0.2768989406526089,0.06278725021705031,0.004255748325260356,21.40040081691742,21.439664232254028,33.173324901138756,118000,1.3824994999999998,118000.0,3509.9467692375183,0.4328725040704012,0.4279438377171755,0.43498814330995084,0.4323221510052681,0.09999999999999859
-22.847025203704835,0.276866323441267,0.05564013076759875,0.002679839324322529,23.258006589889526,23.374915693283082,33.226929572499195,119000,1.3814994999999997,119000.0,3540.0428397655487,0.36284367874264717,0.3563765795826912,0.36385830034315586,0.362223259717226,0.09999999999999859
-23.66520545578003,0.2769135583937168,0.052705133248120546,0.0022576280656503513,24.025436853408813,24.160728414535523,27.43429041412546,120000,1.3804995000000002,120000.0,3576.4935731887817,0.32029715257883073,0.3146893999874592,0.32195740146934987,0.3198146801590919,0.09999999999999859
-23.27000226211548,0.2769350868463516,0.055219586217775944,0.002695589296228718,23.640035078048705,23.820103500366212,33.271296989008796,121000,1.379499500000001,121000.0,3606.5495109558105,0.3527621796131134,0.3465039670020342,0.3538976669460535,0.35208535017073156,0.09999999999999859
-21.77837170791626,0.27673562183976175,0.05658458327688277,0.003903703611344099,22.25135952758789,22.462358795166015,33.18181613210817,122000,1.3784995,122000.0,3636.686499595642,0.4074191371202469,0.4015146313160658,0.40943277126550676,0.40668446972966193,0.09999999999999859
-23.375560775756835,0.27692344203591346,0.05034760104678571,0.002411338176461868,23.803835964202882,23.878648725509642,33.06473272758992,123000,1.3774994999999985,123000.0,3666.930204629898,0.33822213153541086,0.3323706879913807,0.3398777803629637,0.3376718871742487,0.09999999999999859
-21.51638914489746,0.27694089502096175,0.061039073653519155,0.004241654755081981,22.049771536827087,22.14034659767151,33.17929232211752,124000,1.3764995000000002,124000.0,3697.0694856643677,0.43526883943378925,0.43043568342924116,0.4385855557918549,0.4345426327139139,0.09999999999999859
-23.005993675231935,0.27677864125370977,0.057799723789095876,0.002764912483515218,23.479150598526,23.540732349395753,33.24536183931019,125000,1.375499500000001,125000.0,3727.148869752884,0.35000403778254985,0.34333031658828256,0.35106927585601805,0.3492963262051344,0.09999999999999859
-16.581827045202257,0.2769185934662819,0.1370300264172256,0.015526024079183116,17.63702842092514,17.557628182053566,33.18852505961118,126000,1.3744995,126000.0,3757.2797667980194,0.6630117990970612,0.6561581089645624,0.6653743752986193,0.6627960619926453,0.09999999999999859
-20.984578086853027,0.2768953833281994,0.05396940505132079,0.0040794206206919625,21.586153427124025,21.602410989761353,33.23262375493856,127000,1.3734994999999999,127000.0,3787.370680332184,0.450024283066392,0.44557861250638964,0.453788827970624,0.44933807453513147,0.09999999999999859
-22.953941566467286,0.2768824433088303,0.053892047895118596,0.00283643550274428,23.39822605705261,23.458038555145265,33.3271742653023,128000,1.3724994999999995,128000.0,3817.3762249946594,0.36063652296364307,0.354520498752594,0.3623683150112629,0.3599695769548416,0.09999999999999859
-23.360876052856444,0.2768105764091015,0.05465163835138082,0.0025725367468548937,23.656853937149048,23.819731016159057,33.358720390515295,129000,1.3714994999999994,129000.0,3847.353394985199,0.3520314789116383,0.3459024738967419,0.3537437704950571,0.3512005065232515,0.09999999999999859
-23.609363967895508,0.27688011986017225,0.05429355801083147,0.0026676212343154475,24.03500434303284,24.14142444229126,27.474646224391247,130000,1.3704995000000018,130000.0,3883.750588417053,0.34476850712299345,0.338094966173172,0.3457618207931519,0.34382388585805895,0.09999999999999859
-23.276578819274903,0.2768365264236927,0.05091327747516334,0.002766168608679436,23.638690320968628,23.818264299392702,33.16362022566643,131000,1.3694995000000005,131000.0,3913.90411233902,0.3581867420375347,0.35176075135171414,0.35970978420972827,0.3571295939385891,0.09999999999999859
-23.71460966873169,0.2768605234622955,0.051005748922005295,0.002618329277029261,24.068025552749635,24.243235723495484,33.19127694538302,132000,1.3684994999999989,132000.0,3944.0325107574463,0.3368659377247095,0.3297921018898487,0.33783156344294546,0.3359113811701536,0.09999999999999859
-23.455686527252197,0.27682380363345144,0.05417473182268441,0.002781411762814969,23.86362565612793,23.982082553863524,33.25848390858424,133000,1.3674994999999999,133000.0,3974.100027322769,0.3462658035606146,0.33960301154851913,0.34769024001061916,0.3455347149968147,0.09999999999999859
-24.136118587493897,0.2769290163516998,0.05098777944780886,0.0025668836348922922,24.51641212463379,24.600360677719117,33.29675982976285,134000,1.3664995000000009,134000.0,4004.132980108261,0.31682738061249255,0.3101630424112082,0.3181157207489014,0.31607433666288853,0.09999999999999859
-18.10842751979828,0.2768692496418953,0.09465994545444846,0.009597694286960176,18.872701008796692,19.05851639318466,33.390868035001795,135000,1.3654995000000005,135000.0,4034.081288576126,0.6215930580496788,0.6166829640269279,0.626030874222517,0.6207261043936014,0.09999999999999859
-13.731013278007508,0.27680555209517477,0.09744058883190156,0.014089065115200356,14.60823513841629,14.969671231269837,33.32290287135052,136000,1.3644994999999995,136000.0,4064.0906796455383,0.8111814622282982,0.808014007538557,0.8208020689487457,0.8109708417952061,0.09999999999999859
-20.17043388366699,0.2769107090830803,0.056764342254027725,0.004526383283780888,20.725490789413453,20.68979082298279,33.27647968803808,137000,1.3634994999999992,137000.0,4094.1419355869293,0.5037106299996376,0.4984952735900879,0.5075398709177971,0.5032424259483814,0.09999999999999859
-22.751630855560304,0.2768968676030636,0.057724370284005996,0.0031276160702109336,23.16370388221741,23.344495714187623,33.270192502024365,138000,1.3624995,138000.0,4124.198870897293,0.39771781489253044,0.39080851154029367,0.3990882949531078,0.3968434445410967,0.09999999999999859
-23.84711586380005,0.2769059410393238,0.051359539084136485,0.0024488157108426096,24.259369066238403,24.305790992736817,33.33464230273261,139000,1.3614995000000005,139000.0,4154.197693109512,0.3297580217272043,0.32358129788935186,0.3310438165664673,0.3288201286643744,0.09999999999999859
-24.158835144042968,0.27671712803840637,0.04899667913652957,0.0024702410077443344,24.561411144256592,24.668558155059813,27.436378935731167,140000,1.3604995000000004,140000.0,4190.645652294159,0.322707677796483,0.31648093242943287,0.32441693732142446,0.32189797645807267,0.09999999999999859
-24.147303417205812,0.2768706393241882,0.050290820166468624,0.0023966311031254008,24.466144262313843,24.618913913726807,33.44445272654279,141000,1.3594994999999992,141000.0,4220.545977592468,0.3205248469412327,0.31406349889934065,0.3217712916135788,0.31985782089829445,0.09999999999999859
-24.07601888656616,0.2768078239560127,0.04872727444767952,0.0026148281742352994,24.47265401649475,24.53930279159546,33.28001009531556,142000,1.358499499999999,142000.0,4250.594046115875,0.3361716187149286,0.32896839003264905,0.33687712512910367,0.33536825446784496,0.09999999999999859
-24.0234670753479,0.2767447192668915,0.05145790707319975,0.002627858303952962,24.400186645507812,24.519040672302246,33.052453025852536,143000,1.3574995,143000.0,4280.84898686409,0.33021717566251757,0.3234906674027443,0.33128185871243476,0.32942358370125296,0.09999999999999859
-24.30074362564087,0.2767899148762226,0.04427758438885212,0.0024683617058908567,24.618618843078615,24.742678022384645,33.175988719336154,144000,1.3564995000000013,144000.0,4310.991269111633,0.31720932500064375,0.3101982436478138,0.31855716244876386,0.316384057700634,0.09999999999999859
-24.108889492034912,0.27674622759222983,0.05027586662210524,0.0025833432344952597,24.4871720867157,24.624765516281126,33.088326799230586,145000,1.3554994999999994,145000.0,4341.213408231735,0.3308415218889713,0.32323547440767286,0.3313663065880537,0.32967093777656553,0.09999999999999859
-24.124945713043214,0.2770327470600605,0.050932293057441715,0.002595118657918647,24.480350078582763,24.634000484466554,33.22106657002577,146000,1.3544994999999995,146000.0,4371.314790010452,0.32714306461811066,0.3199252036362886,0.32817013941705225,0.32611868558824064,0.09999999999999859
-24.46122989654541,0.2769045686125755,0.048296327808871865,0.0024631597941042857,24.80515511703491,24.933081342697143,33.169837289540915,147000,1.3534994999999999,147000.0,4401.462662696838,0.30716287685930727,0.30017175477743147,0.3083829683512449,0.30612110386788843,0.09999999999999859
-23.881674716949462,0.27681151127815246,0.05129894356057048,0.002900079860468395,24.203445697784424,24.44286764907837,33.20668101032199,148000,1.3524995,148000.0,4431.577084779739,0.338747808277607,0.33226404562592504,0.3405100921392441,0.33802867035567763,0.09999999999999859
-24.00951159286499,0.27689169293642046,0.043301813490688804,0.0026873805976938454,24.316960929870607,24.55971353149414,34.551270995913264,149000,1.3514995000000012,149000.0,4460.519580602646,0.3227164482176304,0.3156769606769085,0.32408722254633904,0.3218133119791746,0.09999999999999859
-24.328737716674805,0.27682853710651395,0.046377074645832184,0.0024948547768872233,24.676105657577516,24.841186349868774,28.088318863986597,150000,1.3504994999999997,150000.0,4496.121569395065,0.31038476766645906,0.30396399572491645,0.31177913904190063,0.309458936676383,0.09999999999999859
-24.584919872283937,0.27673641189932824,0.046563925821334125,0.0025167311826953666,24.862969827651977,25.101128448486328,34.07585445491184,151000,1.3494994999999985,151000.0,4525.467863082886,0.303361563667655,0.2967767948806286,0.304722812846303,0.3023374004215002,0.09999999999999859
-24.372855247497558,0.2768891146183014,0.04671213366650045,0.0025322368934284894,24.725724979400635,24.915307388305663,34.531877796409056,152000,1.3484995000000006,152000.0,4554.426612615585,0.3123374109268188,0.3057602297961712,0.3137790570259094,0.3114418375045061,0.09999999999999859
-24.524029598236083,0.27683403450250627,0.048209552641957996,0.002544239614275284,24.834387504577638,25.048745584487914,33.778962384359026,153000,1.3474995000000012,153000.0,4584.030838012695,0.3056479417979717,0.29886542108654973,0.30721487548947335,0.3046203710138798,0.09999999999999859
-24.677358673095704,0.27679950201511383,0.0498518891017884,0.0024258932607481255,25.00666684341431,25.17151505088806,33.76824659422322,154000,1.3464995,154000.0,4613.644457817078,0.2958241810500622,0.28901473894715307,0.29717924231290815,0.29482410204410553,0.09999999999999859
-24.47655807495117,0.2768531005680561,0.05188582712784409,0.0026431199252838268,24.869145538330077,25.010296283721924,33.73816111857724,155000,1.3454994999999996,155000.0,4643.284484863281,0.30941443333029744,0.30267287069559096,0.3112380780726671,0.3086362827271223,0.09999999999999859
-23.84492881011963,0.2767620598077774,0.049772312568500635,0.0033069217735901477,24.245797557830812,24.36432636451721,33.75513680293713,156000,1.3444995000000002,156000.0,4672.909605979919,0.33025392626225947,0.32275002387166024,0.3315135890841484,0.32907708129286767,0.09999999999999859
-24.55886577606201,0.27666516587138174,0.046359668193385,0.0026014205961255358,24.934674827575684,25.056224836349486,33.7736149253871,157000,1.3434994999999998,157000.0,4702.518518924713,0.30112864437699316,0.294310621291399,0.30271862784028053,0.3001117991805077,0.09999999999999859
-24.596028156280518,0.27673206183314325,0.04790543885529041,0.0025092555603478104,24.941375411987305,25.096885763168334,33.75721972059434,158000,1.3424995000000008,158000.0,4732.141811847687,0.3003689279705286,0.2934676533937454,0.3020332821756601,0.2994599983096123,0.09999999999999859
-24.814544353485108,0.27688624650239946,0.04698806392215192,0.0026034678171854464,25.136044874191285,25.290610960006713,33.751320734520675,159000,1.3414995000000003,159000.0,4761.770282506943,0.29234002450108526,0.2854197365641594,0.2939591262489557,0.2914609117358923,0.09999999999999859
-24.635542545318604,0.2766256956458092,0.05089804652146995,0.002683449317817576,24.96994971847534,25.09395495414734,28.052995236439678,160000,1.3404994999999988,160000.0,4797.417100429535,0.30354617622494695,0.2963742895275354,0.30497343784570696,0.3025068756788969,0.09999999999999859
-24.783214073181153,0.27686881306767464,0.04735062992013991,0.0025604158643400296,25.05044479560852,25.23343375015259,33.710856577316356,161000,1.3394995,161000.0,4827.081135034561,0.291644647821784,0.2849891750216484,0.2933325181901455,0.2906229345798492,0.09999999999999859
-24.773130386352538,0.2768227132856846,0.04664219908975065,0.002624917253269814,25.04949080657959,25.275684778213503,33.933114426943156,162000,1.3384995000000006,162000.0,4856.55087351799,0.2927552296668291,0.2859091106057167,0.2947871006429195,0.29199789482355115,0.09999999999999859
-24.454928977966308,0.2766815736293793,0.04903849937207997,0.00281417962431442,24.772490671157836,24.94325653076172,33.78636349257659,163000,1.3374995000000003,163000.0,4886.148614406586,0.31493827457726004,0.3079229069203138,0.31657754838466645,0.3138382841348648,0.09999999999999859
-24.967131202697754,0.27679206103086473,0.04699495254084468,0.0025541418923530727,25.22873896789551,25.46333338165283,33.87042217470999,164000,1.3364994999999993,164000.0,4915.67290019989,0.2840536032915115,0.2772485897243023,0.285998470172286,0.282897186934948,0.09999999999999859
-24.851968856811524,0.2769455277323723,0.044547165025025606,0.0025669128014706075,25.18000945854187,25.29337240409851,33.76502500117272,165000,1.3354994999999994,165000.0,4945.289345264435,0.28493691650033,0.2787569249868393,0.2872216204255819,0.2841519469469786,0.09999999999999859
-24.92549263381958,0.2768365960717201,0.048479428116232154,0.0025565657565603033,25.220293632507325,25.38748561477661,33.83246421365093,166000,1.3344995000000004,166000.0,4974.84675526619,0.2861132172346115,0.2793465556502342,0.2881609627008438,0.2853385427594185,0.09999999999999859
-25.00565064239502,0.2767799795269966,0.04652770709432662,0.002595028026145883,25.29734349822998,25.474992137908934,33.79090317335215,167000,1.3334995000000003,167000.0,5004.440519094467,0.2825246835201979,0.276291119992733,0.28485248805582525,0.2818880752176046,0.09999999999999859
-24.843401794433593,0.27688321912288666,0.05312412888742983,0.002714895895915106,25.12885841178894,25.295368091583253,33.819946719947254,168000,1.3324995000000004,168000.0,5034.008868694305,0.2973526964783669,0.2905362020730972,0.29926448690891266,0.29628679640591143,0.09999999999999859
-24.750349517822265,0.2767527556121349,0.04921167188324034,0.002634047830826603,25.090347867965697,25.189034910202025,34.15899232966313,169000,1.331499499999999,169000.0,5063.283737897873,0.29928734013438224,0.29223752008378506,0.301072449490428,0.29837995755672453,0.09999999999999859
-25.025955501556396,0.27688757944107056,0.047590672019869086,0.002525978772318922,25.32854931259155,25.51310001373291,28.377116149212434,170000,1.3304994999999995,170000.0,5098.52340054512,0.27908794905245304,0.2721939845979214,0.2812328820079565,0.2782944622337818,0.09999999999999859
-25.02330094909668,0.2768046835958958,0.049055003290995956,0.0025731992694782093,25.327381650924682,25.453504652023316,34.27512322541848,171000,1.3294995000000007,171000.0,5127.699080467224,0.2805968110412359,0.27375452655553817,0.2828731489777565,0.2797919055968523,0.09999999999999859
-24.687716724395752,0.27684456753730774,0.04825667289830744,0.002785262847668491,25.037603507995605,25.166966161727906,33.747623103254924,172000,1.3284995000000004,172000.0,5157.330797433853,0.30034742192924024,0.2935086386501789,0.3024679931551218,0.29957367926836015,0.09999999999999859
-25.189423484802248,0.2768561484515667,0.04675619588047266,0.0024857243560254573,25.497492597579956,25.626270139694213,33.25355727217135,173000,1.3274994999999992,173000.0,5187.402768611908,0.27625814628601075,0.2692946828454733,0.2784011141806841,0.27541203252971175,0.09999999999999859
-24.96508197402954,0.2767312584221363,0.04636802935786545,0.0027152384960791097,25.282458984375,25.413751247406005,33.60318699842877,174000,1.3264994999999997,174000.0,5217.161851167679,0.2917420721501112,0.28506538426876066,0.2939393247961998,0.29102032993733884,0.09999999999999859
-24.94009928894043,0.27691686925292014,0.04950866991281509,0.002574906708789058,25.227271377563476,25.36441245651245,33.761359423268345,175000,1.3254995000000005,175000.0,5246.7815117836,0.28395620065927507,0.2771957226246595,0.28629730409383775,0.2830117577910423,0.09999999999999859
-25.027139911651613,0.27679115334153176,0.042965227393433454,0.00258193240466062,25.33011571121216,25.43712272644043,33.73719095164302,176000,1.3244994999999997,176000.0,5276.422391176224,0.28055780969560146,0.27412915796041487,0.2830313446670771,0.2796968199759722,0.09999999999999859
-25.191358562469482,0.27696107611060145,0.048944273110479115,0.0024664779847953467,25.498825561523436,25.61208901786804,33.256710478295155,177000,1.3234995000000007,177000.0,5306.4915108680725,0.27343423168361186,0.26702913269400597,0.27594138622283937,0.27254778902232646,0.09999999999999859
-25.088384212493896,0.27705746644735335,0.045329853454604746,0.002565594289219007,25.355258310317993,25.55434175872803,33.59378617988372,178000,1.3224995,178000.0,5336.258921146393,0.28569927726686,0.27910625492036345,0.2882726287096739,0.2847924371659756,0.09999999999999859
-25.267427261352537,0.27690215915441513,0.04647129563055932,0.002377792724990286,25.578806926727296,25.708276636123657,33.27785099502766,179000,1.3214994999999992,179000.0,5366.30893945694,0.27190706694126127,0.2652634356766939,0.27453091640770433,0.27118648239970206,0.09999999999999859
-25.326064270019533,0.2769547883272171,0.046803048687055704,0.002432635919423774,25.627388202667237,25.754432830810547,27.162392452023692,180000,1.320499500000001,180000.0,5403.124548435211,0.2715307721942663,0.26482965192198754,0.27388124498724936,0.27059378339350226,0.09999999999999859
-25.058122928619383,0.27673348820209503,0.05213411483168602,0.0026963091881480068,25.378461349487306,25.482186286926268,33.61790340846486,181000,1.3194995000000005,181000.0,5432.87060379982,0.2866472788453102,0.2797642556428909,0.2891641864478588,0.28588757437467577,0.09999999999999859
-25.447530254364015,0.27676104092597964,0.046204026769846675,0.002442503566562664,25.770534608840943,25.817138299942016,33.72817934306788,182000,1.3184994999999995,182000.0,5462.519402980804,0.26220397131145,0.25544319051504133,0.2649687568098307,0.2614132960438728,0.09999999999999859
-25.163189960479738,0.27674074745178223,0.04575343233346939,0.0025831789778312667,25.458528257369995,25.568757415771483,33.516807104881885,183000,1.3174994999999998,183000.0,5492.355180978775,0.2820676947236061,0.27543538288772107,0.2851179775297642,0.28142868384718894,0.09999999999999859
-25.39020040893555,0.2769358249604702,0.047049380062147976,0.002441170365316793,25.642599699020387,25.818401176452635,33.570634262355306,184000,1.3164995000000004,184000.0,5522.143120288849,0.2692911961078644,0.26266323794424534,0.2719057673215866,0.2683873150646687,0.09999999999999859
-25.149006912231446,0.2768399984240532,0.05098472146317363,0.002584154410753399,25.451736726760863,25.582246112823487,33.57792634074892,185000,1.3154995,185000.0,5551.924591064453,0.28272916336357595,0.2760028523653746,0.285405582010746,0.28172455812990665,0.09999999999999859
-25.479773597717283,0.27678052923083307,0.0461172608602792,0.0024705856157233937,25.78506188774109,25.846896480560304,33.55607356311871,186000,1.3144995,186000.0,5581.725455760956,0.2611562190651894,0.2541761578321457,0.2635157135874033,0.26011887097358705,0.09999999999999859
-25.256129192352294,0.27687057450413705,0.047193649353459474,0.002576956232311204,25.56867142868042,25.65809317970276,33.652663856576034,187000,1.3134994999999994,187000.0,5611.440785884857,0.28078818732500077,0.27427067160606383,0.28355473090708255,0.2797250134497881,0.09999999999999859
-25.281715854644776,0.2768328869342804,0.04741889402642846,0.0024866360197775064,25.59565077018738,25.687733840942382,33.59133786235191,188000,1.3124994999999997,188000.0,5641.2103662490845,0.27462383702397347,0.2682468616515398,0.27749247051775455,0.2740047181397676,0.09999999999999859
-25.358951248168946,0.27672822335362435,0.047654174011200666,0.0024797180169261993,25.660768754959108,25.771042932510376,33.585717498878815,189000,1.3114995000000005,189000.0,5670.984927415848,0.2723411934673786,0.26555204908549784,0.274836105749011,0.27124346405267713,0.09999999999999859
-25.072741588592528,0.27695604068040847,0.05901598267070949,0.002665049850824289,25.3854011592865,25.492176000595094,27.667179745493325,190000,1.3104995,190000.0,5707.128835916519,0.28353181505203245,0.2761195802092552,0.28600668458640577,0.2824847750067711,0.09999999999999859
-25.382645629882813,0.2769708435833454,0.04403339259140193,0.0024284065117826685,25.66894549369812,25.762486867904663,33.53383819928506,191000,1.3094994999999998,191000.0,5736.949460983276,0.2656589390039444,0.2589492003172636,0.26831954668462277,0.2646661116033793,0.09999999999999859
-25.47933397293091,0.2769312982559204,0.048901036283001305,0.0023000690343324094,25.775191736221313,25.875715761184694,33.63352972078792,192000,1.3084994999999995,192000.0,5766.681696176529,0.26337711614370346,0.25674017617106437,0.26608177119493487,0.26241695728898046,0.09999999999999859
-25.36574258041382,0.2768974550962448,0.04611619166843593,0.0024484852006426082,25.681604652404786,25.745207960128784,33.52283391311884,193000,1.3074995,193000.0,5796.512110233307,0.26901918061077595,0.2622845279872417,0.27192555116117,0.268177182495594,0.09999999999999859
-25.52843114852905,0.2767342990040779,0.046941692542284724,0.0024307949816575274,25.782147899627684,25.898353345870973,33.96577327447266,194000,1.3064995000000006,194000.0,5825.953513145447,0.26054004396498204,0.2538652305752039,0.26342026905715465,0.2595821055471897,0.09999999999999859
-25.23871307373047,0.27678615841269494,0.050894448600709435,0.0026291711777448653,25.576478218078613,25.635271991729738,33.61968350235859,195000,1.3054994999999994,195000.0,5855.697993993759,0.27965492859482766,0.272937590405345,0.2825990910232067,0.27880931106209755,0.09999999999999859
-25.198654914855958,0.2768772442042828,0.04994920454919338,0.0025966242658905683,25.52736841583252,25.59763112258911,33.63354940908276,196000,1.3044994999999997,196000.0,5885.430211782455,0.284063026368618,0.27728447046875954,0.2868014641702175,0.2830394335091114,0.09999999999999859
-25.469291011810302,0.2768233072757721,0.04867026526294649,0.0022935872164089235,25.75153285598755,25.908731721878052,33.46416415732216,197000,1.3034994999999998,197000.0,5915.3129251003265,0.2629722080826759,0.25605633470416067,0.265972502976656,0.2619903506338596,0.09999999999999859
-25.36941980743408,0.2769007650911808,0.0455149922054261,0.002603703128406778,25.65850708961487,25.725084840774535,33.57873843992208,198000,1.3024995,198000.0,5945.093674898148,0.2641160722076893,0.25763634498417376,0.2673671672642231,0.2633203365802765,0.09999999999999859
-25.418523139953614,0.2766987999379635,0.04776721334829927,0.002569560704403557,25.715793716430664,25.82513251686096,33.598942804260915,199000,1.3014995000000005,199000.0,5974.856516838074,0.26703847105801104,0.26034468077123163,0.2701594292521477,0.2660419941544533,0.09999999999999859
-25.308451049804688,0.2770550107359886,0.047229447145015,0.0025688696624711154,25.61337300491333,25.697711002349852,27.802485993143055,200000,1.3004994999999997,200000.0,6010.824523925781,0.26930321207642555,0.26272461442649364,0.2725005905032158,0.26848265512287617,0.09999999999999859
-25.322728828430176,0.2768445766866207,0.04531231184862554,0.0024714419059455395,25.617534732818605,25.724716079711914,33.449934404919034,201000,1.299499499999999,201000.0,6040.7199494838715,0.27296252124011516,0.26603625039756296,0.2759022412151098,0.2722565172314644,0.09999999999999859
-25.465544708251954,0.2769557123184204,0.05051261319220066,0.0023833456445718185,25.76392007637024,25.90500298500061,33.566376527954716,202000,1.2984995000000006,202000.0,6070.511667013168,0.2675569493770599,0.2609531092941761,0.27052136392891407,0.2665242161750793,0.09999999999999859
-25.32081549835205,0.2768230140507221,0.04610940505005419,0.0025125610226532443,25.632894088745118,25.755302993774414,33.56472670445698,203000,1.2974995000000014,203000.0,6100.304849386215,0.2750405698865652,0.2683726467341185,0.27804946137964726,0.27415772527456284,0.09999999999999859
-25.31211264038086,0.27688552418351176,0.046308584773913024,0.0025172002508770676,25.588011211395262,25.737672405242918,33.62950084793679,204000,1.2964994999999995,204000.0,6130.040646314621,0.2723142141848803,0.2657460448890924,0.2752716034799814,0.2713201294988394,0.09999999999999859
-25.34238217163086,0.27695613679289816,0.049082819344475864,0.0025452966118464245,25.611195108413696,25.759315034866333,33.3568476497601,205000,1.2954994999999998,205000.0,6160.019498825073,0.2677403814345598,0.2611692223995924,0.27083978992700575,0.26688309213519096,0.09999999999999859
-25.241421321868895,0.2769036093950272,0.050120576141402126,0.002599471636349335,25.57987645339966,25.646890323638917,33.433512880232016,206000,1.2944995000000004,206000.0,6189.929607629776,0.2784622581005096,0.27193595811724663,0.28164591696858404,0.27769532686471937,0.09999999999999859
-25.418636592864992,0.27698853373527527,0.046836099496111276,0.0023944976122584195,25.662503622055052,25.804013875961303,33.97048730979202,207000,1.2934994999999998,207000.0,6219.366925001144,0.267863888964057,0.2611961568444967,0.271030731678009,0.26707894882559774,0.09999999999999859
-24.9801240272522,0.2768787426650524,0.047243227252736684,0.002739931194926612,25.305478328704833,25.419911214828492,34.502482378151356,208000,1.2924995000000008,208000.0,6248.350347280502,0.2921075757294893,0.2853671393543482,0.2954650914222002,0.2912770592868328,0.09999999999999859
-25.4387523727417,0.27678591561317445,0.04924664193764329,0.002379376323428005,25.742190502166746,25.800859704971312,34.19066753238705,209000,1.2914994999999998,209000.0,6277.598095178604,0.2641045683324337,0.25781149953603744,0.26752865985035895,0.263165170237422,0.09999999999999859
-25.217775142669677,0.2768370097279549,0.0487376937828958,0.0026003898448543625,25.546759618759154,25.657259284973144,28.256293737659988,210000,1.2904994999999995,210000.0,6312.988441228867,0.28399180291593074,0.2773762673586607,0.28715355092287065,0.283090831130743,0.09999999999999859
-25.465525485992433,0.276740765362978,0.04909527177363634,0.002332923603244126,25.75850001525879,25.84907890510559,34.01577682388759,211000,1.2894994999999998,211000.0,6342.3865649700165,0.26455382522940635,0.2581416634172201,0.2681178268790245,0.2636530172377825,0.09999999999999859
-25.353892932891846,0.276872095644474,0.048287220573052764,0.0024355079567758365,25.635235603332518,25.761439584732056,34.0577239666126,212000,1.288499500000001,212000.0,6371.748480796814,0.2719643183350563,0.26563517962396144,0.27542507384717463,0.2710729329437017,0.09999999999999859
-25.264510250091554,0.2767851635217667,0.04760926084779203,0.0025141926157521083,25.563723289489747,25.6626781539917,34.20309032450761,213000,1.2874994999999998,213000.0,6400.985605478287,0.27375633242726327,0.26700455175340176,0.2769889052212238,0.27280658115446565,0.09999999999999859
-25.444336662292482,0.276916035681963,0.04761840207874775,0.0025312541879247874,25.744061868667604,25.83428853225708,34.578897682051974,214000,1.2864994999999992,214000.0,6429.904977798462,0.26768955078721046,0.26162254326045514,0.27152112166583536,0.2670226860046387,0.09999999999999859
-25.59284418487549,0.2768560984134674,0.04520426090247929,0.0023062056163325904,25.895342458724976,25.978335273742676,34.418087266536794,215000,1.2854994999999996,215000.0,6458.959469079971,0.2590494071692228,0.25266014340519904,0.26255809810757635,0.25820390674471855,0.09999999999999859
-25.258409702301027,0.2767602673470974,0.05420226520486176,0.0025878037771908564,25.55538595199585,25.708757627487184,34.33831642742738,216000,1.2844995000000006,216000.0,6488.081456899643,0.2813642272800207,0.27465566961467264,0.2848431571424007,0.2805584516376257,0.09999999999999859
-25.574638973236084,0.2768808343410492,0.045377035554498436,0.002379813167732209,25.894321025848388,25.957173664093016,34.071237892275285,217000,1.2834995000000005,217000.0,6517.431726694107,0.2571879132837057,0.2509939040541649,0.260893798828125,0.25636899007856845,0.09999999999999859
-25.2925510597229,0.2769347408413887,0.04575750045105815,0.002489539909758605,25.602820966720582,25.732627702713014,33.24367333307505,218000,1.2824994999999997,218000.0,6547.512638807297,0.27660003340244294,0.270198882624507,0.27993031561374665,0.2755588492453098,0.09999999999999859
-25.479635108947754,0.2768562760353088,0.045601785611361266,0.002390542350593023,25.77331985092163,25.9106584815979,33.0823200332932,219000,1.2814994999999993,219000.0,6577.740265130997,0.2616558378189802,0.2554902500361204,0.2654418204575777,0.2607679256349802,0.09999999999999859
-25.57023854446411,0.2767054434120655,0.04889079402573407,0.002380584637168795,25.849140562057496,25.95423435020447,27.443075008049288,220000,1.2804994999999995,220000.0,6614.179331064224,0.2604529043287039,0.2541736578345299,0.26396776069700717,0.25947793972492217,0.09999999999999859
-25.317430030822752,0.27679370969533923,0.04788274846598506,0.0024539823927916585,25.614292289733886,25.758594707489014,33.241463620017534,221000,1.279499500000001,221000.0,6644.262242555618,0.2746631335914135,0.2689929475188255,0.2786939467340708,0.2739972613602877,0.09999999999999859
-25.449884990692137,0.27698884600400925,0.044626603992655875,0.002529154124553315,25.73665668106079,25.819016345977783,33.17568851985355,222000,1.2784995000000003,222000.0,6674.404797554016,0.26603948266804217,0.2598217261582613,0.269843845307827,0.2653727827221155,0.09999999999999859
-25.42218729400635,0.27680088397860525,0.048857563005760316,0.0024387336814543233,25.72082513999939,25.79005488014221,33.349418716202614,223000,1.2774994999999987,223000.0,6704.39032793045,0.26795603217184544,0.26148116937279703,0.2714832501858473,0.2670115747898817,0.09999999999999859
-25.319143745422362,0.27672061645984647,0.04673891350626946,0.002498258944833651,25.637655241012574,25.714845401763917,33.362333020958644,224000,1.2764995000000001,224000.0,6734.364251375198,0.275125069051981,0.2688959217816591,0.2790452250391245,0.27436651816964147,0.09999999999999859
-25.566846630096435,0.27678604480624197,0.043141813434660434,0.0022907173914136366,25.87689448547363,25.96158462524414,33.37824905128567,225000,1.2754995000000005,225000.0,6764.323881864548,0.2578506170362234,0.25198872391879557,0.26189546260237695,0.2570947451293468,0.09999999999999859
-25.53237631225586,0.27690836623311044,0.04989128299430013,0.00234533129807096,25.83213289260864,25.9239230632782,33.049797289175366,226000,1.2744995,226000.0,6794.581254482269,0.263504764392972,0.25726663598418237,0.26703619280457497,0.26262049143016336,0.09999999999999859
-25.59499557495117,0.2768212045431137,0.046295915257185696,0.002330721410224214,25.890346937179565,25.98022774505615,33.06302994021898,227000,1.2734995000000005,227000.0,6824.826516628265,0.2561219975948334,0.24996914540231227,0.2598634034395218,0.25499121324718,0.09999999999999859
-25.524436767578123,0.27689342039823533,0.04680619730986655,0.0024062547324574554,25.84166456413269,25.900262718200683,33.12224813670849,228000,1.2724994999999997,228000.0,6855.0177047252655,0.2613614547997713,0.2552325867116451,0.2650827594846487,0.26033528988063337,0.09999999999999859
-25.600051193237306,0.27678081825375556,0.04567425998672843,0.0022892838526749983,25.905409744262695,25.978446407318117,33.051213264336056,229000,1.2714994999999991,229000.0,6885.273780584335,0.2590222170650959,0.25270349487662314,0.2628231782019138,0.2578149973154068,0.09999999999999859
-25.43502806854248,0.2768727428615093,0.04802001684904098,0.0025214408988831565,25.742265491485597,25.860883935928346,27.368151463974158,230000,1.2704995000000008,230000.0,6921.812602519989,0.26866934809088705,0.26253788992762567,0.272352596193552,0.26778914384543895,0.09999999999999859
-25.489371215820313,0.27689807337522504,0.047442228673025964,0.0023887912583304568,25.80367209815979,25.84651898384094,33.29695041172458,231000,1.269499500000001,231000.0,6951.845383405685,0.2636989778280258,0.2578242887109518,0.267751417696476,0.2628389022797346,0.09999999999999859
-25.422105571746826,0.27682030048966405,0.04593454135768116,0.0024151397151872516,25.727567127227783,25.813218587875365,33.29933273815421,232000,1.268499499999999,232000.0,6981.876015901566,0.2677977400869131,0.2618727926313877,0.27182562416791917,0.26698828174173833,0.09999999999999859
-25.61666142654419,0.2768307808935642,0.04748401467874646,0.0023126807081280277,25.92856639480591,25.979692127227782,33.3038326486983,233000,1.2674995,233000.0,7011.902590513229,0.25600028517842294,0.2502685064524412,0.26019768035411833,0.25521722008287906,0.09999999999999859
-25.538591899871825,0.276805371850729,0.04713329530134797,0.0024946764879859983,25.83551918411255,25.910657627105714,33.32580074390604,234000,1.2664995000000003,234000.0,7041.909372329712,0.26298212629556655,0.25707690204679967,0.2671581935584545,0.26216230246424677,0.09999999999999859
-25.710239513397216,0.27681568983197213,0.04429636450111866,0.002291073073283769,25.97773652458191,26.059766778945924,33.28030980913404,235000,1.2654995000000002,235000.0,7071.957170009613,0.251173580750823,0.24561664345860482,0.2554287585169077,0.25036259542405603,0.09999999999999859
-25.686086868286132,0.27687661528587343,0.04577819967269897,0.0023411001698113976,25.96416115951538,26.043508195877074,33.753401008208776,236000,1.2644995000000003,236000.0,7101.583814382553,0.25259330044686795,0.2472842752635479,0.25709842538833616,0.2517977973520756,0.09999999999999859
-25.573183124542236,0.2768663356602192,0.04862411851249635,0.002235838005435653,25.856192010879518,25.92759456253052,33.706124661319784,237000,1.2634994999999996,237000.0,7131.2520134449005,0.2562917205542326,0.2504168939143419,0.2604613761007786,0.25536262288689615,0.09999999999999859
-25.595408138275147,0.2769646363556385,0.046907353779301046,0.00228049952944275,25.857708667755126,25.955996801376344,33.73027629543663,238000,1.2624994999999999,238000.0,7160.898969888687,0.25859031081199646,0.2528406350016594,0.2626562485992908,0.2576039595156908,0.09999999999999859
-25.403909507751465,0.27681807285547255,0.0498080401904881,0.0026069035601103676,25.681326889038086,25.769781761169433,33.73772935347929,239000,1.2614995,239000.0,7190.539376497269,0.2676177565008402,0.2619719148427248,0.27203176851570604,0.2669535324126482,0.09999999999999859
-25.593646385192873,0.2769481554627419,0.04420198318362236,0.002326910114730708,25.91734952545166,25.960012075424196,27.84276330376552,240000,1.2604995,240000.0,7226.455353021622,0.25389596801996234,0.24847098399698733,0.2584221952110529,0.2531657225638628,0.09999999999999859
-25.477289848327636,0.2768936374783516,0.04790702058188617,0.002317037141765468,25.76562648010254,25.809426885604857,33.539262057614295,241000,1.2594995,241000.0,7256.271155357361,0.26432527889311314,0.25903290274739266,0.26889880579710007,0.26373881463706494,0.09999999999999859
-25.593217208862306,0.2768408174216747,0.046314215131103995,0.002295487361843698,25.90210764503479,25.93074250793457,33.58908115255373,242000,1.2584994999999997,242000.0,7286.0427350997925,0.2551749314069748,0.24996259735524654,0.25970844984054564,0.25442849726974964,0.09999999999999859
-25.602824432373048,0.27689901387691496,0.0453742650654167,0.0023164265081286432,25.896013214111328,25.96769247055054,33.690366158900865,243000,1.2574995000000002,243000.0,7315.724811792374,0.2556166636347771,0.25001467077434064,0.2601723177433014,0.25503793300688266,0.09999999999999859
-25.606421615600585,0.27674505922198295,0.045502793552353975,0.002388516722712666,25.879823335647583,25.961377405166626,33.64351410408914,244000,1.2564995,244000.0,7345.448223590851,0.2569236681908369,0.25154783833026884,0.2614908027499914,0.25612505263090135,0.09999999999999859
-25.66024179458618,0.2769572917819023,0.04686192584782839,0.002280233567696996,25.933710529327392,26.037498323440552,33.608742383341784,245000,1.2554995,245000.0,7375.202387332916,0.2548324024379253,0.24924707777798175,0.25934359338879587,0.25400192426145074,0.09999999999999859
-25.457693576812744,0.27682392820715906,0.04805836840718985,0.00246476912277285,25.755661043167116,25.859848344802856,33.69152930150143,246000,1.2544994999999999,246000.0,7404.883438825607,0.2642767625451088,0.25854176619648933,0.26852217531204225,0.26329063415527343,0.09999999999999859
-25.622770740509033,0.2768205175697803,0.04487561924569309,0.002214853920042515,25.914286493301393,25.974302455902098,33.57925942988616,247000,1.2534995000000002,247000.0,7434.663726568222,0.2571992540061474,0.2513964992463589,0.26180103786289693,0.2563216333538294,0.09999999999999859
-25.48208475494385,0.2768088409602642,0.046123925322666764,0.002392843505949713,25.789736072540283,25.842647235870363,33.58305497208493,248000,1.2524994999999994,248000.0,7464.440648794174,0.26204738089442253,0.2564416221082211,0.2667576235383749,0.26112471270561216,0.09999999999999859
-25.537352409362793,0.27681179192662236,0.04893502909503877,0.0023485846160911025,25.811063753128053,25.876721857070923,33.645906066909475,249000,1.2514995000000002,249000.0,7494.161947011948,0.2610596878826618,0.25543387725949285,0.26567098857462407,0.2602272751182318,0.09999999999999859
-25.44300386047363,0.27681948617100716,0.04256469468399882,0.002390619773301296,25.740994579315185,25.786290225982665,27.782936561057053,250000,1.2504995000000003,250000.0,7530.1552629470825,0.26486401055753234,0.2590898142158985,0.2692280629724264,0.2639381733983755,0.09999999999999859
-25.562393924713135,0.2768719727694988,0.04726972019672394,0.0022767554731690327,25.854505048751832,25.9258308467865,33.66311376675333,251000,1.2494994999999995,251000.0,7559.861368656158,0.2560457908511162,0.25047398869693277,0.2608810269832611,0.2552879588901997,0.09999999999999859
-25.473856994628907,0.2767684080004692,0.04493822554685176,0.0022695768193807453,25.795562311172485,25.821042253494262,33.6114138332084,252000,1.2484995000000005,252000.0,7589.613167047501,0.26916824112832544,0.2635584786832333,0.2736436057835817,0.26830070672929285,0.09999999999999859
-25.48354306793213,0.27679715821146966,0.04463973168097436,0.0022589816694380716,25.77454961013794,25.851027759552004,33.547793025951336,253000,1.2474995000000004,253000.0,7619.421387672424,0.26376639007031916,0.2580964497774839,0.26858011648058894,0.2630711367428303,0.09999999999999859
-25.553648193359376,0.27684191733598706,0.04719733576476574,0.0022175503687467428,25.848603033065796,25.939101886749267,33.59576285129017,254000,1.2464994999999992,254000.0,7649.187046766281,0.25910403835773466,0.25369342222809793,0.26419012776017187,0.2583100929111242,0.09999999999999859
-25.289135120391844,0.27679475101828577,0.046268027551472184,0.002422168041928671,25.578933046340943,25.661733402252196,33.51158730158857,255000,1.2454995000000006,255000.0,7679.027471780777,0.2755765156894922,0.27019525530934335,0.28031687809526923,0.27471782997250555,0.09999999999999859
-25.372137638092042,0.27689141035079956,0.047871329417452216,0.0023508617829647847,25.680705850601196,25.769646266937254,33.56603456977353,256000,1.2444995000000008,256000.0,7708.819493055344,0.2735990703701973,0.26790392115712164,0.2781891272813082,0.27279150126874446,0.09999999999999859
-25.390269287109376,0.27691183796525004,0.04520518652535975,0.002312847351829987,25.714298336029053,25.745523630142213,33.60794498978478,257000,1.2434994999999998,257000.0,7738.574362516403,0.2654939702600241,0.25990134908258916,0.2702399760782719,0.2646624510139227,0.09999999999999859
-25.630928672790528,0.2767512838244438,0.04858838153071701,0.002257675668573938,25.936571760177614,25.97592212677002,33.5501566364395,258000,1.2424994999999999,258000.0,7768.380483150482,0.25574052396416663,0.2502152596861124,0.26051665906608107,0.2550244738012552,0.09999999999999859
-25.480711936950684,0.276927017390728,0.04620476049371064,0.002261626827530563,25.766142107009887,25.850142742156983,33.55630551564955,259000,1.2414995000000002,259000.0,7798.181142568588,0.2641439401656389,0.2586254870146513,0.2687286183387041,0.26321901787817475,0.09999999999999859
-25.423158172607423,0.2767661436498165,0.050133463462814686,0.0024042439691256733,25.713410722732544,25.808615539550782,27.762749904804963,260000,1.2404994999999999,260000.0,7834.2006294727325,0.2721299035102129,0.2661627533137798,0.2764281255751848,0.2710936065465212,0.09999999999999859
-25.77895505142212,0.27672685772180555,0.04416785505972803,0.002175703969434835,26.095148920059206,26.115118309020996,33.62528397035507,261000,1.2394995000000009,261000.0,7863.940155506134,0.24885759614408015,0.2430404734760523,0.2535876742452383,0.2480373614281416,0.09999999999999859
-25.50603341293335,0.2769427840709686,0.04462489864043891,0.002312264071078971,25.798492877960204,25.92814448928833,33.547417100894535,262000,1.2384994999999999,262000.0,7893.748710155487,0.2633099014610052,0.25768362189829347,0.2682758984267712,0.26235377283394334,0.09999999999999859
-25.789595794677734,0.27699283009767534,0.04926241187937558,0.0022403251132927836,26.067740308761596,26.112209659576415,33.48230842905913,263000,1.2374994999999995,263000.0,7923.615229845047,0.24981878505647181,0.24396789367496968,0.25440905594825747,0.24877744533121585,0.09999999999999859
-25.65255730819702,0.2768089264929295,0.04576273319683969,0.00222587864624802,25.951854984283447,25.991983781814575,33.55525316415543,264000,1.2364995,264000.0,7953.416823148727,0.2540926937162876,0.24862107706069947,0.25906573283672335,0.253219422057271,0.09999999999999859
-25.530908462524415,0.2768039444386959,0.04829142465442419,0.002348697348730639,25.823516849517823,25.91248900985718,33.57061491634411,265000,1.2354995000000004,265000.0,7983.2047798633575,0.2637174794524908,0.2577986228466034,0.26818447425961495,0.2623721668720245,0.09999999999999859
-25.60273042678833,0.2767215327322483,0.04734798478148878,0.0023527602426474913,25.896237884521483,25.976769428253174,33.48717742445041,266000,1.2344995,266000.0,8013.066956758499,0.2626034917086363,0.25663532337546346,0.2674408710151911,0.26165248347818854,0.09999999999999859
-25.64597462463379,0.2768560144901276,0.0488338987454772,0.002225274977274239,25.95183662033081,25.990979820251464,33.525696455054444,267000,1.2334994999999995,267000.0,8042.894824028015,0.2560990444421768,0.2507201087623835,0.26143938505649567,0.25539552231132984,0.09999999999999859
-25.514414386749266,0.27686404979228973,0.04975394841469824,0.002257896128343418,25.818574214935303,25.843035020828246,33.54201984264127,268000,1.2324994999999994,268000.0,8072.70817565918,0.26289461462199687,0.25703943710029126,0.26761632251739503,0.26197071611881256,0.09999999999999859
-25.929377101898194,0.27689984104037285,0.046408077841624616,0.002214486087672412,26.21518936729431,26.278302606582642,33.40811594455474,269000,1.2314995000000004,269000.0,8102.641022205353,0.2401022217720747,0.23451471158862114,0.24526444241404532,0.23925138375163077,0.09999999999999859
-25.74800048446655,0.27685164511203764,0.048455054523423316,0.0022725277966819703,26.05482649040222,26.09216855812073,27.780252142820547,270000,1.2304995000000005,270000.0,8138.63781619072,0.25388378141820434,0.2482298510223627,0.2589502341449261,0.2529885448664427,0.09999999999999859
-25.418144081115724,0.27686337324976923,0.047484675277024505,0.0023678639874560757,25.712187984466553,25.764535329818724,33.615505995913615,271000,1.2294995,271000.0,8168.385993480682,0.2675144952386618,0.2618414547145367,0.2722063500881195,0.26646306638419626,0.09999999999999859
-25.683703022003172,0.2769447193145752,0.04700465919077396,0.0022307280482491477,26.020929248809814,26.032133487701415,33.548626208942785,272000,1.2284994999999994,272000.0,8198.193474292755,0.25663750916719436,0.25103287844359873,0.2618021770864725,0.2555401359647512,0.09999999999999859
-25.660098136901855,0.27681140103936197,0.04745981215126813,0.0023555757645517587,25.97775220489502,26.028328762054443,33.54909876686723,273000,1.2274994999999993,273000.0,8228.000534534454,0.2583486673384905,0.2528222588300705,0.26363405196368694,0.2573853322565556,0.09999999999999859
-25.45761022567749,0.2769300900399685,0.048086324455216524,0.0023794965505367143,25.750320539474487,25.794530500411987,33.55533181977808,274000,1.2264995000000007,274000.0,8257.80205821991,0.2670344862937927,0.2615261354744434,0.27226610644161703,0.26610275386273863,0.09999999999999859
-25.375025470733643,0.2768970156311989,0.04809818639978766,0.0024611780635314063,25.70116674232483,25.75435677909851,33.61910170403789,275000,1.2254995000000009,275000.0,8287.547053337097,0.2756611002534628,0.2699684620052576,0.2808501300215721,0.2748046948313713,0.09999999999999859
-25.71964462661743,0.27687441688776016,0.04877295993641019,0.0023418425081763415,26.020690809249878,26.045301515579222,33.79493732130027,276000,1.2244994999999985,276000.0,8317.137284755707,0.2557978421151638,0.24983784042298793,0.2609194669574499,0.2547752593457699,0.09999999999999859
-25.675445629119874,0.2768177528679371,0.04749457898363471,0.002341252432554029,25.971580837249757,26.023363388061522,34.23975773396515,277000,1.2234994999999997,277000.0,8346.343099594116,0.26088388630747794,0.25467798532545566,0.26573796521127224,0.2596754066199064,0.09999999999999859
-25.625098972320558,0.2768287234008312,0.045674919132143256,0.0022364073251374067,25.95775909614563,25.945893424987794,34.04005698415187,278000,1.2224995000000003,278000.0,8375.720254421234,0.2570826794654131,0.2515628539919853,0.26268883982300756,0.25632232147455214,0.09999999999999859
-25.64487077331543,0.27696830984950066,0.047569391747936604,0.0023083907454274594,25.929852493286134,25.999979257583618,32.963802670092974,279000,1.2214995000000004,279000.0,8406.056560993195,0.25714369204640386,0.2517254902124405,0.2625008678287268,0.2563447487205267,0.09999999999999859
-25.505512481689454,0.27685111677646634,0.04732451702654362,0.00237149506888818,25.837982315063478,25.888617679595946,28.00245736133716,280000,1.2204995000000005,280000.0,8441.767713308334,0.26710510279238225,0.2612985727339983,0.27256361167132853,0.26613236269354823,0.09999999999999859
-25.74631137084961,0.27682674723863604,0.04846082605607808,0.002325350182480179,26.027218141555785,26.0754054813385,33.53857737539448,281000,1.2194994999999997,281000.0,8471.584124803543,0.25283704417943953,0.24725186890363693,0.2585104921758175,0.2518829355835915,0.09999999999999859
-25.610957702636718,0.2767791641652584,0.04783967415429652,0.002355211823596619,25.906182275772096,25.991017711639405,34.2476694900792,282000,1.2184994999999994,282000.0,8500.783192396164,0.26000180953741076,0.25446190559864046,0.2653789603859186,0.2589256687313318,0.09999999999999859
-25.67051258468628,0.27677534821629524,0.04810263923928142,0.002318480223417282,25.982867383956908,25.98862555885315,34.20143170156816,283000,1.2174995000000008,283000.0,8530.021734952927,0.25681573627889154,0.25081573136150837,0.2618054677695036,0.25565295267105104,0.09999999999999859
-25.580597187042237,0.2769598750770092,0.046483873011544344,0.0023536608662689104,25.871512548446656,25.93543574142456,34.28261223660291,284000,1.2164995000000012,284000.0,8559.191041231155,0.2610113862603903,0.25530238573253156,0.2665905839204788,0.26012307895720005,0.09999999999999859
-25.46154400253296,0.2768077661395073,0.05069844268076122,0.002427631985745393,25.824834287643434,25.8024340839386,34.243115010000366,285000,1.215499499999999,285000.0,8588.393992185593,0.2713817030638456,0.26555840876698494,0.27636613249778746,0.270269454061985,0.09999999999999859
-25.805364589691163,0.2769274654686451,0.049376269651576876,0.0022133787038037555,26.093045976638795,26.14549529647827,34.29182810891512,286000,1.2144994999999992,286000.0,8617.555459976196,0.24782874035835267,0.24216575744748114,0.25355197255313394,0.24708344949781894,0.09999999999999859
-25.44943395996094,0.2768118553459644,0.050110348967835304,0.002422064274549484,25.794528884887697,25.817380365371704,34.22605675695304,287000,1.2134995,287000.0,8646.77296590805,0.2696680789291859,0.26438127900660036,0.2751834601610899,0.26886301347613334,0.09999999999999859
-26.01982152557373,0.2767728227972984,0.0478226977288723,0.00224192927707918,26.304561223983765,26.350652101516722,33.82392943430078,288000,1.2124995000000007,288000.0,8676.337834119797,0.23571643140912055,0.2301420905441046,0.24151569765806197,0.2346721306145191,0.09999999999999859
-25.485008350372315,0.27691474187374115,0.050016047021374105,0.0023976142684696243,25.79666820335388,25.828866077423097,34.47572798208865,289000,1.2114995000000006,289000.0,8705.34374833107,0.268468283072114,0.262789879694581,0.27397725874185563,0.2675945302248001,0.09999999999999859
-25.551913814544676,0.2769832488000393,0.04675106814131141,0.0023732842755271122,25.88649120903015,25.866433364868165,28.360987484244532,290000,1.210499499999999,290000.0,8740.603452205658,0.26529821135103704,0.25980474393069747,0.2707947620153427,0.2643557380735874,0.09999999999999859
-25.686770736694335,0.2768976222276688,0.049178160406649116,0.0023401121620554477,26.01447750091553,26.025664279937743,34.59372690954646,291000,1.2094994999999997,291000.0,8769.510427236557,0.255083279684186,0.24947417326271534,0.2604280665665865,0.25408303704857826,0.09999999999999859
-25.661670799255372,0.2768486056923866,0.04870380480214954,0.0023915071830851956,25.979681602478028,26.005386711120604,34.53373979305135,292000,1.2084995000000003,292000.0,8798.4676156044,0.2609396729171276,0.25543427555263043,0.2665269988924265,0.2599814467579126,0.09999999999999859
-25.75876001358032,0.27692428800463675,0.04641845621354878,0.002217211553012021,26.066444828033447,26.0878374710083,34.48690919106293,293000,1.2074995000000008,293000.0,8827.464126110077,0.249881937623024,0.24461660791933537,0.25573288442194464,0.248950870975852,0.09999999999999859
-25.568791439056398,0.2767280721962452,0.047269284842535855,0.0022590051604202016,25.893230228424073,25.94668764305115,34.29331409950894,294000,1.2064994999999996,294000.0,8856.624329566956,0.26657406391203403,0.2610890668928623,0.2723310815095901,0.2656540278494358,0.09999999999999859
-25.6512700920105,0.27690751057863233,0.050101762615144256,0.0024341625982197,25.985681419372558,26.00363682746887,33.77226935141418,295000,1.2054994999999988,295000.0,8886.234422206879,0.258923721536994,0.2533347355723381,0.26443741838634016,0.2578388514518738,0.09999999999999859
-25.522633731842042,0.2768641808927059,0.05060057402960956,0.00236975313257426,25.834411966323852,25.886011110305787,34.419989549686555,296000,1.2044994999999998,296000.0,8915.28730750084,0.2660965546667576,0.26074877090752124,0.2721211933493614,0.26514009295403956,0.09999999999999859
-25.67064149093628,0.2768654881119728,0.049310291916131975,0.0022702204101951793,25.933670074462892,26.016340076446532,34.54145860082529,297000,1.2034995000000008,297000.0,8944.238025426865,0.2567328751683235,0.2515887248814106,0.26286795231699944,0.2558954499363899,0.09999999999999859
-25.607679328918458,0.2769514158964157,0.04938591999001801,0.0024343952137278395,25.986426696777343,25.914673894882203,34.57185343598874,298000,1.2024995000000003,298000.0,8973.163290262222,0.26134499774873254,0.2561108305603266,0.26733938898146153,0.2605794081389904,0.09999999999999859
-25.554141941070558,0.27682877850532533,0.04799607256241143,0.0023239820145536214,25.87821297264099,25.913243726730347,34.54496720426182,299000,1.2014994999999995,299000.0,9002.111067295074,0.2654982378035784,0.2602856793999672,0.2715522893965244,0.2646162180304527,0.09999999999999859
-25.526908302307127,0.27696398639678954,0.04953294953517616,0.00245288983755745,25.934983631134035,25.846472681045533,28.376907074604553,300000,1.2004994999999996,300000.0,9037.35099029541,0.2660744807422161,0.26058803117275237,0.271940181940794,0.26528627498447893,0.09999999999999859
-25.48540442276001,0.2769654003083706,0.04909177791699767,0.0024054072487633676,25.814154504776003,25.860016870498658,34.27272918034399,301000,1.1994994999999997,301000.0,9066.528707742691,0.269494892179966,0.2639412222802639,0.27551446095108983,0.2687874190956354,0.09999999999999859
-25.754752765655518,0.27690577939152716,0.04950147164426744,0.0022630718292784876,26.097333665847778,26.1024080619812,33.90627195911624,302000,1.1984995000000007,302000.0,9096.021776914597,0.2545667397081852,0.24901397947967052,0.2606265074312687,0.25362653444707395,0.09999999999999859
-25.479069030761718,0.2768172011077404,0.049682259865105154,0.0024093441807199268,25.82006439971924,25.83369824028015,34.39638111347465,303000,1.1974995000000006,303000.0,9125.094603538513,0.2720559813529253,0.26655750691890717,0.2777020477801561,0.2709734408706427,0.09999999999999859
-25.608890419006347,0.2768595778346062,0.050949471704661846,0.002335473600192927,25.93374188232422,25.964653924942017,34.62340097543412,304000,1.1964994999999983,304000.0,9153.976804494858,0.261324782833457,0.2554966214597225,0.26684662179648877,0.26020002745091914,0.09999999999999859
-25.7258120803833,0.2768758023381233,0.04892986737377942,0.002181093706632964,26.05686400604248,26.05022692298889,34.6277864493245,305000,1.1954995000000004,305000.0,9182.855347156525,0.2522015157341957,0.24691309875249862,0.2583660927861929,0.25120477117598056,0.09999999999999859
-25.363125186920165,0.2767654082775116,0.05047171452082694,0.0025286324560875074,25.710275339126586,25.727083267211913,34.371839156008136,306000,1.194499500000001,306000.0,9211.94893193245,0.27488186649978164,0.26937191738188265,0.2806355293244123,0.27396039924025534,0.09999999999999859
-25.60703631591797,0.27685498467087744,0.0530516899228096,0.0024049666895298288,25.91622211074829,25.936332027435302,34.4352255659061,307000,1.1934995,307000.0,9240.988963365555,0.2609210563153028,0.25583253206312656,0.26723835803568363,0.2602586598098278,0.09999999999999859
-25.81491843032837,0.27675395783782003,0.0492514409981668,0.0022697033057920636,26.12585683441162,26.12926420021057,34.408472868555755,308000,1.1924994999999998,308000.0,9270.051572561264,0.2512960939258337,0.24600279527902602,0.2576240990161896,0.2504644426703453,0.09999999999999859
-25.68090659713745,0.2769665010869503,0.05154016553796828,0.002333661314100027,26.040622470855713,26.00945552062988,33.95844073106041,309000,1.1914995,309000.0,9299.499333143234,0.25972988063097,0.2542486283928156,0.2659025835543871,0.25892925448715687,0.09999999999999859
-25.607527667999268,0.27690151396393775,0.04907263491116464,0.002261541402665898,25.900951166152954,25.94866265678406,28.29394959124311,310000,1.1904995,310000.0,9334.84257864952,0.26112841384112834,0.25592363469302654,0.26733724762499333,0.2603196740150452,0.09999999999999859
-25.467558837890625,0.27685287374258044,0.05083581643737853,0.0024953304446535185,25.837413600921632,25.810483316421507,34.44125717571696,311000,1.1894995000000004,311000.0,9363.877524137497,0.27236462958157065,0.26711286383867267,0.278611901730299,0.2714688316434622,0.09999999999999859
-25.7324201965332,0.276761119812727,0.04942666497640312,0.0022204107323777864,26.045802690505983,26.065257192611693,34.22728874506744,312000,1.1884995000000003,312000.0,9393.093979358673,0.25366224233806134,0.24842951454222204,0.260022519916296,0.2527628861516714,0.09999999999999859
-25.53828797531128,0.27687373635172846,0.049941686406731606,0.002428969276836142,25.894005876541137,25.85415674209595,34.396853032514386,313000,1.187499499999999,313000.0,9422.16640663147,0.26460679167509077,0.2594221246242523,0.27088915286958215,0.26378903767466544,0.09999999999999859
-25.80323389053345,0.2770778793096542,0.05006340884044767,0.002196651600883342,26.09480771827698,26.15116971206665,34.41863462802492,314000,1.1864995,314000.0,9451.220435857773,0.2494095911383629,0.24419391104578972,0.25579248286783696,0.24862117114663124,0.09999999999999859
-25.83067685317993,0.27695491418242457,0.04904934514127672,0.002353572477353737,26.13387181854248,26.13130153656006,34.242818671054806,315000,1.1854995000000006,315000.0,9480.423640012741,0.2522243704497814,0.24701309452950954,0.2587210798859596,0.25156590481102464,0.09999999999999859
-25.59936446762085,0.27685226890444753,0.05135704726167023,0.002385002161609009,25.897582721710204,25.980173690795898,33.68741211608069,316000,1.1844995,316000.0,9510.108318805695,0.26515257187187674,0.2595038183182478,0.27113919265568254,0.2641049126684666,0.09999999999999859
-25.69374839782715,0.27689101061224936,0.05238499603047967,0.002251689807977527,25.985344856262206,26.04132709693909,34.17038545466419,317000,1.1834994999999997,317000.0,9539.373426914215,0.25701812230050564,0.2518958339691162,0.26367613695561887,0.2564315010011196,0.09999999999999859
-25.798013847351076,0.27672008246183394,0.04796673586592078,0.002147769131581299,26.110526546478273,26.134875717163087,34.476595709073116,318000,1.1824994999999991,318000.0,9568.378611087799,0.25014126577973367,0.24489079485833645,0.2567426701784134,0.2493303669244051,0.09999999999999859
-25.436977615356444,0.27693985056877135,0.05139971278049052,0.0024461808381602166,25.777568965911865,25.7926538772583,34.62383141275251,319000,1.1814995000000006,319000.0,9597.260452747345,0.2759939295053482,0.27052065475285053,0.28229012309014795,0.275148825481534,0.09999999999999859
-25.897171630859376,0.2769878871142864,0.05028828670829535,0.0022527642271015793,26.182789293289183,26.213468061447145,28.586450997503842,320000,1.1804995000000003,320000.0,9632.242060422897,0.2497937603890896,0.24400330148637295,0.2559489190429449,0.2488596963584423,0.09999999999999859
-25.61403243255615,0.27684729832410815,0.05110620168782771,0.002519063439744059,25.89109585762024,25.9756789226532,33.754669560505334,321000,1.1794995,321000.0,9661.867592096329,0.2645897583067417,0.25908350545167924,0.2710147377103567,0.26384792986512184,0.09999999999999859
-25.85242203140259,0.2768678561151028,0.05156268032081425,0.0022399673195322976,26.15958624458313,26.15726626777649,33.95954574489273,322000,1.1784994999999996,322000.0,9691.314393758774,0.2477814520895481,0.24247276502847673,0.25458008268475535,0.24715611979365348,0.09999999999999859
-25.631779876708983,0.27692328369617464,0.05094654121436179,0.002383818846778013,25.96582481765747,26.00616777038574,33.84632514498577,323000,1.1774994999999995,323000.0,9720.859699249268,0.26506371778249743,0.2596169859319925,0.27151263535022735,0.2642892872095108,0.09999999999999859
-25.586442138671874,0.2767681694328785,0.049743728064000604,0.0024578744572936557,25.923511672973632,25.95268231010437,34.54778131597343,324000,1.1764995000000007,324000.0,9749.805118560791,0.26186269265413287,0.2560232366323471,0.267991202801466,0.2606721534579992,0.09999999999999859
-25.82583194732666,0.27693663465976714,0.05415035059303045,0.0022797254872275515,26.132997940063476,26.160041776657103,34.395528137857255,325000,1.1754995000000001,325000.0,9778.878665924072,0.24925219769775867,0.24391626977920533,0.2559025250524282,0.24846826331317426,0.09999999999999859
-25.877267307281492,0.2767039250433445,0.05318866396509111,0.00221250776539091,26.18167678642273,26.191802881240843,33.825802340645225,326000,1.174499499999999,326000.0,9808.441897153854,0.24759594269096852,0.24197426933050156,0.25429775696992873,0.2467797260284424,0.09999999999999859
-25.711088329315185,0.27681336024403574,0.05547198892943561,0.0022969916454749183,26.01207587814331,26.04188450050354,33.885683806274734,327000,1.1734995,327000.0,9837.952885627747,0.2549216242879629,0.24941256934404374,0.2616789134889841,0.25408084930479524,0.09999999999999859
-25.72348137664795,0.27694047820568085,0.051819612096995114,0.002263780544803012,26.068096967697144,26.05609940338135,33.908657296466615,328000,1.172499500000001,328000.0,9867.44387960434,0.2575381710678339,0.2521055584549904,0.264130475372076,0.2566315720230341,0.09999999999999859
-25.823961357116698,0.27701540985703466,0.05133146193809807,0.002206438981113024,26.106524614334106,26.137765172958375,33.890403566828454,329000,1.1714994999999997,329000.0,9896.950758218765,0.24854724340140819,0.2430640535503626,0.2550649044811726,0.24753055816888808,0.09999999999999859
-25.568075084686278,0.2767399183511734,0.053205753304064275,0.002453379753162153,25.899912395477294,25.933600820541383,27.87174821607824,330000,1.1704995,330000.0,9932.829383611679,0.26441327457129954,0.25935982187092305,0.2714223510175943,0.263755085632205,0.09999999999999859
-25.77808634567261,0.27680323529243467,0.051772064637392756,0.0023723281949642114,26.05875951385498,26.094496692657472,33.82881617484149,331000,1.1694995,331000.0,9962.389980793,0.25386747244000435,0.2483074939250946,0.26038047109544277,0.2529743658453226,0.09999999999999859
-25.83407809448242,0.2767892592549324,0.051521862793713805,0.0022082078299717977,26.126918069839476,26.155736555099487,33.706481398283955,332000,1.1684994999999996,332000.0,9992.05786561966,0.2490727417767048,0.24409642532467843,0.25617060950398446,0.24843873381614684,0.09999999999999859
-25.768450160980226,0.27699601286649705,0.05298369406349957,0.002303874950390309,26.107379932403564,26.10168503379822,33.68544682948071,333000,1.167499500000001,333000.0,10021.744276762009,0.25597490739822387,0.2506832413524389,0.2625658256262541,0.25508484798669817,0.09999999999999859
-25.844056495666504,0.27696188670396804,0.05324963273666799,0.0022602231628261506,26.1332426738739,26.165347021102907,33.6331205870554,334000,1.1664995000000002,334000.0,10051.476873636246,0.24807822842895985,0.2426148778796196,0.2547562348395586,0.24705317339301108,0.09999999999999859
-25.676718830108644,0.27685506388545034,0.050222935697063806,0.002298272503656335,26.02543025970459,26.001281116485597,33.714254829590736,335000,1.1654994999999992,335000.0,10081.137918233871,0.2571262277513742,0.2515098417699337,0.2636075415760279,0.2560936183929443,0.09999999999999859
-25.64548518371582,0.27689829355478285,0.05271165972389281,0.0022859096047468485,25.972606603622438,25.984025840759276,33.69527718036505,336000,1.1644994999999998,336000.0,10110.815668582916,0.26412837839126585,0.258555773049593,0.2707790540456772,0.26340081010758876,0.09999999999999859
-25.7118494682312,0.27690846529603,0.05399375067651272,0.0023254514191066848,26.030078287124635,26.043087091445923,33.65160599274173,337000,1.1634995000000004,337000.0,10140.53193283081,0.2556456047892571,0.2501715649217367,0.2622948528379202,0.25476959301531316,0.09999999999999859
-25.835765308380125,0.27686265873908994,0.051002133935689926,0.0021664975531166418,26.144550191879272,26.14617360687256,34.152458487739736,338000,1.1624995,338000.0,10169.81240272522,0.2496862954646349,0.24424558639526367,0.2563406688570976,0.24870605613291263,0.09999999999999859
-25.64547434234619,0.27675273260474204,0.05493139162659645,0.0023838067714241334,25.973150941848754,25.989831142425537,34.417240274482296,339000,1.1614994999999997,339000.0,10198.867609024048,0.2627701150774956,0.25749311985075474,0.26985290633141995,0.2622139712572098,0.09999999999999859
-25.694484260559083,0.2767096012532711,0.05185428947769105,0.0023468615021556617,26.013630071640016,26.014493017196656,28.293427011382448,340000,1.1604994999999994,340000.0,10234.211507558823,0.2569977804720402,0.25137601454555986,0.26386499148607256,0.255994544878602,0.09999999999999859
-25.73310298538208,0.27686508506536484,0.053182437483221295,0.002355530115310103,26.060479230880738,26.0730737323761,34.417323023118996,341000,1.1594995000000001,341000.0,10263.266644477844,0.2556797690540552,0.2502541605532169,0.2625672687292099,0.2548328665345907,0.09999999999999859
-25.759749305725098,0.27681701013445853,0.051947475090622905,0.0023050136274541727,26.07207249069214,26.095232374191283,34.30210202014269,342000,1.158499500000001,342000.0,10292.419377326965,0.2551144207119942,0.2497090017348528,0.2623515899926424,0.2545178295820951,0.09999999999999859
-25.710540145874024,0.2768515137732029,0.05390147939696908,0.002356863951892592,25.99826251602173,26.066502906799318,34.10383246360905,343000,1.1574994999999997,343000.0,10321.74159526825,0.25777752229571343,0.251903941988945,0.26419045446813105,0.2566152803450823,0.09999999999999859
-25.89954094314575,0.27671918559074404,0.05110937374457717,0.0021070900499471465,26.180140991210937,26.197161890029907,33.7428181537524,344000,1.1564994999999991,344000.0,10351.37753200531,0.24230563336610794,0.2370634825080633,0.24956077037751676,0.24168076269328595,0.09999999999999859
-25.70921904373169,0.2767689096033573,0.05435712836869061,0.002447759613627568,26.005072477340697,26.04244245529175,34.14416732653045,345000,1.1554994999999997,345000.0,10380.66511130333,0.25665703059732914,0.25112198580801487,0.2637318213880062,0.25592601428925993,0.09999999999999859
-25.798977405548097,0.27671865522861483,0.05460947412438691,0.0022079384053358807,26.085827489852907,26.1288948802948,34.33063221424075,346000,1.1544995000000007,346000.0,10409.793617010117,0.2555732240378857,0.24993977485597133,0.26238629941642283,0.25477368478477,0.09999999999999859
-25.829623977661132,0.2768688018620014,0.053354347746819256,0.0023051361149409788,26.109207614898683,26.127895288467407,33.17736933952363,347000,1.1534995000000006,347000.0,10439.934645175934,0.2455758918374777,0.2402663968503475,0.2528245752900839,0.24460305397212506,0.09999999999999859
-25.894316730499266,0.2767924918532372,0.053182617476209997,0.0021598685180069877,26.212988904953004,26.21020802116394,33.70352425804887,348000,1.1524994999999991,348000.0,10469.60513305664,0.24553748366236686,0.24000908748805522,0.25263130931556227,0.24459011328220367,0.09999999999999859
