guyguy404/RL_class_project/result_pbrl_share/walker_run-Single_walker_walk_walker_run-medium-pbrl-05-25-02-05-45/train.csv
actor_loss,batch_reward,critic_loss_in,critic_loss_ood,critic_q1,critic_target_q,fps,frame,share_ratio_now,step,total_time,ucb_curr_actions_ood,ucb_current,ucb_next,ucb_next_actions_ood,ucb_ratio_ood
0.18390890955924988,0.2766742706298828,0.26767486333847046,0.5281767249107361,-0.11153112351894379,0.8344535827636719,95.92386511584677,0,1.5,0.0,10.424936294555664,0.3287484347820282,0.32493987679481506,0.3301626443862915,0.3299327790737152,3.0
-0.1569031714759767,0.2769211627244949,0.05162615025788546,0.037072204154916105,0.32473318958468733,0.5072768889069558,34.41401734109382,1000,1.4994994999999987,1000.0,39.482863426208496,0.058362318109720944,0.06259481786936522,0.06545515886694193,0.05836159799620509,2.9261595592038483
-0.1987497690320015,0.2768223389685154,0.050922270763665435,0.0317715646661818,0.4117520204484463,0.5380075005888939,34.26934985542062,2000,1.498499500000001,2000.0,68.66345834732056,0.06013883665949106,0.06272930996865034,0.06458187049627304,0.0601231805421412,2.783445594073607
-0.15535709977149964,0.2769390741288662,0.0509570248760283,0.028467278139665722,0.3582851891070604,0.5107394439578057,34.699150880497044,3000,1.4974995000000009,3000.0,97.48260807991028,0.0640154053941369,0.07023448187485337,0.06903757166862488,0.06397919277846813,2.647692040852256
-0.139541556507349,0.27693960988521577,0.057305617835372684,0.027278797842562198,0.36320331467688083,0.5363925159573555,34.78634043237299,4000,1.4964994999999994,4000.0,126.22952437400818,0.07127578332647681,0.08891869074851275,0.08264019704237581,0.07130136474221944,2.51855942796883
-0.1530014635398984,0.27689464911818507,0.06430876812338829,0.029668998021632434,0.41339870989322663,0.5611161841154099,34.78453792895167,5000,1.4954995000000004,5000.0,154.97793006896973,0.07408291234448552,0.09590353479981423,0.08843870097026228,0.07411529793962836,2.395724840479903
-0.19775852711498737,0.2768065364062786,0.06998040054738522,0.032408632267266514,0.4522609482705593,0.6142179519236087,34.572308239723135,6000,1.4944995000000003,6000.0,183.90281438827515,0.07381973257288336,0.09607168402522802,0.08803204930573702,0.07382824203744531,2.2788811125736492
-0.1921701280325651,0.2768954659998417,0.06723764341324567,0.03057990364357829,0.46128048679232597,0.6141606466472149,34.82067555981262,7000,1.4934995000000002,7000.0,212.62138485908508,0.0762047663629055,0.10013433503359556,0.0909002399891615,0.0762923517934978,2.1677360594568955
-0.1658784140944481,0.2767726269960403,0.06410335378721356,0.026062764395028352,0.4604848318696022,0.5918045274019241,34.719936665624566,8000,1.4924995000000003,8000.0,241.42328095436096,0.07556070037931203,0.09573150390386581,0.08646566074341536,0.07562119602039456,2.0620117467044237
-0.2123241904526949,0.2768664432168007,0.06627942037582397,0.026113865649327637,0.5065491846501827,0.6430603648424149,34.07692947033714,9000,1.4914995000000002,9000.0,270.76864862442017,0.07528526289016009,0.09671596650779248,0.08794020394235849,0.07526561603322625,1.9614437952433663
-0.20525995106995107,0.2768049950301647,0.06670463880896568,0.025140846664085986,0.5150205790698529,0.6389668439924717,28.08566839186597,10000,1.4904994999999992,10000.0,306.3739969730377,0.07645666161179543,0.09624169723689556,0.08840420538932085,0.07639565799385309,1.8657807202347552
-0.19870237249135972,0.2768018507957459,0.06342095785588026,0.023818156527355312,0.5292941244244576,0.6413502071797847,34.24664966667745,11000,1.4894995000000004,11000.0,335.57393407821655,0.07730253330618143,0.09391653046011925,0.0874947721734643,0.07732687974721193,1.7747833021989736
-0.24188698774576187,0.2767225798666477,0.06762839375808835,0.024240989016368984,0.5631459717750549,0.7026914035081864,33.8986187782813,12000,1.4884995000000005,12000.0,365.07366156578064,0.0772940770164132,0.09536909117549658,0.0882785469442606,0.07730993142724037,1.6882239888125683
-0.2743551747053862,0.2767481323182583,0.07524717324972152,0.027119970509782435,0.6142046524584294,0.7610991561412811,33.89184565863915,13000,1.4874995,13000.0,394.579283952713,0.08462919370085001,0.10147542564570904,0.0946207971945405,0.0846483079791069,1.6058863258804101
-0.2906289491057396,0.2768643944263458,0.07139778758957982,0.026082162922248246,0.6143907468616963,0.7720637697577476,33.94707472938397,14000,1.4864994999999992,14000.0,424.03690338134766,0.08710856058448553,0.10145199888199567,0.09547171100974083,0.08716781327873468,1.5275644160604327
-0.31862763637304303,0.2768035913109779,0.07584646021947265,0.02667312723957002,0.6411114675700664,0.8119227161407471,33.73619207722013,15000,1.4854994999999998,15000.0,453.6786606311798,0.09108532866090537,0.10472776903957129,0.09862344016134739,0.09113830990344286,1.4530624039872562
-0.3290634532570839,0.2768431741297245,0.07617937889695167,0.025188333520665764,0.6562975288629532,0.8165475537180901,33.681552376072936,16000,1.4844995000000005,16000.0,483.3685040473938,0.09319630960375071,0.10552822565287352,0.10027301062643527,0.09326802714914083,1.3821939865072734
-0.3992702658474445,0.2768873962759972,0.07562856502830982,0.025037661345675588,0.7128371267914771,0.8575462831258773,33.84974393604686,17000,1.4834994999999997,17000.0,512.9108254909515,0.09711836910247802,0.10971976000070571,0.10468557344377041,0.09706891329586506,1.314781946800423
-0.4172738795280457,0.2768580538034439,0.079251012429595,0.02510815742239356,0.7479686352014542,0.9029120089411735,33.86348151039364,18000,1.4824995,18000.0,542.4411623477936,0.10134704653918743,0.11412924118340015,0.109451626367867,0.1014065799638629,1.250657711223672
-0.5355292318463325,0.2768799452483654,0.08228041730076074,0.025236815685406328,0.8490863435268402,1.0420065662860871,33.88630991072752,19000,1.4814994999999997,19000.0,571.9516055583954,0.10483221903443336,0.11653501188755036,0.11170762427896261,0.104936389349401,1.1896609277680197
-0.5611080669164658,0.2767505375146866,0.08309237495809793,0.025635436352342368,0.9116654418706894,1.05705455493927,28.7581447135641,20000,1.4804994999999994,20000.0,606.7243638038635,0.11107615093141794,0.12068998251855373,0.11682606689631939,0.11112765169143676,1.1316390650748966
-0.5736940145492554,0.2767782531380653,0.0851494308039546,0.02495242286659777,0.9151077734231949,1.0547471696138382,34.80910011569992,21000,1.479499500000001,21000.0,635.4524841308594,0.11669547320157289,0.12598387859016658,0.12251438339054585,0.11685853639245034,1.076447031009242
-0.732556611597538,0.27695739263296126,0.09005523171275855,0.026265961818397045,1.1032253732085229,1.2792068638801575,34.976152437606515,22000,1.4784995,22000.0,664.043393611908,0.1229597359970212,0.13221630534529685,0.1291696365699172,0.12303984425961971,1.0239468098354505
-0.8987310833930969,0.2767210412323475,0.0883728201687336,0.024389691714197397,1.268556653738022,1.3911308157444,33.90742675819295,23000,1.4774994999999989,23000.0,693.5354583263397,0.12481881929934024,0.13358699944615365,0.1311649141088128,0.12488359304517507,0.9740071170888802
-0.8015137145519257,0.27678082582354546,0.08724076964706183,0.024867285173386336,1.1584142506718635,1.2935668846964836,33.89693476412102,24000,1.4764995000000003,24000.0,723.0366513729095,0.1327457667067647,0.13936094506829977,0.13747658232599497,0.13274001230299473,0.9265030712798921
-0.9152657153606415,0.27701564455032346,0.09172505077719688,0.024666587764397264,1.2760231931209565,1.4272237389087676,33.98696204236173,25000,1.4754995000000006,25000.0,752.4596996307373,0.13838037744909526,0.1446554509177804,0.1431065907627344,0.13847737986594438,0.8813158816094583
-0.9707756867408752,0.2768107970058918,0.08886716633290052,0.023186543106101454,1.3110962787270546,1.4607015110254287,33.933704948161,26000,1.4744994999999994,26000.0,781.9289252758026,0.1420532715320587,0.14868294817209243,0.14733883500099182,0.1421491133645177,0.8383325509154325
-1.005141749382019,0.2767102226614952,0.09023493772000074,0.023617348555475474,1.4318996766209602,1.5525061638355255,33.95135676876189,27000,1.4734995000000004,27000.0,811.3828296661377,0.15066578942537306,0.1567165844887495,0.15597157816588877,0.15073173458874226,0.7974455931066636
-1.1611491256952287,0.27682426351308825,0.09085278905928135,0.02221583214122802,1.5243122885227203,1.6900288920402526,33.927249588938956,28000,1.4724994999999999,28000.0,840.8576626777649,0.15287475645542145,0.15846381248533725,0.15750311337411405,0.15287569672614337,0.7585527643783305
-1.4624712866544725,0.2768637670874596,0.09788005714863539,0.021940346316434444,1.8308270219564438,2.001475287437439,33.918602467249876,29000,1.4714994999999995,29000.0,870.340009689331,0.1587219132632017,0.16437074354290962,0.16361064566671848,0.15891409204900264,0.7215568075363916
-1.3611249858140946,0.27681659495830535,0.0983799674808979,0.02325855641439557,1.7872994346618651,1.897290006995201,28.086771440588038,30000,1.4704995000000014,30000.0,905.9439597129822,0.17127034962177276,0.175629794806242,0.17521009516716005,0.1712861176431179,0.6863652087917703
-1.644962639927864,0.276755478143692,0.1009578087925911,0.022705106756649912,2.089474279522896,2.220647991299629,34.038039012199086,31000,1.4694995000000008,31000.0,935.3228561878204,0.1785675529539585,0.18204097720980644,0.18180279503762722,0.17865647707879542,0.6528899664161381
-2.037941317200661,0.2768325245976448,0.11077862641215325,0.02465860065072775,2.451266749382019,2.5638633365631103,33.94363350343737,32000,1.468499499999999,32000.0,964.7834620475769,0.1949423205703497,0.19840882425010203,0.19887138257920742,0.19501815761625768,0.621047370680741
-1.6954184925556184,0.2768380860686302,0.10632942193746567,0.02542591140884906,2.1539766838550567,2.2774315049648286,34.01589379220222,33000,1.4674995,33000.0,994.1814844608307,0.20824782824516297,0.21165446653962136,0.21203326459228994,0.208427539229393,0.5907577945280045
-2.2508365795612337,0.2768592749238014,0.10609507167339324,0.022316905940882863,2.7154657497406007,2.8249033497571947,33.987995376606285,34000,1.4664995000000005,34000.0,1023.6036376953125,0.20481241792440413,0.20699859508872032,0.2073051246702671,0.20483902560174466,0.5619454944524661
-2.541429273366928,0.2767827551662922,0.10051596903800965,0.02155493158660829,2.972523536324501,3.1459223086833954,34.00266960790329,35000,1.4654995000000004,35000.0,1053.0130937099457,0.2126927345842123,0.2148486461043358,0.21609506872296333,0.21284638026356698,0.5345384210930749
-2.9945646295547483,0.27677988255023955,0.1134792900532484,0.022818232150748373,3.481272474527359,3.6480749413967133,33.964059754209046,36000,1.4644994999999996,36000.0,1082.4559824466705,0.22759779937565328,0.22963130512833596,0.2309904864281416,0.2276851995587349,0.5084680390632548
-2.932441447257996,0.27682842338085173,0.11664235124737024,0.02400065491069108,3.338580188512802,3.7099016835689547,34.00796356238653,37000,1.4634994999999995,37000.0,1111.8608598709106,0.24630765250325204,0.24703766004741193,0.24871303123235702,0.24655211424827575,0.4836691555681731
-3.1642969369888307,0.27694670620560646,0.12406324178725481,0.024552717920392753,3.648639206171036,3.7801666365861895,34.03975613783865,38000,1.4624994999999996,38000.0,1141.2382740974426,0.2576638516783714,0.25927890262007713,0.26084833639860155,0.2577893539518118,0.46007975738063583
-3.847956667423248,0.27684458738565443,0.142230343028903,0.025665086375549435,4.3258577425479885,4.581628675699234,33.910383325540735,39000,1.4614995000000006,39000.0,1170.7277672290802,0.2832375812828541,0.2838741074502468,0.28504937030375005,0.28333665646612644,0.4376408557679648
-3.5856395778656007,0.2767721321582794,0.1345010783597827,0.028669517412781717,4.165697107076645,4.25882036113739,27.9642011629491,40000,1.4604995000000003,40000.0,1206.4877741336823,0.31166543206572533,0.3111494737416506,0.314474569812417,0.3118082358390093,0.41629633898206825
-4.052256792068482,0.27678802359104154,0.10664708862453699,0.023949533603154122,4.648312701463699,4.627767012834549,33.8676459504555,41000,1.4594994999999997,41000.0,1236.0144801139832,0.3003800980746746,0.3006390701532364,0.3032519598901272,0.3006472762227058,0.39599283194381996
-4.91850525522232,0.27693676710128784,0.1183235524892807,0.022927187197841703,5.44205695605278,5.4970812001228335,33.881218521033354,42000,1.4584994999999994,42000.0,1265.5293576717377,0.3110260145962238,0.3102387310117483,0.3133754811286926,0.3111152087897062,0.37667956277088704
-4.227412212371826,0.27690308591723445,0.15113270823657513,0.030268749034032226,4.84923751783371,4.857023103475571,33.86023024046585,43000,1.4574995000000006,43000.0,1295.0625298023224,0.35447057098150253,0.3531096549928188,0.3569447736442089,0.35475854051113126,0.3583082358152284
-2.9638525685071944,0.27686707612872125,0.10137425201386213,0.027756336033344268,3.585942688703537,3.747299433350563,33.87382832729809,44000,1.4564995000000007,44000.0,1324.5838465690613,0.37799244382977487,0.3784555172920227,0.38311741665005683,0.37825583505630495,0.34083291089278106
-5.5255692486763,0.2768213901221752,0.1344100746512413,0.023178051471710204,6.019147978067398,6.199882868051529,33.86015561593754,45000,1.4554994999999993,45000.0,1354.1170842647552,0.3548972619473934,0.35572429171204567,0.35795224393904207,0.35486025708913804,0.3242098884033219
-7.951177654266357,0.27687672966718674,0.1224067711904645,0.01715183176845312,8.42543680381775,8.628682907581329,33.869184017093765,46000,1.4544994999999996,46000.0,1383.6424491405487,0.32724216055870053,0.3272650015950203,0.33083300521969794,0.32735913133621214,0.3083976000532428
-7.042606741905212,0.2768997757136822,0.13446698669344187,0.022093366576358676,7.608160585880279,7.807706217288971,33.949921424660154,47000,1.4534995,47000.0,1413.0975987911224,0.3754978541433811,0.3733078536987305,0.37706348446011545,0.37579286652803423,0.2933565049079651
-5.6208722526431085,0.27678606075048445,0.14231533908098937,0.028685697941109537,6.370120143830777,6.345633971214294,33.917553325907164,48000,1.4524994999999996,48000.0,1442.5808582305908,0.414112627863884,0.4154546858072281,0.42042278924584386,0.4142689933776855,0.27904899051406257
-6.356054547786712,0.27681982174515724,0.10882235278934241,0.019533822278492152,6.8815549547672274,7.047472007274628,33.91518401385476,49000,1.451499500000001,49000.0,1472.066176891327,0.41283726397156717,0.4122911234498024,0.41618496719002723,0.41300041517615316,0.2654392788438319
-8.273216974258423,0.27691036385297774,0.12249503003060817,0.018409999761730432,8.890509743213654,8.991402210712433,28.04606820583576,50000,1.4504995,50000.0,1507.7217991352081,0.40358532816171644,0.40355766034126284,0.40845866307616235,0.40363352075219155,0.252493336827115
-6.246369985103607,0.276767547249794,0.13450494026392698,0.025357894264161587,6.96253684580326,7.037095287322998,33.94125093333698,51000,1.4494994999999988,51000.0,1537.1844732761383,0.4867535474598408,0.4853070869743824,0.4899765267074108,0.48695220264792444,0.24017879124663816
-6.222117848873139,0.2768995294868946,0.09343258311972022,0.018116986660286785,6.701973895072937,6.965670058727264,33.92378357130388,52000,1.4484995000000005,52000.0,1566.6623179912567,0.4584129465520382,0.45833460345864296,0.4637535766363144,0.4583858914375305,0.22846484778406018
-8.21797592830658,0.27679211980104446,0.12428840511292219,0.01734516385104507,8.945218916416168,8.8956632437706,33.96953097228135,53000,1.4474995000000013,53000.0,1596.1004638671875,0.4661680015325546,0.4647418613731861,0.469767154276371,0.4662282029390335,0.2173222140142833
-9.154861491203308,0.2768623839914799,0.12380195657908917,0.017046337135136126,9.680506580591201,9.995857263803481,33.932283998359786,54000,1.4464994999999994,54000.0,1625.5709238052368,0.46420607122778895,0.46087002936005594,0.4663206271827221,0.4644407859444618,0.20672302615547075
-6.028464874207973,0.2767833249568939,0.15053716370463371,0.030915044042281806,7.062676053404808,7.094776453241706,33.926935090861704,55000,1.4454995,55000.0,1655.046029806137,0.6246507048904896,0.6212630244195462,0.628530953168869,0.6249597660005093,0.19664077939159413
-9.747291996955871,0.27686321893334387,0.09330096922814846,0.0137064902279526,10.208309848785401,10.632444326877595,33.88605831634562,56000,1.4444995,56000.0,1684.5566926002502,0.48838795748353003,0.4879723934829235,0.49372847357392313,0.48855151164531707,0.18705026159327173
-9.132027550697327,0.2768782420158386,0.11499025151878596,0.018149696285370737,9.889298331737518,10.061371948719025,33.99351783954093,57000,1.4434994999999997,57000.0,1713.9740660190582,0.565260346442461,0.5660050709843636,0.5717543112039566,0.5653849424421787,0.17792749027116103
-12.312059099197388,0.27690068262815476,0.10428652651980519,0.010959431691560894,12.964521517753601,12.895918652534485,33.89731883721583,58000,1.4424995000000007,58000.0,1743.4749250411987,0.46925139474868777,0.4669255158007145,0.47296839705109595,0.46920378255844114,0.1692496526042433
-12.42379396057129,0.2767895288169384,0.1119488652125001,0.012149826674023643,13.11635743522644,13.16340293121338,33.926970492186506,59000,1.4414995000000002,59000.0,1772.9500088691711,0.5073404719531536,0.5054085015654564,0.5120145529508591,0.5074229503273964,0.16099504839303616
-12.167113629341126,0.27670040249824523,0.11322102170810103,0.014492861413396894,13.013663358688355,12.99233572101593,28.77331344985827,60000,1.440499499999999,60000.0,1807.704435825348,0.5519826672077179,0.5488865175247193,0.5556945469975472,0.5520278176963329,0.15314303579507796
-12.893895445585251,0.2769079724252224,0.11890237545967101,0.01519267511065118,13.953161583185196,13.572492760419845,35.11561904709279,61000,1.4394995,61000.0,1836.1817927360535,0.5749836688637734,0.5733674010336399,0.5799433709681034,0.5751521145999432,0.14567397970698662
-9.719631279945373,0.276892204195261,0.14606812888011336,0.01701946127275005,10.683698168992997,10.60207826757431,35.18687439813749,62000,1.4384995000000005,62000.0,1864.6014811992645,0.676679984152317,0.6765028728544712,0.6837902052998542,0.6767204811275005,0.1385692026640207
-7.813535708069801,0.2767931538820267,0.09066149926930665,0.017981585278641434,9.167208253383636,8.936423026800156,34.55642171037276,63000,1.4374995000000004,63000.0,1893.5396628379822,0.7400469899177551,0.7447384111881256,0.7538122783005238,0.7402925661802292,0.131810938134352
-13.166943677902221,0.2768602855205536,0.09079788107052446,0.00886645907512866,13.989449228286743,14.016134883880616,35.11958431875674,64000,1.4364994999999992,64000.0,1922.0138041973114,0.5828205340802669,0.5791221133172512,0.5861618858277797,0.5828695754408837,0.1253822860912596
-17.467127040863037,0.27708685129880906,0.10403199040144682,0.005591759631177411,18.123148586273192,18.066383432388307,35.299380337949984,65000,1.4354994999999997,65000.0,1950.342913866043,0.46865838527679443,0.4644313853085041,0.4713306885659695,0.46867228719592097,0.11926717075214711
-11.089094453334809,0.27687149396538735,0.10111867456883192,0.015046604950213805,12.208815405607224,12.08593944120407,35.262135174012286,66000,1.4344994999999998,66000.0,1978.7019457817078,0.7751688461601735,0.7719038387238979,0.7811651933789253,0.7754642229676246,0.11345030037870259
-16.439518909454346,0.27686148664355276,0.09835501590371132,0.006939782391302288,17.38218155384064,17.115407843589782,35.17824516255348,67000,1.4334995000000004,67000.0,2007.1286058425903,0.5784151856303215,0.5731628321111202,0.5802342037856579,0.5782114259898663,0.1079171290376746
-6.7689824690818785,0.27695160895586013,0.15766131387650967,0.019726164392894135,8.232173347711564,7.770334963202476,35.17763856024419,68000,1.4324995000000003,68000.0,2035.555755853653,0.9450995028018951,0.9480515888333321,0.9606381336450577,0.9454037031829358,0.10265382022664421
-13.65815421295166,0.2768237243294716,0.11001566314697266,0.007533382518915459,14.857498609542846,14.5478076171875,35.29991627944775,69000,1.4314994999999995,69000.0,2063.884435415268,0.694606934428215,0.6916256783604622,0.7001544112861157,0.694764002174139,0.10000118263024259
-11.681921765089035,0.27676143780350687,0.1272253959290683,0.013218233057297767,12.91721433198452,13.243131225228309,28.875048182690822,70000,1.430499499999999,70000.0,2098.5164132118225,0.8451581109166145,0.8417344785928726,0.8516878828406333,0.845184452354908,0.09999999999999859
-12.128562757730483,0.27675027400255203,0.1106780187189579,0.012944194291485474,13.364716334104537,13.217761925011873,34.07875601698527,71000,1.4294995000000006,71000.0,2127.860207796097,0.7766168482005597,0.7787626258134842,0.7876565478742122,0.776847884118557,0.09999999999999859
-15.537592929840088,0.2769464912712574,0.11808080388233065,0.006184368149144575,16.2202703332901,16.204879224777223,33.89236025168094,72000,1.4284995000000007,72000.0,2157.365382671356,0.6163893212974072,0.6108807864487171,0.6187102533578873,0.6166088885068893,0.09999999999999859
-16.68673066520691,0.2768840591311455,0.100208255790174,0.006928007911657915,17.34283087158203,17.452498207092287,34.09000423883436,73000,1.427499499999999,73000.0,2186.6994948387146,0.6099760685563087,0.601977258771658,0.6110894829034805,0.6094334080517292,0.09999999999999859
-15.842782581329345,0.27681614163517954,0.11031602183356881,0.006916292414534837,16.62042215538025,16.810318159103392,34.05899586075148,74000,1.4264995,74000.0,2216.060313940048,0.6266342777907848,0.6252540629804134,0.6331777924895287,0.6263881531953812,0.09999999999999859
-15.60001109790802,0.27676127246022225,0.10854483446478844,0.010291482234373688,16.37281720685959,16.405330979824065,33.89291402492746,75000,1.4254995000000001,75000.0,2245.5650069713593,0.6929207688868045,0.6875052052736282,0.6964421932697296,0.6925541204214096,0.09999999999999859
-9.535686914861202,0.27686540138721466,0.1319381863102317,0.01577519251522608,10.90734794652462,10.981509920239448,33.986550048147365,76000,1.4244994999999996,76000.0,2274.9884119033813,0.8681541481912136,0.866478404045105,0.8794925491809845,0.8683806241750717,0.09999999999999859
-11.792533147335053,0.27679181879758835,0.08454015403613448,0.009869968159124255,13.19077189874649,12.670037333965302,34.06486816007898,77000,1.423499500000001,77000.0,2304.3441693782806,0.779036925882101,0.7768203674554824,0.7865986588299274,0.7791888462007046,0.09999999999999859
-14.401445177078248,0.2768437966406345,0.09007360961660743,0.007848388221813366,15.173496268749236,15.253800352096558,32.86926944879824,78000,1.4224994999999998,78000.0,2334.7677240371704,0.6937559462189674,0.688644070416689,0.6967050769627094,0.6936801514923573,0.09999999999999859
-15.832608684539794,0.276756661683321,0.10722527254372835,0.008414828382898122,16.62441009902954,16.635252201080323,34.03529130864308,79000,1.4214994999999992,79000.0,2364.148992538452,0.6821190479695797,0.6767543750107289,0.6856097968518734,0.681871473312378,0.09999999999999859
-16.3861873254776,0.2768610017299652,0.11072320773825049,0.007242079306743108,17.12240124988556,17.28366650104523,27.94940732293098,80000,1.4204995000000005,80000.0,2399.927927017212,0.6210434084236622,0.6162397272139788,0.6258277116119861,0.6208747040331364,0.09999999999999859
-14.653595205605031,0.2769517741203308,0.08969160858541728,0.008251950072823092,15.430069657444953,15.440352147817611,34.07877622998078,81000,1.4194995000000008,81000.0,2429.2717039585114,0.6715439661443233,0.6688891935646534,0.6772008782327175,0.6714563311636448,0.09999999999999859
-17.318789335250855,0.2769475916028023,0.09102628076821566,0.006281732069444843,18.028962405204773,17.994790744781493,34.13551875102551,82000,1.4184994999999996,82000.0,2458.5667040348053,0.5899777936637401,0.5854973779022694,0.5931245581805706,0.5896028473973274,0.09999999999999859
-19.44438132095337,0.2768002448678017,0.07824624101817608,0.004551584532251581,20.019807662963867,20.1122200756073,34.07704602900829,83000,1.4174995,83000.0,2487.911971092224,0.5077560658752919,0.5013762676119804,0.5089781839251518,0.5074536686241626,0.09999999999999859
-18.47608287715912,0.27679063299298284,0.11337755983322859,0.009101002171402797,19.146629408597946,19.254084963321684,33.997816289019696,84000,1.4164995,84000.0,2517.3256254196167,0.5652153387069702,0.5613035054206849,0.5687236058712005,0.5646898560225964,0.09999999999999859
-8.941104046761989,0.27687465235590936,0.13477822741493584,0.018950886423699558,10.033383448243141,10.129129737973214,33.70031039882214,85000,1.4154994999999997,85000.0,2546.9989438056946,0.9008403174877166,0.9001049632430077,0.9110044568777085,0.9008451456427574,0.09999999999999859
-16.93047378540039,0.2768866479694843,0.08052351125329733,0.0052654462261125445,17.581228306770324,17.639085377693178,34.002883793311824,86000,1.4144995000000002,86000.0,2576.408214569092,0.5651868717074394,0.5630610518455506,0.5698528415858746,0.5650530425012111,0.09999999999999859
-19.981909328460695,0.27693034693598745,0.0737031471952796,0.004008479216019623,20.52160032081604,20.557306983947754,33.94725084792977,87000,1.4134995,87000.0,2605.8656811714172,0.470479799374938,0.4661772560030222,0.47283049258589743,0.46989661280810835,0.09999999999999859
-19.82883825302124,0.2767675901055336,0.09088743304461241,0.004580829064128921,20.484912034988405,20.39090633392334,33.98429362064623,88000,1.4124994999999998,88000.0,2635.2910397052765,0.5037996669113636,0.5004611153304577,0.5075048194825649,0.5033141605556011,0.09999999999999859
-9.070828509449958,0.2767811657190323,0.14374509873986244,0.018710100571857766,10.813918869376183,10.309881707429886,33.938117074797155,89000,1.4114995,89000.0,2664.756434440613,0.9429722918570042,0.9451025178730488,0.9565342902243137,0.9430259767770767,0.09999999999999859
-15.57707458114624,0.2768256243467331,0.07081567910313606,0.005773201089934446,16.386403192043304,16.404805958271027,27.955739420870913,90000,1.4104994999999998,90000.0,2700.5272648334503,0.5880504248440266,0.5869651246368885,0.5935955272912979,0.5878797350525856,0.09999999999999859
-14.345757736206055,0.276823380202055,0.08768646987527609,0.010189138351008296,15.319099761009216,15.356660044193267,33.89372472463123,91000,1.4094995000000001,91000.0,2730.0312519073486,0.7340014808475971,0.7307598582804203,0.7393295995891094,0.7339271905422211,0.09999999999999859
-14.392577001094818,0.2767773265838623,0.09888490514829755,0.011389209144283086,15.606411107063293,15.054822062969208,33.86789645107451,92000,1.4084994999999993,92000.0,2759.557739496231,0.7612066234350204,0.7524448189139367,0.7631350460350513,0.761247240960598,0.09999999999999859
-15.123013040542602,0.2769951059818268,0.11715438782423734,0.011564993407577277,16.13213795387745,16.302032014369964,33.93846445939038,93000,1.4074995000000001,93000.0,2789.0228323936462,0.7319989668726921,0.7263589170277118,0.7367172671854496,0.7318608285486699,0.09999999999999859
-9.558242296233773,0.27675925827026365,0.12351834969222546,0.015509909984190016,10.710240773499011,10.768671210050583,33.906684750322405,94000,1.4064995000000002,94000.0,2818.5155420303345,0.8674519375562668,0.8660667515993118,0.8782614149451256,0.8674115835428238,0.09999999999999859
-15.97761927986145,0.27677009838819505,0.0683372455611825,0.006634180110413581,16.50844814300537,17.106872818946837,33.932724875382725,95000,1.4054994999999995,95000.0,2847.9856190681458,0.6355109952688217,0.6308917427957058,0.6394945757985115,0.6354429966509342,0.09999999999999859
-18.376852293014526,0.27689697313308714,0.07964056435227394,0.004526446850039065,19.087307154655456,18.917523690223693,33.920455423106795,96000,1.4044995000000005,96000.0,2877.4663565158844,0.5157324869930744,0.5126146074235439,0.5200176747143268,0.5154677104055881,0.09999999999999859
-18.103188934326173,0.27689544156193735,0.08455896580219269,0.006309845326468349,19.01069682407379,18.958039281845092,33.85740129892408,97000,1.4034995000000001,97000.0,2907.0019965171814,0.5928037473857403,0.5895949293076992,0.5973603375256061,0.592509910851717,0.09999999999999859
-13.347451580047608,0.27672479817271234,0.11388552652671934,0.011676436747191474,14.465459678649902,14.553473036289216,33.86914764228345,98000,1.4024994999999993,98000.0,2936.527393102646,0.7335772059857846,0.7394889082610607,0.7486413403749466,0.7334328405559063,0.09999999999999859
-19.65147320175171,0.27677025803923605,0.08290051582828165,0.0040184474483830855,20.290867733001708,20.248455039978026,33.90839714626788,99000,1.4014995000000003,99000.0,2966.018613576889,0.49281336238980294,0.4880692371726036,0.4956302645206451,0.4924792711138725,0.09999999999999859
-20.268321681976317,0.27683100566267965,0.08019353529810905,0.004020710198092275,20.80777879714966,20.8516723651886,28.059061635978672,100000,1.4004995000000002,100000.0,3001.6577246189117,0.47298145925998686,0.4689257622361183,0.4753188541829586,0.4725676540285349,0.09999999999999859
-21.364841396331787,0.2767839201390743,0.0614451606683433,0.003372548793675378,21.972722146987916,21.99236402320862,33.901908115546334,101000,1.3994994999999992,101000.0,3031.1545901298523,0.4278074057400227,0.42151252475380896,0.4284321752786636,0.42720806229114533,0.09999999999999859
-15.728006559193135,0.2769595069885254,0.11056740509346127,0.012569552374305204,16.78147914791107,16.756317559480667,33.91142352384607,102000,1.398499500000001,102000.0,3060.643178462982,0.7055590196847915,0.6991717827320099,0.7083343108594418,0.705300131469965,0.09999999999999859
-14.096961001873016,0.27694548639655114,0.09813134526461363,0.009931891393382103,15.083766908168792,15.129067278862,33.862350206492884,103000,1.3974995000000006,103000.0,3090.174501657486,0.725999399214983,0.7240816253721714,0.7324223879277706,0.7257179939150811,0.09999999999999859
-18.880118175506592,0.27687526419758796,0.0950888940244913,0.004387639089953154,19.61532868671417,19.66575285434723,34.0232412350226,104000,1.396499499999999,104000.0,3119.566175699234,0.5165515726208687,0.5111290201544761,0.5183448073565959,0.5162845925986767,0.09999999999999859
-21.048317682266234,0.2769411633014679,0.0747870470546186,0.0035445068338885903,21.57411480140686,21.6675852394104,33.87536011566087,105000,1.3954995000000001,105000.0,3149.08615732193,0.4342347604930401,0.4285968454480171,0.436107348844409,0.4335809021294117,0.09999999999999859
-21.214937808990477,0.27692674788832666,0.07680014013499022,0.0033883890917059036,21.84281482887268,21.808379133224488,33.852706299452926,106000,1.3944995000000007,106000.0,3178.6258935928345,0.44458376795053484,0.43959532195329665,0.44664498990774154,0.4442665156126022,0.09999999999999859
-21.289945625305176,0.27695306104421613,0.06589595123380422,0.003547802785877138,21.7030085773468,21.971843231201174,33.86122553897529,107000,1.3934995,107000.0,3208.15819811821,0.4510475910604,0.4454987210333347,0.4529287547171116,0.45069259917736054,0.09999999999999859
-21.604165664672852,0.27681732696294786,0.07619738065823912,0.003502142213867046,22.15619718170166,22.17205697631836,33.923982221854125,108000,1.3924995000000004,108000.0,3237.63586974144,0.4320738504528999,0.42663474249839783,0.43359369203448295,0.4315687519311905,0.09999999999999859
-10.765024745941162,0.27683346047997476,0.13566940359398721,0.02066650937288068,12.102881635189057,12.183894543528556,33.933473788639326,109000,1.3914995000000001,109000.0,3267.1052963733673,0.8937491936087608,0.8848553862571716,0.8967061930000783,0.8937389056384564,0.09999999999999859
-6.730666179418564,0.2769068704545498,0.11724575036019087,0.021344108301447704,7.817159037679434,8.895779205560684,27.752896013889153,110000,1.3904994999999993,110000.0,3303.1375725269318,1.1043372794091701,1.097309503287077,1.1120782985687256,1.1045254381000995,0.09999999999999859
-17.102942953109743,0.2770048788487911,0.10269117068499327,0.006206663694232702,17.70680225467682,17.803052193641662,33.86648647621236,111000,1.3894995000000003,111000.0,3332.6652891635895,0.6072227465957403,0.6038079591542482,0.6108124597966671,0.6071572543680668,0.09999999999999859
-21.81593041229248,0.2768519795536995,0.07122602393105626,0.00338692126062233,22.428734560012817,22.3923067779541,35.28746608202417,112000,1.3884995000000007,112000.0,3361.0039637088776,0.4247425737529993,0.419297182098031,0.4264617290198803,0.4241765109151602,0.09999999999999859
-20.866863515853883,0.27678838300704955,0.07385793049633503,0.003806651040446013,21.45366136932373,21.453531562805175,35.38731366479017,113000,1.3874994999999994,113000.0,3389.2626791000366,0.47616238954663276,0.4712017288804054,0.478768726170063,0.47570385870337484,0.09999999999999859
-15.992399243354797,0.2768209531903267,0.1142289234995842,0.01158811930567026,16.557719967603685,16.96102291059494,35.39637855298311,114000,1.386499499999999,114000.0,3417.5141570568085,0.6833947097063064,0.6793972637355328,0.6885217295140028,0.682965960457921,0.09999999999999859
-20.69391702270508,0.276925395488739,0.07009322356432676,0.0038344102326082065,21.086207136154176,21.445328447341918,35.44734069432386,115000,1.3854994999999999,115000.0,3445.725018262863,0.45086608809232714,0.44690271916985513,0.4534314133524895,0.4504585888832808,0.09999999999999859
-20.960747806549072,0.276731181204319,0.05804673114605248,0.004163770175306126,21.459568017959594,21.842655805587768,35.42261774255182,116000,1.3844995000000007,116000.0,3473.955569267273,0.46875392326712606,0.46375544333457946,0.4711664764285088,0.4685427521765232,0.09999999999999859
-22.19325359725952,0.27682407438755036,0.054049339441582564,0.003071700603934005,22.622998289108278,22.808912992477417,33.97308311862481,117000,1.3834994999999997,117000.0,3503.3906376361847,0.4013719110041857,0.3966552552431822,0.4028965723216534,0.40092872382700445,0.09999999999999859
-23.703141231536865,0.2767349295914173,0.05739162930473685,0.002215367854165379,24.115309299468993,24.190421937942507,33.978588349337016,118000,1.3824994999999998,118000.0,3532.82093667984,0.3359576433598995,0.3310168497264385,0.33727393567562103,0.3354538586735725,0.09999999999999859
-23.101262031555176,0.27701321089267733,0.056083554849028584,0.0025861079375608825,23.518533601760865,23.6167282371521,33.88452035922679,119000,1.3814994999999997,119000.0,3562.3329379558563,0.3609754427820444,0.3561498124152422,0.3626201485693455,0.36075716742873193,0.09999999999999859
-23.28235111618042,0.2769303275346756,0.04541522098332643,0.002360668920679018,23.685697566986082,23.768684926986694,27.98153595316393,120000,1.3804995000000002,120000.0,3598.070791244507,0.3513700391352177,0.3464261379688978,0.35224824541807176,0.3508495755046606,0.09999999999999859
-23.94368350601196,0.27687897327542305,0.050533186443150045,0.002062150237034075,24.32972324180603,24.451103523254396,33.971422514683574,121000,1.379499500000001,121000.0,3627.507298231125,0.3256442577242851,0.31995516024529935,0.326102957084775,0.32496624360978604,0.09999999999999859
-21.564878356933594,0.276849691092968,0.07490730277635158,0.0038537678139982743,22.070979836463927,22.21753614616394,33.967242418826544,122000,1.3784995,122000.0,3656.947427511215,0.4460273475199938,0.44276209773123265,0.44978770534694196,0.4456447944492102,0.09999999999999859
-21.670367341995238,0.2769388027489185,0.05479103821702302,0.0036643155115889383,22.097483306884765,22.301746399879455,33.93891401032524,123000,1.3774994999999985,123000.0,3686.412130355835,0.4188736126124859,0.4152069234251976,0.4224548800438642,0.4184566445052624,0.09999999999999859
-22.082308185577393,0.27701361805200575,0.05242179220914841,0.0031772465161047877,22.470872716903685,22.61272097969055,33.975968580485095,124000,1.3764995000000002,124000.0,3715.8446986675262,0.39023908856511114,0.3852172948420048,0.39164467468857767,0.38948245245218277,0.09999999999999859
-22.719100387573242,0.27692567989230155,0.05160930853337049,0.0028433257776196113,23.060796014785765,23.357577898025514,33.85808867457499,125000,1.375499500000001,125000.0,3745.379739046097,0.36872184911370276,0.3636949213147163,0.3701903651803732,0.3684739525318146,0.09999999999999859
-23.22873306274414,0.27686157631874087,0.051489056805148724,0.002555947095504962,23.63530905342102,23.81880980873108,33.915627463334076,126000,1.3744995,126000.0,3774.864671945572,0.3495035544782877,0.3450865304470062,0.35118722112476825,0.34900391881167886,0.09999999999999859
-23.898870555877686,0.2768739879727364,0.04880556374788284,0.00213866186584346,24.220145174026488,24.36298027420044,33.85221476751764,127000,1.3734994999999999,127000.0,3804.404837369919,0.3233099443912506,0.31852730791270734,0.32464604261517527,0.3226912776827812,0.09999999999999859
-23.48872287750244,0.27682873994112017,0.0509296242389828,0.0024098891883622855,23.870097801208495,23.963380168914796,34.797846177737384,128000,1.3724994999999995,128000.0,3833.1422486305237,0.33982013331353667,0.3346780378818512,0.34082608854770663,0.33906416220963004,0.09999999999999859
-22.89030176925659,0.2767478449642658,0.05245389631018042,0.0032970470820437186,23.252375328063966,23.589472082138062,35.24000543970802,129000,1.3714994999999994,129000.0,3861.5190889835358,0.3830350753962994,0.37796083326637747,0.38492635959386823,0.3823708688765764,0.09999999999999859
-23.582456176757812,0.2767733184397221,0.0423929253295064,0.002274374676460866,24.000583736419678,24.058122133255004,27.947863434754293,130000,1.3704995000000018,130000.0,3897.2999999523163,0.32719973228871824,0.3216000597625971,0.32797296303510665,0.3264698030948639,0.09999999999999859
-24.534001502990723,0.27688106209039687,0.049638896120712164,0.0018955469711218029,24.809061538696287,24.969678709030152,34.004095356170936,131000,1.3694995000000005,131000.0,3926.7082228660583,0.29160424584150313,0.2862736396789551,0.29255014927685263,0.29077753554284574,0.09999999999999859
-24.275823165893556,0.27688855192065237,0.04832854129374027,0.0020088351402664556,24.600795530319214,24.704137226104738,33.90761096318364,132000,1.3684994999999989,132000.0,3956.2001271247864,0.3097942580729723,0.30388742887973785,0.3107798771113157,0.3088974331617355,0.09999999999999859
-24.041968967437743,0.2767040610909462,0.041542485650628805,0.002160728074319195,24.412026790618896,24.576854780197145,33.89728870277819,133000,1.3674994999999999,133000.0,3985.7010118961334,0.3214811647683382,0.31560192911326884,0.3224340138733387,0.32075574597716333,0.09999999999999859
-22.36207944869995,0.27681295296549796,0.047904066214337945,0.0032882235284196213,22.780714256286622,22.940957721710205,33.89270204430664,134000,1.3664995000000009,134000.0,4015.205889225006,0.39198469802737235,0.38680625338852404,0.39391093178093434,0.39139188922941687,0.09999999999999859
-23.827775901794432,0.27679877254366875,0.04515558067895472,0.002287437159684487,24.21269390487671,24.326139232635498,34.03393557375568,135000,1.3654995000000005,135000.0,4044.588327884674,0.3297601736932993,0.32407688431441783,0.33100524231791495,0.32938894420862197,0.09999999999999859
-24.176250984191896,0.2767632938027382,0.04150536856614053,0.00214554084057454,24.49491176223755,24.637902158737184,33.962484458269216,136000,1.3644994999999995,136000.0,4074.0325815677643,0.31774131232500075,0.3118851860612631,0.31883353416621685,0.317089842915535,0.09999999999999859
-24.186267108917235,0.2769151005744934,0.044403785740956665,0.0020636730318074115,24.494099351882934,24.622839149475098,33.90620809523911,137000,1.3634994999999992,137000.0,4103.52570605278,0.31156757126748563,0.3057041478008032,0.31240349796414374,0.3108393271565437,0.09999999999999859
-24.40637469100952,0.2768208247125149,0.0454060015566647,0.002017054183757864,24.707176429748536,24.827996868133546,34.70185350561525,138000,1.3624995,138000.0,4132.342610836029,0.30436560620367525,0.2979669309556484,0.30502813719213007,0.3036286854296923,0.09999999999999859
-23.87974868774414,0.2768108437657356,0.04564492012001574,0.002352433049818501,24.27132148361206,24.408650360107423,34.962772764050165,139000,1.3614995000000005,139000.0,4160.944462060928,0.3288018271178007,0.3227413455545902,0.3298843862861395,0.3281076934784651,0.09999999999999859
-24.15524465942383,0.2769253804087639,0.042958453128114346,0.0021456340102013203,24.527787803649904,24.605733268737794,28.13801815224131,140000,1.3604995000000004,140000.0,4196.483568429947,0.31182944276928903,0.305709774941206,0.3126756482124329,0.31100804355740547,0.09999999999999859
-24.4331847076416,0.2768717128932476,0.042089345844462514,0.0020897998387226836,24.761397022247316,24.85030811882019,33.93231419505068,141000,1.3594994999999992,141000.0,4225.9540021419525,0.30058189874887464,0.29430434300005437,0.3012980562448502,0.2998468260914087,0.09999999999999859
-24.00254330825806,0.27666724807024,0.04620361251570285,0.0023592206437606364,24.442320188522338,24.414921909332275,33.9827660070318,142000,1.358499499999999,142000.0,4255.38068318367,0.32560172720253466,0.31942440329492094,0.3268378283083439,0.32493467116355895,0.09999999999999859
-24.30624657058716,0.2768647148311138,0.04227314963005483,0.0021292537678964437,24.659350646972655,24.734451471328736,33.994412433648534,143000,1.3574995,143000.0,4284.797282934189,0.3057496293336153,0.2993568283766508,0.3066796086579561,0.3048740773648024,0.09999999999999859
-24.270258892059328,0.2768827722966671,0.04359245357476175,0.0022332278186222537,24.63204009437561,24.701170915603637,33.8706997948169,144000,1.3564995000000013,144000.0,4314.321325778961,0.30942064255476,0.30370560924708845,0.3105276703685522,0.3086951196938753,0.09999999999999859
-24.3546721572876,0.27671440050005913,0.04195655218884349,0.0022091341997729614,24.70565215110779,24.77498851776123,33.82995806365193,145000,1.3554994999999994,145000.0,4343.880925416946,0.30254115027189254,0.29646284186840055,0.3034853812456131,0.30179792661964894,0.09999999999999859
-24.414010643005373,0.27680132707953453,0.04537206169776618,0.0022535400355700405,24.755911851882935,24.836911157608032,33.921072114158825,146000,1.3544994999999995,146000.0,4373.3611261844635,0.31105099359154703,0.3047999226003885,0.31196304546296594,0.31024084030091764,0.09999999999999859
-24.276856777191163,0.27682793241739273,0.04401063261926174,0.0023692702068947255,24.631355110168457,24.727420764923096,33.892283294516524,147000,1.3534994999999999,147000.0,4402.866368055344,0.31540823420882225,0.3093488064110279,0.31687084211409094,0.3147756286263466,0.09999999999999859
-23.62943409729004,0.27678319391608236,0.051898143438622354,0.002896158535615541,24.053372194290162,24.054478315353393,33.945774366166276,148000,1.3524995,148000.0,4432.325116157532,0.348850217923522,0.3418725650012493,0.3498058637678623,0.34782096287608144,0.09999999999999859
-24.309910453796387,0.2767556109726429,0.044740281147882345,0.0023280826920527033,24.606412094116212,24.819078968048096,33.880973844386496,149000,1.3514995000000012,149000.0,4461.840207099915,0.3042025373727083,0.2973882035166025,0.3053560481965542,0.30325067922472954,0.09999999999999859
-24.206689647674562,0.2767298342883587,0.04342847497761249,0.0023277233463013546,24.60497741317749,24.635626323699952,27.947964182688743,150000,1.3504994999999997,150000.0,4497.620989084244,0.3123369257003069,0.3060012035667896,0.31356786043941975,0.3115324480384588,0.09999999999999859
-24.22678550720215,0.2768880881369114,0.045212038975209,0.0025286425217054785,24.58108917236328,24.711336765289307,34.00964208070472,151000,1.3494994999999985,151000.0,4527.02441573143,0.31940157841145994,0.31250487907230856,0.32057414342463014,0.31845376066863534,0.09999999999999859
-24.19621251296997,0.27697743120789525,0.04662446242943406,0.0026035008950857446,24.534057817459107,24.68706253051758,33.45594092169685,152000,1.3484995000000006,152000.0,4556.9144740104675,0.3232793710082769,0.31671939708292485,0.32476208615303037,0.3224346804767847,0.09999999999999859
-24.286806549072267,0.27690587675571443,0.04032529014535248,0.002560225560213439,24.656930559158326,24.784098083496094,34.32806520569786,153000,1.3474995000000012,153000.0,4586.045158147812,0.3222633994370699,0.31539721916615965,0.32365890558063987,0.3214002280384302,0.09999999999999859
-24.370325260162353,0.2767111749947071,0.04600395944342017,0.0024238417906453833,24.7660786819458,24.829162715911867,33.857954476977035,154000,1.3464995,154000.0,4615.580315828323,0.3139847679585218,0.30688107684254645,0.3153644574582577,0.312955398902297,0.09999999999999859
-23.992377532958983,0.2769392655193806,0.043866195095703005,0.002832729954156093,24.41211382675171,24.54469659423828,33.91791510091049,155000,1.3454994999999996,155000.0,4645.063260793686,0.33065511094033717,0.323381712898612,0.3320020806491375,0.3296831555217504,0.09999999999999859
-24.418959575653076,0.27701782301068306,0.04428044778853655,0.0025778819378465415,24.777593481063843,24.892756580352785,33.8843867732439,156000,1.3444995000000002,156000.0,4674.57537817955,0.31150477583706376,0.30524681535363196,0.3134666473120451,0.31076917053759096,0.09999999999999859
-24.614956104278566,0.27681018257141116,0.04761983347497881,0.0024276626984355973,24.96911121559143,25.01854180717468,33.90214624395366,157000,1.3434994999999998,157000.0,4704.072036027908,0.298136382818222,0.29119991144537927,0.29960600423812866,0.297143948033452,0.09999999999999859
-24.58724030303955,0.2768259556591511,0.046259490853175524,0.002506111307418905,24.9566477394104,25.0291073513031,33.85791757965693,158000,1.3424995000000008,158000.0,4733.607225656509,0.3049779008626938,0.29790544718503953,0.3059951436817646,0.3041399320214987,0.09999999999999859
-24.738023662567137,0.2768890577852726,0.04169640058837831,0.0025097433404298497,25.064070068359374,25.17612617111206,33.98025736210662,159000,1.3414995000000003,159000.0,4763.036079406738,0.29215724566578866,0.28518326549232004,0.29357181644439695,0.29136174473166465,0.09999999999999859
-24.22006010055542,0.27675398856401445,0.048682470947504046,0.0027521687165135518,24.60322169494629,24.65505934715271,27.907628558927033,160000,1.3404994999999988,160000.0,4798.868576049805,0.3153205929994583,0.30886623552441594,0.31757283671200276,0.31461391869187355,0.09999999999999859
-24.513265243530274,0.27686908477544786,0.0435689700152725,0.0026912591813597828,24.88113373184204,24.94585397529602,33.94003999957307,161000,1.3394995,161000.0,4828.33230137825,0.30940626114606856,0.30275389656424523,0.3108358351737261,0.3086476600468159,0.09999999999999859
-23.13313932800293,0.27690094578266145,0.04960254959203303,0.003811428774963133,23.50987936782837,23.687970668792726,33.92564230704663,162000,1.3384995000000006,162000.0,4857.808531045914,0.3618503134697676,0.3559932866692543,0.3647798473238945,0.36100820426642893,0.09999999999999859
-24.94818157196045,0.27675851136446,0.048766124291345476,0.0022322378110256978,25.275222496032715,25.327168691635134,33.95390869968367,163000,1.3374995000000003,163000.0,4887.260221719742,0.2787339814156294,0.27174743747711183,0.2798960179835558,0.27775017546117303,0.09999999999999859
-24.836662891387938,0.27696047312021255,0.0468086764048785,0.0024775957949459554,25.16403985977173,25.243377809524535,33.89797632919251,164000,1.3364994999999993,164000.0,4916.760508060455,0.29598974660038946,0.28866406381130216,0.2975320539176464,0.29525767558813093,0.09999999999999859
-24.573758876800536,0.2768256475329399,0.04430192761681974,0.002501088781631552,24.96144683265686,25.044667039871214,33.917184976118946,165000,1.3354994999999994,165000.0,4946.244087934494,0.3096945950835943,0.30260467137396335,0.3112689943611622,0.30885002653300764,0.09999999999999859
-24.78719731903076,0.2768408323228359,0.04191534746997058,0.002305586966103874,25.13810133934021,25.167440132141113,33.84699540961003,166000,1.3344995000000004,166000.0,4975.7888078689575,0.2884306620359421,0.28153592532873156,0.29025690077245236,0.2876592328548431,0.09999999999999859
-25.043619777679442,0.2768499295115471,0.04607231024652719,0.002269773167441599,25.378321575164794,25.47462264060974,33.94123170713154,167000,1.3334995000000003,167000.0,5005.251498699188,0.2836837004721165,0.27698117488622664,0.2855710775703192,0.2829062552154064,0.09999999999999859
-24.758939937591553,0.27682855889201163,0.04341283763945103,0.0024136809308547527,25.10436697769165,25.16630885696411,33.93846500862067,168000,1.3324995000000004,168000.0,5034.716591119766,0.295510717228055,0.2886609132885933,0.29720555156469347,0.294570050984621,0.09999999999999859
-24.915195022583006,0.27681147116422655,0.04601168468035757,0.002330706352600828,25.25099278640747,25.307107486724853,33.973257305711456,169000,1.331499499999999,169000.0,5064.151508569717,0.28933298248052597,0.28236285492777824,0.29095853739976885,0.28827656149864195,0.09999999999999859
-24.85502784347534,0.2769206627011299,0.045157873820513485,0.0023153227228904145,25.258181671142577,25.240233898162842,27.971680439497817,170000,1.3304994999999995,170000.0,5099.901953220367,0.2857627898454666,0.27885852217674256,0.2875711128562689,0.2847950633019209,0.09999999999999859
-25.242432754516603,0.2768394849598408,0.04503963392041624,0.002153371018706821,25.572966955184935,25.607000816345217,33.86845571528212,171000,1.3294995000000007,171000.0,5129.427953004837,0.2678370871692896,0.2609644808769226,0.26950727264583113,0.2669015117287636,0.09999999999999859
-24.983807804107666,0.276927144408226,0.04730288603901863,0.0024374405392445626,25.31551699447632,25.396485860824583,33.90348793671756,172000,1.3284995000000004,172000.0,5158.9234437942505,0.2897300352603197,0.2830399898737669,0.2917176338136196,0.2890678599178791,0.09999999999999859
-24.85825483703613,0.2768075689077377,0.04797375046089292,0.002555201983661391,25.201380376815795,25.256386276245117,33.966035131000275,173000,1.3274994999999992,173000.0,5188.364619731903,0.29131356489658355,0.2845983310341835,0.2931990514397621,0.290446219176054,0.09999999999999859
-24.982695583343506,0.27688924822211264,0.044851480461657045,0.0024229289225768296,25.295069005966187,25.403181854248047,34.08695781639984,174000,1.3264994999999997,174000.0,5217.701354026794,0.28728624422848226,0.28038129962980746,0.2888203319013119,0.28627842442691326,0.09999999999999859
-25.253464973449706,0.27686823579669,0.047807441391050816,0.0022444044103613124,25.54400211715698,25.64873013305664,33.92824855693249,175000,1.3254995000000005,175000.0,5247.175319671631,0.27073063467442987,0.2640304784923792,0.27261687652766703,0.2699717949181795,0.09999999999999859
-24.92367884063721,0.2768740882873535,0.049216111350804566,0.002451266929274425,25.26251477432251,25.319832862854003,33.99283872885691,176000,1.3244994999999997,176000.0,5276.593281030655,0.2909958153516054,0.28393099151551726,0.29269936408102515,0.29007999968528747,0.09999999999999859
-25.38864806365967,0.2768333511352539,0.04430841030366719,0.002269033739808947,25.665659999847414,25.790951047897337,34.72517258087158,177000,1.3234995000000007,177000.0,5305.390835046768,0.2701020819395781,0.2629617534428835,0.27202002121508123,0.26936220392584803,0.09999999999999859
-25.217950469970702,0.27686892634630206,0.04561046627163887,0.002397516033728607,25.554140348434448,25.58787822341919,34.12042016487819,178000,1.3224995,178000.0,5334.6987981796265,0.2770457204133272,0.26967323099076745,0.2785861082226038,0.27591290543973446,0.09999999999999859
-24.9894188041687,0.2768010433614254,0.04776917781122029,0.002553646887652576,25.249354055404662,25.387207641601563,34.02195545177854,179000,1.3214994999999992,179000.0,5364.091583251953,0.29238582800328733,0.28507190446555614,0.29427519369125366,0.2916086123436689,0.09999999999999859
-25.052597438812256,0.27707787266373635,0.04114222912676632,0.0025561986188404264,25.376038578033448,25.424322414398194,28.02764761116771,180000,1.320499500000001,180000.0,5399.770639419556,0.28682303354144095,0.2799176021516323,0.2888031069785357,0.28576533335447313,0.09999999999999859
-25.229076774597168,0.2767024535238743,0.048899740943685176,0.0023356895543402063,25.501301727294923,25.62242299079895,33.89600666906104,181000,1.3194995000000005,181000.0,5429.2726402282715,0.2778555134087801,0.2708532906025648,0.2796405920833349,0.27688443508744237,0.09999999999999859
-25.039921478271484,0.27678530859947204,0.04525169482640922,0.002602272409130819,25.384214820861818,25.449432405471804,34.03585528639713,182000,1.3184994999999995,182000.0,5458.6534214019775,0.2903522053360939,0.28334327702224255,0.2923368124961853,0.2894829775094986,0.09999999999999859
-25.33279613494873,0.2768095633685589,0.047091094410046934,0.002317323424736969,25.616228916168215,25.745451580047607,33.93822856662684,183000,1.3174994999999998,183000.0,5488.118719339371,0.2704570100903511,0.26335587026178836,0.27224420960247514,0.26947148562967776,0.09999999999999859
-25.194296928405763,0.2768753191232681,0.04422384982928634,0.0025130466459086166,25.478121509552,25.59679822921753,33.8543154218484,184000,1.3164995000000004,184000.0,5517.657051563263,0.28069087809324267,0.27371861140429976,0.28254154928028585,0.27962428621947766,0.09999999999999859
-25.241577503204347,0.27679022228717803,0.0450743649173528,0.0025149818032514305,25.524892038345335,25.636366575241087,33.86256672860144,185000,1.3154995,185000.0,5547.188185930252,0.28036612348258494,0.2733861120790243,0.28244015024602415,0.2793478839248419,0.09999999999999859
-25.284086463928222,0.2768898758292198,0.0454784622900188,0.002617966311285272,25.586004068374635,25.679427381515502,34.014876415490875,186000,1.3144995,186000.0,5576.587088108063,0.275718236297369,0.26901060092449186,0.2777378526926041,0.27469192673265935,0.09999999999999859
-25.27947593688965,0.27671363559365275,0.04739587289281189,0.0024493707744404672,25.584830121994017,25.63654970359802,33.97406112107831,187000,1.3134994999999994,187000.0,5606.021308660507,0.2731202630698681,0.26657562632858756,0.27527870908379554,0.27205648642778396,0.09999999999999859
-25.40365002822876,0.27692338037490843,0.04269799021072686,0.0024543820517137645,25.72135856819153,25.74655235671997,33.99818694341984,188000,1.3124994999999997,188000.0,5635.4346425533295,0.2687090888172388,0.2618974789232016,0.2708206039071083,0.26749457958340644,0.09999999999999859
-25.32942892074585,0.2768580697774887,0.04462224914506078,0.002498023467953317,25.63317776298523,25.694919692993164,33.94719150044654,189000,1.3114995000000005,189000.0,5664.892160415649,0.2723216781169176,0.26556362964212893,0.27446440763771535,0.271271436303854,0.09999999999999859
-25.353925273895264,0.27703202137351035,0.04585247864946723,0.0025095641410443933,25.62448373031616,25.684247020721436,27.978524483413555,190000,1.3104995,190000.0,5700.633859634399,0.27056707909703254,0.26370681339502333,0.2727501452565193,0.26962104138731957,0.09999999999999859
-25.402466075897216,0.2770860612690449,0.044240312315523625,0.002446247622719966,25.714120500564576,25.787374311447145,33.96607308952946,191000,1.3094994999999998,191000.0,5730.075002670288,0.2672824502438307,0.26073331202566624,0.26974361765384675,0.26641179229319095,0.09999999999999859
-25.296044414520264,0.2769308393895626,0.047420135714113715,0.0025917042091023177,25.59537901687622,25.671955268859865,33.85103968426323,192000,1.3084994999999995,192000.0,5759.616193056107,0.274351221114397,0.2681705524772406,0.2770887989103794,0.27357262378931047,0.09999999999999859
-25.3934560546875,0.2767312730550766,0.0450017108283937,0.0024707877403125165,25.648907865524293,25.755509757995604,33.88373747277178,193000,1.3074995,193000.0,5789.128876447678,0.26783001635968684,0.2611889138370752,0.270165507465601,0.26684442606568337,0.09999999999999859
-25.224217578887938,0.27687450346350667,0.04498546815849841,0.0025229160088347273,25.529789030075072,25.60461535835266,33.93939240931158,194000,1.3064995000000006,194000.0,5818.593163728714,0.27689229692518713,0.270553909689188,0.2793066204637289,0.2758709050118923,0.09999999999999859
-25.519985927581786,0.2769851754903793,0.045853941610082986,0.0023976079277927055,25.784678085327148,25.82651544380188,33.88610841590831,195000,1.3054994999999994,195000.0,5848.103782176971,0.26424357821047306,0.25751325991749763,0.2665983412116766,0.2632656012773514,0.09999999999999859
-25.482890098571776,0.27686455422639844,0.04580606030672789,0.002476616878178902,25.794449663162233,25.858166624069213,34.41340320820928,196000,1.3044994999999997,196000.0,5877.162227869034,0.2671651792228222,0.26027804988622666,0.26961131893098356,0.2661427058428526,0.09999999999999859
-25.36723161697388,0.2769225966632366,0.04311064879782498,0.002440913927857764,25.69144401550293,25.743961488723755,33.792422842541,197000,1.3034994999999998,197000.0,5906.754661083221,0.2690932730436325,0.26283057130873205,0.27168604017794135,0.2679714303314686,0.09999999999999859
-25.370164386749266,0.2770010425746441,0.04495519847236574,0.0024239727281965317,25.656358499526977,25.70033751296997,33.84378144004858,198000,1.3024995,198000.0,5936.302187204361,0.2681277413517237,0.2612906798124313,0.27028600831329824,0.26698143970966337,0.09999999999999859
-25.404753471374512,0.2767185059189796,0.04650074371695519,0.0025564559443155303,25.696532585144045,25.79114172554016,33.80760770799502,199000,1.3014995000000005,199000.0,5965.881329059601,0.2702710743695497,0.2636400360763073,0.2728373790383339,0.26929826053977013,0.09999999999999859
-25.61404161453247,0.2770111965537071,0.04504602968879044,0.002333550944691524,25.899846799850465,25.952967161178588,27.922454777606145,200000,1.3004994999999997,200000.0,6001.694799661636,0.25723377023637295,0.2508460421562195,0.25987475395202636,0.25615946426987646,0.09999999999999859
-25.35215729522705,0.2768843931853771,0.04817264860495925,0.0024823114241007715,25.697185075759887,25.754657125473024,33.91796255188146,201000,1.299499499999999,201000.0,6031.177702903748,0.2719906912446022,0.2657141238152981,0.27491217873990537,0.27105288884043693,0.09999999999999859
-25.50446644973755,0.27690093392133713,0.04452361958287656,0.002378743236535229,25.824421857833862,25.88051978111267,33.86946818089523,202000,1.2984995000000006,202000.0,6060.702820062637,0.26565519462525844,0.2590716675966978,0.2678929279595613,0.26442972172796725,0.09999999999999859
-25.626947914123534,0.27684107330441476,0.04350179788284004,0.0023147675864165647,25.92793871307373,25.946867328643798,33.81094018539789,203000,1.2974995000000014,203000.0,6090.279046058655,0.2574378281980753,0.2508549322485924,0.260160001039505,0.25635932219028473,0.09999999999999859
-25.445307998657228,0.27688215959072116,0.05017781754396856,0.002400458603980951,25.734709321975707,25.795321044921874,33.86588516694296,204000,1.2964994999999995,204000.0,6119.807286977768,0.2654442422986031,0.25865699234604833,0.26791437147557734,0.26429793210327623,0.09999999999999859
-25.653988704681396,0.27692493295669557,0.04405404675751925,0.002326475043897517,25.955575618743897,25.99094521522522,33.874440314711286,205000,1.2954994999999998,205000.0,6149.328070640564,0.2572698180824518,0.2505918519347906,0.25970953695476057,0.25604160875082016,0.09999999999999859
-25.50426509475708,0.2768818697631359,0.0469902669582516,0.002444085583440028,25.80822919845581,25.85359510421753,33.82923117497592,206000,1.2944995000000004,206000.0,6178.888305187225,0.26343867483735084,0.257051615819335,0.26601227863132954,0.26237125280499457,0.09999999999999859
-25.627271514892577,0.2769901567101479,0.044220869969576596,0.002336400919652078,25.933886539459227,25.95965803718567,33.83325373872302,207000,1.2934994999999998,207000.0,6208.445025444031,0.2579745131880045,0.2513737764656544,0.26075967599451544,0.2567550543397665,0.09999999999999859
-25.46502377319336,0.27683780574798583,0.0469743320364505,0.0024705633042613044,25.787196899414063,25.782824743270876,33.917960906180824,208000,1.2924995000000008,208000.0,6237.927930116653,0.2658177309781313,0.2590943606048822,0.268677373200655,0.26480816611647606,0.09999999999999859
-25.732952842712404,0.2768770010471344,0.044537917349487546,0.0023550394100602715,26.021323881149293,26.044068044662474,34.01776484284429,209000,1.2914994999999998,209000.0,6267.324335575104,0.25035418225824835,0.24372699555754662,0.2534343853890896,0.24934350511431694,0.09999999999999859
-25.28051347732544,0.2768753037750721,0.05010485694929957,0.0026394161921925842,25.58577154159546,25.641921031951906,27.980613442026513,210000,1.2904994999999995,210000.0,6303.063366651535,0.2804409197121859,0.2739420354664326,0.28338065326213835,0.2794482492506504,0.09999999999999859
-25.690510284423826,0.2768569374680519,0.043815922537818554,0.0024018359143519775,25.95692903137207,26.045607332229615,34.01214265501129,211000,1.2894994999999998,211000.0,6332.464631319046,0.2528568589538336,0.24636595188081264,0.25602634201943875,0.25178676141798495,0.09999999999999859
-25.742918632507322,0.27687380358576774,0.0488344664555043,0.0024795128515688702,26.040849575042724,26.050723920822143,33.92412078473406,212000,1.288499500000001,212000.0,6361.942183017731,0.25066235871613024,0.2438797423392534,0.25354089972376825,0.24949497610330582,0.09999999999999859
-25.55261516189575,0.27683881056308746,0.04750339516066015,0.0026280707900878044,25.839090246200563,25.88924193954468,33.97200666554709,213000,1.2874994999999998,213000.0,6391.3781843185425,0.2641779508590698,0.25762424619495866,0.26719974483549597,0.2630090108066797,0.09999999999999859
-25.738546047210694,0.27672501567006114,0.04558566649630666,0.0024594295325223356,26.017037937164307,26.074506238937378,33.97889609822789,214000,1.2864994999999992,214000.0,6420.808216571808,0.24855227841436864,0.24195834271609784,0.2515487806946039,0.24731481078267098,0.09999999999999859
-25.473229747772216,0.27682624182105064,0.04552420749701559,0.002637117641395889,25.799165378570557,25.824801723480224,33.907519682781846,215000,1.2854994999999996,215000.0,6450.300199985504,0.26347971040010454,0.25735893100500107,0.26701653242111206,0.2625122062712908,0.09999999999999859
-25.59237986755371,0.27676683181524275,0.04707523212581873,0.0026614306550472974,25.91768334579468,25.908287269592286,33.91402841212274,216000,1.2844995000000006,216000.0,6479.786523342133,0.2615768502801657,0.2547890362292528,0.2644844166785479,0.2603482825011015,0.09999999999999859
-25.518088523864748,0.2767393003702164,0.05140300467051566,0.002681958701927215,25.832157243728638,25.86733219909668,33.842945820555904,217000,1.2834995000000005,217000.0,6509.334779262543,0.2640351075083017,0.2577201442271471,0.26717594458162786,0.262994073972106,0.09999999999999859
-25.66671280670166,0.2770351291000843,0.04704234510287642,0.002621829848387279,25.958151447296142,26.01232001876831,33.838846694333554,218000,1.2824994999999997,218000.0,6538.886614084244,0.25807114167511463,0.2515489109158516,0.26117451624572274,0.2569563100486994,0.09999999999999859
-25.50218572616577,0.2768878304064274,0.04606976470723748,0.0026267559276893734,25.773385911941528,25.868197093963623,33.852082529011184,219000,1.2814994999999993,219000.0,6568.426894664764,0.2660709209889173,0.2595265815258026,0.26911044512689114,0.26485548992455005,0.09999999999999859
-25.654722511291503,0.27663830414414403,0.046794658828526736,0.0024425607487792147,25.96038074874878,25.968618408203124,27.866584173205123,220000,1.2804994999999995,220000.0,6604.312169313431,0.2574801247268915,0.25096892535686494,0.2603599433898926,0.2560954407453537,0.09999999999999859
-25.319577209472655,0.2768457292020321,0.04913137651793659,0.0027798280159477143,25.628555810928344,25.699418357849122,33.946797504361186,221000,1.279499500000001,221000.0,6633.770029306412,0.27749335929751395,0.2708453533053398,0.28052611990272996,0.2763526183515787,0.09999999999999859
-25.481046695709228,0.2768967960476875,0.04743849369883537,0.002629605164169334,25.79894497680664,25.80945761680603,33.84078841998903,222000,1.2784995000000003,222000.0,6663.320168972015,0.2623123754858971,0.25573334100842476,0.26554814612865446,0.2612114240527153,0.09999999999999859
-25.378188301086425,0.27688785034418106,0.045278518138453364,0.0025681678919354453,25.65331710624695,25.710504251480103,33.88176235080059,223000,1.2774994999999987,223000.0,6692.834572553635,0.2714029386639595,0.26505779018998143,0.2745114983767271,0.2702488739788532,0.09999999999999859
-25.587724845886232,0.27687885892391206,0.04409146982245147,0.0026270041362149643,25.913387334823607,25.90633631515503,33.87276554073054,224000,1.2764995000000001,224000.0,6722.356815576553,0.2612223285585642,0.2549771999567747,0.26453842233121394,0.26015855485200884,0.09999999999999859
-25.78812883758545,0.2769580956995487,0.049035489724949005,0.002408520607394166,26.0938736038208,26.087465270996095,33.94684393717618,225000,1.2754995000000005,225000.0,6751.814635276794,0.2468458078354597,0.2407279576063156,0.25045167848467825,0.24586739158630372,0.09999999999999859
-25.33990364456177,0.2769561670720577,0.04691521486453712,0.0026922980196541174,25.678884296417237,25.690708963394165,33.831554108624296,226000,1.2744995,226000.0,6781.3728404045105,0.27222864371538164,0.2658941508084536,0.2755659248232841,0.2711825188845396,0.09999999999999859
-25.63791302871704,0.27669264531135557,0.046212747141718864,0.002485414526425302,25.95505870437622,25.967021738052367,33.87408657945957,227000,1.2734995000000005,227000.0,6810.893931865692,0.25861957950890063,0.2522829200476408,0.2618535547107458,0.25739618846774104,0.09999999999999859
-25.462045276641845,0.276826830804348,0.044758719256147744,0.002548347042989917,25.832776308059692,25.774361188888548,33.97137051164741,228000,1.2724994999999997,228000.0,6840.330483913422,0.2669135397225618,0.26052103297412393,0.2701107340604067,0.2655951632708311,0.09999999999999859
-25.455005184173583,0.2769406186044216,0.04762563042528927,0.0026922327054198832,25.796274560928346,25.779907150268556,34.002519927810276,229000,1.2714994999999991,229000.0,6869.740069150925,0.26762307608127595,0.261533642411232,0.27122978542745113,0.2665878292769194,0.09999999999999859
-25.75153369140625,0.2768580792248249,0.046147602654993534,0.002411910442286171,26.05091193008423,26.057161071777344,27.834388921702125,230000,1.2704995000000008,230000.0,6905.666850805283,0.25348328724503516,0.24735833497345447,0.2568640011548996,0.252232600197196,0.09999999999999859
-25.612807628631593,0.27691548079252243,0.04648785077407956,0.0024698773544514553,25.948002210617066,25.94529434776306,34.00619174302756,231000,1.269499500000001,231000.0,6935.073261022568,0.2620113250315189,0.2560898178368807,0.2658689299970865,0.26106767474114895,0.09999999999999859
-25.67269190597534,0.2768362810909748,0.04451063504628837,0.0025836588180391117,25.982789682388304,25.97782489967346,33.88580289300928,232000,1.268499499999999,232000.0,6964.584146022797,0.25612038397789,0.2500073283314705,0.25973096688091757,0.25509777683019635,0.09999999999999859
-25.592868267059327,0.276815455019474,0.046476854391396046,0.0025097904552239926,25.911949304580688,25.91066937828064,33.88071603456206,233000,1.2674995,233000.0,6994.099461078644,0.26037427654862405,0.2538992568105459,0.2636550509929657,0.25914827981591226,0.09999999999999859
-25.678655765533446,0.2767878360748291,0.04670622646249831,0.002351452424307354,25.9943915309906,26.029326679229737,33.902845851134,234000,1.2664995000000003,234000.0,7023.595510721207,0.25388946153223513,0.24804865798354148,0.2577042337059975,0.2529457571208477,0.09999999999999859
-25.33138879394531,0.2768605180978775,0.048844208233058455,0.002606271863449365,25.66055697631836,25.681047206878663,33.83227973263337,235000,1.2654995000000002,235000.0,7053.153081655502,0.2761222147643566,0.2697749934643507,0.27948158177733423,0.27501165561378005,0.09999999999999859
-25.71254363632202,0.2769346857368946,0.04143211469426751,0.0023772969365236348,26.04084163284302,26.02701494026184,33.96363703912027,236000,1.2644995000000003,236000.0,7082.596336603165,0.2519587578475475,0.24589078395068645,0.2556138011068106,0.2509209901988506,0.09999999999999859
-25.398676921844483,0.276858139693737,0.04648086500540376,0.002625026451307349,25.751548488616944,25.740539110183715,34.7641193387432,237000,1.2634994999999996,237000.0,7111.361627817154,0.271299146130681,0.2656564921736717,0.27528865440189837,0.27022781056165696,0.09999999999999859
-25.582871768951417,0.27687711364030837,0.045079559972509745,0.002470153858419508,25.91766834449768,25.884072582244873,35.20559673689764,238000,1.2624994999999999,238000.0,7139.766202926636,0.26003534364700315,0.25428050516545775,0.2640929552912712,0.2592735563963652,0.09999999999999859
-25.515989990234374,0.27691097468137743,0.043406415559351444,0.0025230236812494697,25.838377788543703,25.853009214401244,35.024200436002154,239000,1.2614995,239000.0,7168.317890405655,0.26295438018441203,0.2571498616933823,0.2667945576310158,0.26179423636198046,0.09999999999999859
-25.33402840423584,0.2769188039898872,0.04855075149424374,0.0025457890753168614,25.698304653167725,25.684842782974243,28.232809424039928,240000,1.2604995,240000.0,7203.737674474716,0.26985982805490494,0.2639061874747276,0.2738227324932814,0.2688453407585621,0.09999999999999859
-25.496380611419678,0.2768215137720108,0.0418357155136764,0.00252468913118355,25.82425175666809,25.815787336349487,34.01138557677629,241000,1.2594995,241000.0,7233.139594078064,0.2657814182192087,0.25991164369881153,0.269711129501462,0.264845467954874,0.09999999999999859
-25.617468376159668,0.2770129535198212,0.043640037538483736,0.002419704090920277,25.98388022041321,25.936508710861204,33.87660364995482,242000,1.2584994999999997,242000.0,7262.658492326736,0.26008512276411055,0.25440977619588373,0.2641020941287279,0.2591557388752699,0.09999999999999859
-25.53978443145752,0.27676569843292237,0.04947956919297576,0.002410530526540242,25.906175477981567,25.882736249923706,33.830994698049444,243000,1.2574995000000002,243000.0,7292.217185974121,0.2641085047870874,0.258274298325181,0.2679909815788269,0.2630387949794531,0.09999999999999859
-25.612021423339844,0.2766952209174633,0.04440950386039913,0.0024061917602084576,25.953563737869263,25.921493131637572,33.84240897045758,244000,1.2564995,244000.0,7321.765910387039,0.2594385179132223,0.2531791292577982,0.26304677982628344,0.25807918918132783,0.09999999999999859
-25.528834575653075,0.2768506698310375,0.05017542348615825,0.002449659256148152,25.871040845870972,25.844156200408936,33.86721633411307,245000,1.2554995,245000.0,7351.292990446091,0.26826387324929235,0.2623717319816351,0.27246865774691104,0.26746724793314935,0.09999999999999859
-25.69567530822754,0.2767670697271824,0.042372505391016606,0.0024351560513023287,26.015987689971922,26.052447820663453,33.95427757269607,246000,1.2544994999999999,246000.0,7380.744360923767,0.2533757344186306,0.24725987745821476,0.25752191039919853,0.2523327267467976,0.09999999999999859
-25.717277812957764,0.27685453751683237,0.04606556311622262,0.002343589870724827,26.043678937911988,26.05865336227417,33.95710403263765,247000,1.2534995000000002,247000.0,7410.193279981613,0.2534497725516558,0.2473899285197258,0.25751216846704483,0.2523655945211649,0.09999999999999859
-25.68703144836426,0.27681216824054716,0.04440581499040127,0.002351357192033902,25.965688673019407,26.01200384712219,33.99527208183231,248000,1.2524994999999994,248000.0,7439.609136104584,0.25432446321845054,0.24813869121670723,0.2583518579155207,0.25297398352622985,0.09999999999999859
-25.724668842315673,0.2768820423781872,0.047664764624089,0.0023733360751066355,26.068615514755248,26.03438014411926,33.898568093779694,249000,1.2514995000000002,249000.0,7469.108907461166,0.25237240049242976,0.24634188443422317,0.2566653065532446,0.2515420523136854,0.09999999999999859
-25.67536183166504,0.2768365552425385,0.04667215137183666,0.00240536069276277,25.98354048156738,26.054831516265867,27.875173572518396,250000,1.2504995000000003,250000.0,7504.983124017715,0.25685259656608106,0.25095655354857443,0.26109191055595876,0.25589956003427505,0.09999999999999859
-25.818963062286375,0.27688442054390905,0.04604761555604637,0.0023378912990447134,26.125586235046388,26.136554182052613,33.944538934817615,251000,1.2494994999999995,251000.0,7534.442944288254,0.24976400449872016,0.2441121617257595,0.2544109178930521,0.2489233760982752,0.09999999999999859
-25.601524284362792,0.2768506991565228,0.04834572979807854,0.002466685718507506,25.953751850128175,25.92214877510071,33.936510136001345,252000,1.2484995000000005,252000.0,7563.909734249115,0.26221016247570517,0.25601950351893904,0.26628078818321227,0.2610151369124651,0.09999999999999859
-25.681785064697266,0.2767844877243042,0.04788615403696895,0.002436881353962235,26.010999391555785,26.02296933937073,33.89134230919612,253000,1.2474995000000004,253000.0,7593.4157955646515,0.25767398777604106,0.2514481177031994,0.26195335468649866,0.25639682143926623,0.09999999999999859
-25.923330669403075,0.27688465678691865,0.04584484086558223,0.0022851826002588498,26.228497844696044,26.198337646484376,33.937078533389794,254000,1.2464994999999992,254000.0,7622.882091999054,0.24365337891876698,0.2377690880894661,0.24826574663817882,0.2426920328438282,0.09999999999999859
-25.742199836730958,0.2768109265267849,0.04778387237153947,0.002455544299329631,26.06392057800293,26.070949615478515,33.88747758753061,255000,1.2454995000000006,255000.0,7652.391518115997,0.2546562101393938,0.24878901663422584,0.259250364497304,0.2537794448286295,0.09999999999999859
-25.87283277130127,0.2768018834888935,0.04401616881787777,0.002256814146414399,26.167026229858397,26.219328855514526,33.945965306986224,256000,1.2444995000000008,256000.0,7681.850100278854,0.24791748709976674,0.24194166906177997,0.25232845883071425,0.2468267840743065,0.09999999999999859
-25.890587398529053,0.27688661804795267,0.046877225715667006,0.002313839032431133,26.19805304527283,26.210855533599855,33.95504805388005,257000,1.2434994999999998,257000.0,7711.300802707672,0.24477341760694982,0.23896590265631676,0.24947892525792123,0.2438376908302307,0.09999999999999859
-25.723814937591552,0.2769246671497822,0.048703056540340184,0.0024420038091484456,26.073267112731934,26.061528228759766,33.8701027120807,258000,1.2424994999999999,258000.0,7740.82536649704,0.2584754155278206,0.2526422834992409,0.2629822662323713,0.2573779441267252,0.09999999999999859
-25.6704140625,0.2769214189350605,0.04685510813631117,0.0024647800689563157,25.992339099884035,26.005340814590454,33.96588632338164,259000,1.2414995000000002,259000.0,7770.266671657562,0.2554049347639084,0.24934497916698456,0.25972111500799655,0.2542241001278162,0.09999999999999859
-25.603383682250975,0.27683007398247717,0.049570978170260786,0.0025787599837640302,25.926353034973143,25.94400175476074,28.016891023682703,260000,1.2404994999999999,260000.0,7805.959426403046,0.26391048185527327,0.2578393756896257,0.2684402126222849,0.2628376387357712,0.09999999999999859
-25.4103811340332,0.27686381539702415,0.04714277354814112,0.002561400443315506,25.814598190307617,25.790141660690306,34.004354495726396,261000,1.2394995000000009,261000.0,7835.367425203323,0.2758388357758522,0.2702718325406313,0.2806775878369808,0.2749996196180582,0.09999999999999859
-25.74258401107788,0.2769104581475258,0.04721813172101975,0.0024390494314138777,26.092509820938112,26.089286785125733,33.938800866268394,262000,1.2384994999999999,262000.0,7864.832226037979,0.2522731280177832,0.24623433104157447,0.25702633047103884,0.2511545782238245,0.09999999999999859
-25.833076679229737,0.27682578307390215,0.049881111765280366,0.0023614771743305026,26.155579120635988,26.14730800819397,33.90158504449366,263000,1.2374994999999995,263000.0,7894.329372406006,0.25114786297082903,0.2452415665537119,0.2558081224709749,0.25000548766553404,0.09999999999999859
-25.840933994293213,0.2768724901676178,0.046306565910577774,0.0023273394869174806,26.158025329589844,26.16938966560364,33.937371800937676,264000,1.2364995,264000.0,7923.795414209366,0.2518382303416729,0.2459787452071905,0.2567776525020599,0.25086768400669096,0.09999999999999859
-25.914101066589357,0.2767991581261158,0.04598745041340589,0.0023793645685072987,26.232778120040894,26.248563301086424,33.95634527903948,265000,1.2354995000000004,265000.0,7953.244991540909,0.24579544800519942,0.2400109071880579,0.2507443220168352,0.24479753719270228,0.09999999999999859
-25.775800811767578,0.27693192851543424,0.048417129738256334,0.0024395637687994166,26.08466050338745,26.114277322769166,33.9163564240403,266000,1.2344995,266000.0,7982.729291200638,0.25723668390512466,0.25151823239028454,0.2622045496851206,0.256424041941762,0.09999999999999859
-25.67661680984497,0.2768009563982487,0.0484365568049252,0.002394429525826126,26.027014430999756,26.008072568893432,33.83726606703482,267000,1.2334994999999995,267000.0,8012.282506465912,0.26080184991657734,0.25505441465973855,0.2658397133797407,0.2601124551445246,0.09999999999999859
-25.922760318756104,0.27683910274505613,0.04709833450056612,0.002314136121305637,26.262213695526125,26.214839460372925,33.99775345769946,268000,1.2324994999999994,268000.0,8041.696215391159,0.2454561158567667,0.23942163994908333,0.24999872462451458,0.2442950064688921,0.09999999999999859
-25.707915016174315,0.27670106557011603,0.04882645509205759,0.0024146705125458537,26.039928327560425,25.99479430770874,33.999255134688774,269000,1.2314995000000004,269000.0,8071.108625173569,0.256503630772233,0.25031317976117134,0.261132005751133,0.255176668971777,0.09999999999999859
-25.729205314636232,0.2770099560320377,0.04865618150122464,0.002391257066861726,26.05750247001648,26.052218271255494,27.962865179783858,270000,1.2304995000000005,270000.0,8106.870339870453,0.25915131452679635,0.25342222237586975,0.2640137554705143,0.2583701586276293,0.09999999999999859
-25.814752113342283,0.2768822814822197,0.04741993231140077,0.002337430309911724,26.14586095046997,26.133763874053955,33.983789173565725,271000,1.2294995,271000.0,8136.2961349487305,0.24834209421277045,0.24280280619859695,0.2535526792854071,0.24743294070661068,0.09999999999999859
-25.829471630096435,0.27689094498753547,0.04972271955572069,0.002389774782466702,26.152150609970093,26.175223400115968,33.97770835039927,272000,1.2284994999999994,272000.0,8165.727195978165,0.25220021697878836,0.24632354176044463,0.25726680268347263,0.25117150393128396,0.09999999999999859
-25.839938552856445,0.2768787006139755,0.04859894059970975,0.0023510803858516737,26.175720670700073,26.18860277748108,33.888097460856955,273000,1.2274994999999993,273000.0,8195.236082077026,0.2498359772115946,0.24393173146247865,0.2549225714951754,0.24874749158322812,0.09999999999999859
-25.662266860961914,0.2768737508952618,0.05216408586874604,0.0025580056512262673,26.036585012435914,25.966488426208496,33.98698765463131,274000,1.2264995000000007,274000.0,8224.659107923508,0.25893080219626424,0.2532080638557673,0.26407946975529195,0.25783535951375963,0.09999999999999859
-25.892070762634276,0.2767501693069935,0.04945285600796342,0.0023290237337350844,26.22209922981262,26.19597052192688,33.98493356305505,275000,1.2254995000000009,275000.0,8254.083911895752,0.2508600189834833,0.24524638599157333,0.25613466030359267,0.24994961193203927,0.09999999999999859
-25.85664722442627,0.2769265350997448,0.0474104137904942,0.0023971404277253897,26.182873224258422,26.175984802246095,33.91698366249008,276000,1.2244994999999985,276000.0,8283.56766629219,0.25281918185949326,0.24661205510795117,0.2575660555511713,0.2514425423443317,0.09999999999999859
-25.85212654495239,0.2768907768726349,0.04870473152957857,0.002455953856231645,26.196529825210572,26.18202883529663,33.89124646088796,277000,1.2234994999999997,277000.0,8313.07381105423,0.2514712635278702,0.24547672432661055,0.2565230284035206,0.250207390204072,0.09999999999999859
-25.697451248168946,0.27693781891465186,0.05125048777274788,0.002453281721798703,26.067751180648802,26.03465616607666,33.73984812071284,278000,1.2224995000000003,278000.0,8342.712356328964,0.25992047452926637,0.25389687837660313,0.264817709043622,0.25859135334193706,0.09999999999999859
-25.79526284790039,0.276876611828804,0.0495722780097276,0.002368265475728549,26.11796769142151,26.08904511833191,33.940805714939046,279000,1.2214995000000004,279000.0,8372.175417661667,0.2579030154198408,0.25229582795500755,0.26325797145068647,0.25708363790810107,0.09999999999999859
-25.77046583557129,0.27666840437054635,0.05182816605083644,0.0023834580500843,26.11389871788025,26.091694387435915,27.941882059935164,280000,1.2204995000000005,280000.0,8407.96398806572,0.2542439485192299,0.24836020313203336,0.2593332137465477,0.25310304909944537,0.09999999999999859
-26.03340114212036,0.2768522149324417,0.046381044510751965,0.0021348209850257263,26.38808316421509,26.366971563339234,33.97213571524407,281000,1.2194994999999997,281000.0,8437.399876832962,0.24003684554994106,0.2343037986755371,0.24529381608963013,0.23873895789682864,0.09999999999999859
-25.72616030883789,0.27688583981990816,0.05118280573002994,0.0024138360898941754,26.068845832824707,26.068871408462524,33.94583151081953,282000,1.2184994999999994,282000.0,8466.858575344086,0.25927274212241175,0.2530764657855034,0.26424110315740107,0.2581902479231358,0.09999999999999859
-25.842724437713624,0.2768146372437477,0.05012609921768308,0.002248006898211315,26.178762744903565,26.140085880279543,34.03397534117784,283000,1.2174995000000008,283000.0,8496.24097943306,0.2502490444630384,0.24415036857128145,0.255435382142663,0.24900720067322255,0.09999999999999859
-25.76044636154175,0.2769212208390236,0.049024945555254815,0.0023564247162430546,26.07898116874695,26.0806409034729,33.94455679120128,284000,1.2164995000000012,284000.0,8525.70078420639,0.2551365569829941,0.24909301452338695,0.26013850170373914,0.2539263842403889,0.09999999999999859
-25.75146124649048,0.2768489682972431,0.05304277227818966,0.0024072530119447037,26.1014833984375,26.096310009002686,33.986412627165016,285000,1.215499499999999,285000.0,8555.124307870865,0.2587943358570337,0.25311190728843214,0.264201561614871,0.25790548588335516,0.09999999999999859
-25.921562141418455,0.2768662677705288,0.04973790235258639,0.002295582073740661,26.23054670333862,26.261113710403443,33.92658903994186,286000,1.2144994999999992,286000.0,8584.59971499443,0.2451171881556511,0.23881974770128728,0.25032402232289314,0.2440832114368677,0.09999999999999859
-25.799126064300538,0.2767796915769577,0.04951717023178935,0.0024247393922414632,26.14575754928589,26.11539828300476,34.09351262110672,287000,1.2134995,287000.0,8613.930808544159,0.2550639482587576,0.24918194638192653,0.26045125932991503,0.253926222845912,0.09999999999999859
-25.710149795532228,0.2767756834924221,0.05263254009746015,0.002375753666856326,26.065134315490724,26.052623090744017,33.9776186189428,288000,1.2124995000000007,288000.0,8643.361947774887,0.2577458667010069,0.25182038916647437,0.2630962372422218,0.25665174759924414,0.09999999999999859
-25.798059200286865,0.2768671837449074,0.047815688284114005,0.002307806627708487,26.127578409194946,26.1512534160614,35.267695452409775,289000,1.2114995000000006,289000.0,8671.716508626938,0.25497575815021994,0.24927784606814385,0.26075737294554713,0.25404442252218723,0.09999999999999859
-25.86775068283081,0.2768708463907242,0.05310738973133266,0.002272389735444449,26.214013984680175,26.203083181381224,28.78000723565045,290000,1.210499499999999,290000.0,8706.46285200119,0.2494533857256174,0.24374949100613594,0.25489800216257574,0.24830938839912414,0.09999999999999859
-25.800160526275636,0.2769602179527283,0.04979926752857864,0.00235052315343637,26.143014181137087,26.135444091796874,35.238897535637015,291000,1.2094994999999997,291000.0,8734.840584516525,0.25428747448325156,0.24823053246736526,0.25944648921489716,0.2530559932440519,0.09999999999999859
-25.947554664611815,0.27695539528131485,0.04955221355333924,0.0022350694215856493,26.24750127220154,26.271933216094972,34.72246660988456,292000,1.2084995000000003,292000.0,8763.640382528305,0.2443205076009035,0.23849274343252183,0.24977792951464653,0.24312379030883313,0.09999999999999859
-25.743933933258056,0.2769627762138844,0.05075928127393126,0.0023681227025808766,26.05949768638611,26.076036783218385,35.05098688202001,293000,1.2074995000000008,293000.0,8792.170249938965,0.2555894146859646,0.2498417694568634,0.26137758906185626,0.25444443672895434,0.09999999999999859
-25.76847843170166,0.27683013120293615,0.05225884938426316,0.0024765246199676765,26.115790103912353,26.108680950164796,34.90984354024478,294000,1.2064994999999996,294000.0,8820.815466403961,0.25412489138543604,0.24826788395643234,0.2599161083251238,0.2530279547125101,0.09999999999999859
-25.84561868286133,0.27677424505352977,0.04781293807551265,0.0023275156457093545,26.142479457855224,26.17757666015625,35.104530979331955,295000,1.2054994999999988,295000.0,8849.3018181324,0.2508110219985247,0.24504250414669515,0.25640725915133955,0.24974598401784898,0.09999999999999859
-25.703857368469237,0.2768501674830914,0.05253967271745205,0.002477162397932261,26.03021385002136,26.065723016738893,35.27737979355532,296000,1.2044994999999998,296000.0,8877.648594856262,0.26116514936089513,0.25568908220529557,0.26697288812696934,0.2602311763763428,0.09999999999999859
-25.63351943206787,0.27685673236846925,0.04984642258472741,0.002315774508402683,25.98831237220764,25.99865217781067,35.10736676786688,297000,1.2034995000000008,297000.0,8906.132645845413,0.26160332588851454,0.25596305438876155,0.26742888474464416,0.26042226031422616,0.09999999999999859
-25.903808151245116,0.27691907903552054,0.04928785554133355,0.002286083539016545,26.23736573410034,26.22461922454834,35.02393955757098,298000,1.2024995000000003,298000.0,8934.684545516968,0.2483434432297945,0.24268674649298191,0.25407727192342283,0.2471484704017639,0.09999999999999859
-25.593420890808105,0.27684345468878746,0.05481254810281098,0.0025249971456360073,25.926531940460205,25.943823093414306,35.2513979162454,299000,1.2014994999999995,299000.0,8963.05221581459,0.2665688885450363,0.2612997918576002,0.27252673961222174,0.2658297489434481,0.09999999999999859
-25.77262279129028,0.2769708411991596,0.04953336576372385,0.002251779755577445,26.06797848701477,26.09473451423645,28.586081795386605,300000,1.2004994999999996,300000.0,8998.034275770187,0.2508634849488735,0.24520951041579248,0.25668529577553273,0.24987058690190314,0.09999999999999859
-25.905602882385253,0.2769097709059715,0.051962435176596045,0.0022993222553050145,26.20626030731201,26.230223886489867,34.85226047559002,301000,1.1994994999999997,301000.0,9026.726819515228,0.2495387434065342,0.24368571504950523,0.25540344102680684,0.24847459557652474,0.09999999999999859
-25.857320152282714,0.27685496416687966,0.05241711029410362,0.0023969444673275575,26.174614810943602,26.171629745483397,35.32308455907862,302000,1.1984995000000007,302000.0,9055.036918640137,0.24996835438907147,0.24441898418962957,0.2558354254812002,0.24876191681623458,0.09999999999999859
-25.942663269042967,0.27685530626773835,0.052644055258482696,0.002303423281526193,26.27765763092041,26.223447772979736,35.30081529546686,303000,1.1974995000000006,303000.0,9083.36487698555,0.24527182537317277,0.23961753275990486,0.25131718929111957,0.24442563484609128,0.09999999999999859
-25.761293796539306,0.2768282398879528,0.048654747653752564,0.0022339194025844337,26.082337699890136,26.137101579666137,34.98349255813086,304000,1.1964994999999983,304000.0,9111.94978761673,0.25436625418066977,0.2489543325304985,0.2605506196022034,0.25360276667773723,0.09999999999999859
-25.772197875976563,0.2766969562768936,0.05250042344070971,0.00234949282661546,26.093189260482788,26.089426637649535,35.09030664981718,305000,1.1954995000000004,305000.0,9140.44768667221,0.25724462401866915,0.25168229328095915,0.26332826167345047,0.2560716115087271,0.09999999999999859
-25.986851360321044,0.2768780064880848,0.04865709068067372,0.0022721303537255153,26.29005683517456,26.321520599365236,35.53093611267109,306000,1.194499500000001,306000.0,9168.592175006866,0.2419755913168192,0.23656274616718292,0.24810308814048768,0.2411626269519329,0.09999999999999859
-25.78613691711426,0.2767809915542603,0.055716603893786666,0.002406553869135678,26.10326831626892,26.117343408584595,35.601251626873704,307000,1.1934995,307000.0,9196.681076049805,0.25473799322545526,0.24938151060044766,0.26094329212605955,0.2539580968171358,0.09999999999999859
-25.920978363037108,0.2768510085046291,0.049852612042799595,0.0023350723421317527,26.217160062789915,26.270582357406617,35.63204231903097,308000,1.1924994999999998,308000.0,9224.745703935623,0.24913981503248214,0.24367371161282061,0.2551842251271009,0.24832243792712688,0.09999999999999859
-25.845255069732666,0.27698403492569923,0.050746207010000946,0.002231593216652982,26.121281581878662,26.19728062438965,35.554105539942825,309000,1.1914995,309000.0,9252.871851444244,0.2523394850194454,0.2471128370910883,0.25839003682136535,0.2511461198478937,0.09999999999999859
-25.90080729675293,0.27700341168046,0.04980513306334615,0.0022780740747693927,26.198950912475585,26.260641759872435,29.209406382319198,310000,1.1904995,310000.0,9287.107398986816,0.24707918056845665,0.24178358948230744,0.2533540343791246,0.24613276678323745,0.09999999999999859
-25.835938800811768,0.27689405950903895,0.053395355911925436,0.0023057905226014554,26.12960531234741,26.193693910598753,35.64047135449238,311000,1.1894995000000004,311000.0,9315.165389537811,0.2547261030226946,0.249389363899827,0.26072360852360726,0.2536910588592291,0.09999999999999859
-25.67373342514038,0.27679114747047423,0.051588883908465506,0.002349435215583071,25.977887313842775,25.98979370689392,35.575485883378555,312000,1.1884995000000003,312000.0,9343.274633407593,0.26054483954608443,0.2548702510893345,0.2666014683693647,0.2594087046682835,0.09999999999999859
-25.765879760742187,0.2768158448934555,0.051905036609619856,0.002299158682813868,26.11569013404846,26.130239061355592,35.540781242958985,313000,1.187499499999999,313000.0,9371.411325216293,0.25511534279584885,0.24991742335259914,0.2614797075241804,0.25414070989191534,0.09999999999999859
-25.684045810699462,0.27699408450722696,0.05012261508405209,0.002304355455096811,25.98832419013977,26.02478560066223,35.607541477041316,314000,1.1864995,314000.0,9399.495264053345,0.25813910792768,0.25330903388559817,0.2648803211301565,0.25754050305485726,0.09999999999999859
-25.80722016906738,0.2768093414008617,0.05548359626717866,0.002330727457185276,26.123741456985474,26.128512453079225,35.63347569123954,315000,1.1854995000000006,315000.0,9427.558763504028,0.25538528069853783,0.2504194158762693,0.26204247562587263,0.2544611271172762,0.09999999999999859
-25.84299264526367,0.2768369925320148,0.049290132340043785,0.0022940890535828656,26.1223042678833,26.179589920043945,35.553728814440035,316000,1.1844995,316000.0,9455.685209035873,0.24994175866246224,0.24462460534274577,0.2564613460153341,0.24894307097792626,0.09999999999999859
-25.83661749649048,0.27689464592933655,0.0525754492841661,0.0023962504041846844,26.141701913833618,26.17519861793518,35.566636361181864,317000,1.1834994999999997,317000.0,9483.801446914673,0.25646199007332326,0.25107892882823946,0.262819369956851,0.25550694443285465,0.09999999999999859
-25.74490327453613,0.27686603051424025,0.054199575243517754,0.0023064103435026483,26.048414407730103,26.12367395401001,35.76768879713445,318000,1.1824994999999991,318000.0,9511.759641885757,0.2582895598858595,0.25278792940080164,0.2645922604948282,0.2573794658482075,0.09999999999999859
-25.888968868255617,0.27692351973056795,0.04906998667307198,0.0022792462919605898,26.18275789642334,26.241922275543214,35.53394958833379,319000,1.1814995000000006,319000.0,9539.9017431736,0.2511920175552368,0.24564889700710774,0.25761341670155524,0.2503235760629177,0.09999999999999859
-25.853252925872802,0.27688345131278036,0.05264356748200953,0.0023529948113719,26.139006034851075,26.16743684768677,29.16201399157931,320000,1.1804995000000003,320000.0,9574.19292807579,0.2529189780652523,0.24760649102926255,0.2593277382105589,0.25186759524047375,0.09999999999999859
-25.79238150024414,0.27700756311416624,0.05082497212849557,0.002262025137548335,26.097926877975464,26.125057764053345,35.657130716282836,321000,1.1794995,321000.0,9602.23780989647,0.2555555608272552,0.25050713154673576,0.2622574803829193,0.2547761676609516,0.09999999999999859
-25.942835796356203,0.27686562469601633,0.05232490428350866,0.0022122606209595687,26.204311847686768,26.27900384902954,35.792129294124464,322000,1.1784994999999996,322000.0,9630.176913499832,0.24294230452179907,0.2379805742353201,0.24978238254785537,0.24236064268648624,0.09999999999999859
-25.796485328674315,0.27680443289875983,0.053152793804183605,0.002236580785829574,26.09812437438965,26.14727094268799,35.68526573433231,323000,1.1774994999999995,323000.0,9658.199684143066,0.25324863612651827,0.2482625110298395,0.26022906802594664,0.2525557646602392,0.09999999999999859
-25.902158809661866,0.27676089116930963,0.05012309747561813,0.002318643525824882,26.183729526519777,26.254273458480835,35.48360011290649,324000,1.1764995000000007,324000.0,9686.381717920303,0.2509515856355429,0.24574556897580624,0.25753330370783806,0.2499227872043848,0.09999999999999859
-25.904639770507814,0.27690056443214417,0.05179647019319236,0.0022944933744729495,26.18901652908325,26.219392431259156,35.51202318711159,325000,1.1754995000000001,325000.0,9714.54119515419,0.25127000123262405,0.2458023875951767,0.2577784756720066,0.25020901112258437,0.09999999999999859
-25.807384265899657,0.2769619328379631,0.05013027171231806,0.002172577104647644,26.133452466964723,26.12345301628113,35.55588047654176,326000,1.174499499999999,326000.0,9742.665938854218,0.2554213332682848,0.2502751265913248,0.2622032033354044,0.25454627417027953,0.09999999999999859
-25.708218814849854,0.2768545497655869,0.05118969268910587,0.002197630432143342,26.018627616882323,26.06304430770874,35.37306602881692,327000,1.1734995,327000.0,9770.936035871506,0.25925325042009356,0.2542155041843653,0.26620609226822856,0.2583853175640106,0.09999999999999859
-25.84460125350952,0.2767886244356632,0.049761852655559775,0.0022667913641780616,26.144534004211426,26.160606058120727,35.40869349922063,328000,1.172499500000001,328000.0,9799.177688121796,0.2539274841248989,0.24864666521549225,0.2608050403445959,0.2532220788002014,0.09999999999999859
-25.6913282661438,0.2769256229102611,0.05314693731069565,0.0022437393980799243,26.00905759239197,26.047888538360596,35.38633470537262,329000,1.1714994999999997,329000.0,9827.437185049057,0.26085951942205426,0.2555138925164938,0.2674216253459454,0.25985526974499223,0.09999999999999859
-25.886538291931153,0.2767642537355423,0.05037570806033909,0.0023414892363362015,26.1804917678833,26.179451793670655,28.995072985312184,330000,1.1704995,330000.0,9861.925803899765,0.25277737306058407,0.24719228245317937,0.2594592560827732,0.2517786751687527,0.09999999999999859
-25.8121399269104,0.276741112023592,0.05308212104253471,0.0022037804821738974,26.141087743759154,26.121917917251587,35.431361611998284,331000,1.1694995,331000.0,9890.149388313293,0.2530550267547369,0.24812114836275578,0.25989152619242667,0.25220737618207933,0.09999999999999859
-25.769910243988036,0.27706406462192534,0.04918041562847793,0.0022191048039821907,26.068949777603148,26.0898475151062,35.38114076743285,332000,1.1684994999999996,332000.0,9918.413033723831,0.25725163769721987,0.2519016509801149,0.263972748786211,0.2563016510158777,0.09999999999999859
-25.661914981842042,0.2768949884772301,0.05251208850927651,0.0023441423614276573,25.97517180633545,26.011694635391237,35.480412387180316,333000,1.167499500000001,333000.0,9946.597599506378,0.2668892329931259,0.26132438124716284,0.2734248827546835,0.26594280324876307,0.09999999999999859
-25.774707443237304,0.276855695515871,0.051654034178704025,0.0022829297160496934,26.08342356300354,26.099906307220458,35.52625993125854,334000,1.1664995000000002,334000.0,9974.745792627335,0.2582381544113159,0.25303116066753867,0.2652168704718351,0.25744900876283644,0.09999999999999859
-25.827300086975097,0.276972472012043,0.05260328098013997,0.002258142278762534,26.14614317893982,26.165534353256227,35.392352624719365,335000,1.1654994999999992,335000.0,10003.000483989716,0.25482421918213366,0.24958877332508564,0.26181557078659534,0.2540872597247362,0.09999999999999859
-25.784299083709715,0.27685092082619667,0.05072725376486778,0.0023095865772338586,26.07892269706726,26.08918018722534,35.31221948121,336000,1.1644994999999998,336000.0,10031.319293260574,0.2539235493540764,0.24840879952907563,0.2607163372635841,0.25293459939956664,0.09999999999999859
-25.954390903472902,0.2768576292991638,0.05223424438200891,0.002138385495636612,26.257458799362183,26.29334814834595,35.375883010903365,337000,1.1634995000000004,337000.0,10059.587139129639,0.2458301405906677,0.24054174460470676,0.252636460006237,0.24481525500118734,0.09999999999999859
-25.90356893157959,0.2767873250246048,0.05196688718535006,0.0022554213114781307,26.192344821929932,26.20299933242798,34.763178013003355,338000,1.1624995,338000.0,10088.353209018707,0.2482145995646715,0.2429015206247568,0.2551968025416136,0.247260488986969,0.09999999999999859
-25.839912586212158,0.2768570173382759,0.05397356390580535,0.0021818291433155536,26.1429206905365,26.177236782073976,34.416736448366535,339000,1.1614994999999997,339000.0,10117.408840417862,0.251478955462575,0.24623850336670874,0.25854784916341306,0.25063955430686474,0.09999999999999859
-25.85396134567261,0.2767993535995483,0.05169545661099255,0.002161374653689563,26.14034778213501,26.181218158721922,28.673816699101373,340000,1.1604994999999994,340000.0,10152.283863306046,0.25276127365231515,0.24771980682015418,0.25970619270205497,0.25197425664961337,0.09999999999999859
-25.80306827926636,0.2767854500710964,0.053706483839079736,0.0022461106225964613,26.083598842620848,26.145460432052612,35.02140994026285,341000,1.1594995000000001,341000.0,10180.837825536728,0.2539909473657608,0.2485652517080307,0.26078269666433335,0.2528446287959814,0.09999999999999859
-25.69238543701172,0.2767649072110653,0.05171628122776747,0.0023303119798656555,26.007547256469728,26.042860303878783,35.26850030067707,342000,1.158499500000001,342000.0,10209.191739082336,0.2595518199950457,0.25445097260177135,0.26667806652188303,0.25883153806626796,0.09999999999999859
-25.9411767578125,0.2768624100983143,0.050685160344466566,0.002159683231730014,26.26442258262634,26.270104236602783,35.2358708434305,343000,1.1574994999999997,343000.0,10237.571909666061,0.2457792377322912,0.24076491829752922,0.25295514641702177,0.2449477015733719,0.09999999999999859
-25.883985565185547,0.2767722027003765,0.049916806884109974,0.002202634515822865,26.20690090751648,26.211430280685423,35.072035155519615,344000,1.1564994999999991,344000.0,10266.084655046463,0.2498174765408039,0.2443494244813919,0.2565768623203039,0.24875375840067865,0.09999999999999859
-25.790595321655275,0.2768849016427994,0.05460174388810992,0.00227493793098256,26.108252058029176,26.110401008605958,34.98315437988833,345000,1.1554994999999997,345000.0,10294.669842243195,0.25512651714682577,0.2497968212068081,0.2619535745829344,0.2541743581146002,0.09999999999999859
-25.84235414123535,0.276771464318037,0.05113809174112976,0.002130673512816429,26.169512378692627,26.211839237213134,34.475381696968846,346000,1.1544995000000007,346000.0,10323.676048278809,0.25189754414558413,0.2468386010825634,0.25918714982271196,0.2512767704129219,0.09999999999999859
-25.77788097000122,0.2769693201482296,0.05496028056740761,0.0023265039985999464,26.123673997879028,26.06699001502991,35.2793859665023,347000,1.1534995000000006,347000.0,10352.021213293076,0.2594347188770771,0.2541678781658411,0.2663797605484724,0.25868772464990614,0.09999999999999859
-25.953710189819336,0.2768400582373142,0.05250754275918007,0.002212762028735597,26.23880573272705,26.28171873664856,35.368731342533465,348000,1.1524994999999991,348000.0,10380.294775247574,0.24689854963123797,0.24139441353082658,0.2535544942319393,0.24573383252322673,0.09999999999999859
