guyguy404/RL_class_project/result_pbrl_share/walker_walk-Share_walker_walk_walker_run-medium-pbrl-05-23-09-04-32/train.csv
actor_loss,batch_reward,critic_loss_in,critic_loss_ood,critic_q1,critic_target_q,fps,frame,share_ratio_now,step,total_time,ucb_curr_actions_ood,ucb_current,ucb_next,ucb_next_actions_ood,ucb_ratio_ood
0.18378117680549622,0.8516769409179688,0.9825321435928345,0.5281767249107361,-0.11153112351894379,1.4094122648239136,99.54068412766294,0,1.5,0.0,10.046144723892212,0.3287484347820282,0.32493987679481506,0.3301626443862915,0.3299327790737152,3.0
-0.5023918368294835,0.8509359313845635,0.38228504472970964,0.25109047441184523,0.9889519417844713,1.4735920529961586,33.934243051407464,1000,1.4994994999999987,1000.0,39.51490306854248,0.15300782157480716,0.16819411113113164,0.17811300832033158,0.15295534555613993,2.9261595592038483
-0.794997959792614,0.8507216196656228,0.5259853610992432,0.34516161000728607,1.3996084047555923,1.858514979481697,34.0191306024997,2000,1.498499500000001,2000.0,68.91012907028198,0.18699084547162056,0.20564201824367045,0.21727428825199605,0.18697988010942937,2.783445594073607
-0.6726814401745796,0.8511038246154785,0.4721904226839542,0.34526734364032746,1.3640169042944907,1.672785376548767,34.04962606291936,3000,1.4974995000000009,3000.0,98.27902746200562,0.20954950433969496,0.21057674703001977,0.22382285678386687,0.20959604389965533,2.647692040852256
-0.6711676943302155,0.8510133414268494,0.5706598221361637,0.35151205909252164,1.3870738648176193,1.7725765367746353,34.364490745040996,4000,1.4964994999999994,4000.0,127.37883400917053,0.22544852703809737,0.24907473404705524,0.2497482520490885,0.22556390219926833,2.51855942796883
-0.5846147300601006,0.8509520497918129,0.5803026983141899,0.30923963506519797,1.3869025042057037,1.8064362967014314,33.97085819394979,5000,1.4954995000000004,5000.0,156.8158299922943,0.22222889161109924,0.27089912714064124,0.26268630032241347,0.2221295526921749,2.395724840479903
-0.7087589691281319,0.850748517870903,0.6129124104976654,0.3016896519511938,1.4989786735773087,1.9100475054979325,34.28001065856159,6000,1.4944995000000003,6000.0,185.98734974861145,0.22274363838136196,0.29190895235538483,0.271792687356472,0.22282820570468903,2.2788811125736492
-0.5729965934753418,0.8509279273748398,0.6441492056250572,0.2951584810763597,1.4000177112817764,1.8457725669145584,34.98272809204051,7000,1.4934995000000002,7000.0,214.5728850364685,0.24110045666992663,0.3365659869015217,0.31702793526649475,0.2411734809279442,2.1677360594568955
-0.8156510090827942,0.8506170662045479,0.590840006172657,0.2998431018590927,1.59731523001194,1.9897345399856567,34.007487364344975,8000,1.4924995000000003,8000.0,243.97817468643188,0.23529378345608712,0.311991975903511,0.2869635028094053,0.23527068001031876,2.0620117467044237
-0.7951004015803337,0.8508152765035629,0.6365161295831203,0.29089700035750865,1.6458205565214157,2.092170073747635,33.90495580885319,9000,1.4914995000000002,9000.0,273.47238874435425,0.23919206713140012,0.3078425010740757,0.2841228514313698,0.23901775906980038,1.9614437952433663
-0.8128711174726486,0.8506800731420517,0.6056677120029926,0.2809830653518438,1.6965551234483718,2.086749700665474,27.992569359094375,10000,1.4904994999999992,10000.0,309.1961553096771,0.24278664694726468,0.3027259635031223,0.27761137825250626,0.242707696557045,1.8657807202347552
-0.8098908021450043,0.8506595735549927,0.6554067677855492,0.2935863684862852,1.653006166100502,2.190135346889496,34.44655421369005,11000,1.4894995000000004,11000.0,338.2266356945038,0.25626918894052503,0.31741028985381126,0.29739464351534844,0.25624472509324553,1.7747833021989736
-0.9439042380452156,0.8504854405522346,0.6393989570736885,0.2890707605928183,1.8227662823200226,2.2847586317062376,34.44118336190004,12000,1.4884995000000005,12000.0,367.261643409729,0.26230546028912066,0.31175522154569624,0.2951455004662275,0.26253821162879465,1.6882239888125683
-0.9426209418177605,0.8505115716457367,0.6763887194395065,0.3059483749419451,1.85342296898365,2.3264267555475233,34.13771167265593,13000,1.4874995,13000.0,396.55476117134094,0.28342214450240133,0.33600420105457307,0.3181031009554863,0.2835530225783586,1.6058863258804101
-1.0473782630562782,0.8509076286554337,0.7113457255959511,0.28582971820235253,1.9917566275596619,2.487631708264351,33.981150983093215,14000,1.4864994999999992,14000.0,425.98284101486206,0.2866171029061079,0.3306175760030746,0.3128901279568672,0.28681885555386544,1.5275644160604327
-0.9582132142186165,0.8506007908582688,0.6709376962184906,0.28309531837701796,1.872210855126381,2.37206120467186,33.842147651318626,15000,1.4854994999999998,15000.0,455.53179359436035,0.2998062364012003,0.33719314852356913,0.3252359906733036,0.29989762902259826,1.4530624039872562
-1.047627989590168,0.8507915927767754,0.6685140025019646,0.2705906440168619,2.0244287133216856,2.3810540472269057,33.4599461978491,16000,1.4844995000000005,16000.0,485.4182734489441,0.3074881861656904,0.34031055215001105,0.3285188752710819,0.3075344606637955,1.3821939865072734
-1.3657528640031815,0.8510164247751236,0.7076231218576431,0.295408145442605,2.3572496953010558,2.7455222659111023,33.56395395948249,17000,1.4834994999999997,17000.0,515.2121415138245,0.33421168944239615,0.35700988897681235,0.34883033648133277,0.3345875863730907,1.314781946800423
-1.386614602327347,0.8508111382126808,0.750307964861393,0.2821168315708637,2.349620250225067,2.7495606484413146,33.6086346616369,18000,1.4824995,18000.0,544.9664006233215,0.3440714207291603,0.36922967380285265,0.3610177811682224,0.3443087010681629,1.250657711223672
-1.3351668555140495,0.8509148713350296,0.6673332279324532,0.2620759384483099,2.3581351726055146,2.6742297545671465,34.45794099018126,19000,1.4814994999999997,19000.0,573.9872875213623,0.34464967328310014,0.36603670415282247,0.3599739038348198,0.34468007677793505,1.1896609277680197
-1.4423813294172287,0.8504125142097473,0.725947479724884,0.2840926772207022,2.5798210262060164,2.9551354367733,27.96951130789266,20000,1.4804994999999994,20000.0,609.7405045032501,0.38015261706709863,0.3968661633133888,0.3903042815327644,0.37988110652565954,1.1316390650748966
-1.3678319075107574,0.8507104055285454,0.7186830256581307,0.2715811002850533,2.3594357067346574,2.7104305566549303,33.74757531309007,21000,1.479499500000001,21000.0,639.3722634315491,0.39243832883238794,0.4103279468119144,0.4038919178247452,0.3926160309612751,1.076447031009242
-1.8707966916561127,0.8512218958735466,0.7476497154831886,0.25601608157157896,2.98165030002594,3.2786391332149507,34.33588628149992,22000,1.4784995,22000.0,668.4963121414185,0.3923248229324818,0.4085982110798359,0.4043278475403786,0.39261597248911856,1.0239468098354505
-2.0494463913440706,0.850326209962368,0.7955683298110962,0.26191497753560544,3.295371575713158,3.4942359261512754,33.524893618531436,23000,1.4774994999999989,23000.0,698.3248932361603,0.41664063718914984,0.4353409775495529,0.42966975274682045,0.416934279948473,0.9740071170888802
-2.0596091842651365,0.8506246716976166,0.7513962521553039,0.24973503135144712,3.173798820018768,3.5738173487186433,33.03087024561523,24000,1.4764995000000003,24000.0,728.5996034145355,0.4290316874980927,0.4557567777335644,0.45077232018113134,0.4291515038907528,0.9265030712798921
-2.5900312814712523,0.8513172737360001,0.8468058370351791,0.2536771387606859,3.9387441236972807,4.08677532362938,32.868461425206725,25000,1.4754995000000006,25000.0,759.0239062309265,0.4525616573393345,0.4695281821787357,0.4649148458838463,0.4523503858447075,0.8813158816094583
-3.3051462585926057,0.8506980028152465,0.7912849145531654,0.24620717889070512,4.633543690443039,4.843764047145844,32.55256887937491,26000,1.4744994999999994,26000.0,789.7434482574463,0.46539745005965233,0.47712994456291197,0.47515879014134405,0.46540391466021536,0.8383325509154325
-2.273597230434418,0.850334156036377,0.8088345522284508,0.2612397524863482,3.6960776329040526,3.6536184804439547,33.29429224148078,27000,1.4734995000000004,27000.0,819.7786273956299,0.5146890838444232,0.5182383280992507,0.5217596733272075,0.5152287640571594,0.7974455931066636
-2.6138305325508115,0.850806979894638,0.846016766667366,0.25445552667975424,4.01632897901535,3.98482778263092,33.900478593346875,28000,1.4724994999999999,28000.0,849.276736497879,0.5329677463173866,0.5440219892561435,0.5451467229425907,0.532952332764864,0.7585527643783305
-2.930543390274048,0.8508954414129257,0.8101417121887207,0.2524567634612322,4.251455795764923,4.581058534145355,34.69449447627001,29000,1.4714994999999995,29000.0,878.0997536182404,0.557962355196476,0.5697303260564804,0.5712337155640125,0.5583337289392948,0.7215568075363916
-4.3371308760643,0.8507439549565315,0.9365791783928871,0.260241909429431,5.411476410388946,5.757925144433975,28.68474925054385,30000,1.4704995000000014,30000.0,912.9614851474762,0.5888332527577878,0.5981367090046406,0.6017220440804958,0.5891638952791691,0.6863652087917703
-4.513759498119354,0.8505176539421082,0.9385215615034104,0.2726439305096865,6.1705605449676515,6.0705390946865085,35.49128032122544,31000,1.4694995000000008,31000.0,941.1374201774597,0.64009152084589,0.6491913970410824,0.6525778721570968,0.6402976925969124,0.6528899664161381
-3.9855781259536744,0.8508526684641838,0.8252917900085449,0.25282973055541513,5.1381108460426335,5.86156672000885,35.524698268188914,32000,1.468499499999999,32000.0,969.2868509292603,0.6412705231904984,0.6516725451946258,0.6567816950678825,0.6416110392808915,0.621047370680741
-4.097222792625427,0.8507603799700737,0.8722079086303711,0.25305419631302356,5.496714831113815,5.672777518510818,35.88605523108722,33000,1.4674995,33000.0,997.1528286933899,0.6844388317465783,0.6968993203639984,0.7022687186002732,0.6850118383169174,0.5907577945280045
-4.904739205360412,0.85072526460886,0.835706852376461,0.25633044497668744,6.326974487781524,6.58790536403656,35.29753289053597,34000,1.4664995000000005,34000.0,1025.4834213256836,0.7266215668320656,0.7359356831908226,0.7408424098491668,0.726999250471592,0.5619454944524661
-4.120976096630097,0.8505672284960747,0.7641315160989761,0.23685250797867774,5.9337036409378054,5.488953026771545,34.21460694679117,35000,1.4654995000000004,35000.0,1054.7107050418854,0.7386429423689842,0.7385102220773697,0.7470762765407563,0.7393356944322587,0.5345384210930749
-5.937374634742737,0.8507049716711045,0.8688878199458122,0.22868920111656188,7.117490533351898,7.541613706111908,33.26020345950352,36000,1.4644994999999996,36000.0,1084.776666879654,0.7605326313376427,0.7604300893545151,0.7667012408971786,0.760980075776577,0.5084680390632548
-5.601912318229675,0.8507542541623115,0.8538052468299866,0.23379140473902227,6.987304109096527,7.1040285196304325,33.15085874971833,37000,1.4634994999999995,37000.0,1114.9417984485626,0.8087695926427841,0.8144601809978486,0.8214975031018257,0.8096077885627747,0.4836691555681731
-7.848443211555481,0.8510098668336868,0.8566312357783318,0.22925847661495208,9.01631219291687,9.76175185585022,33.4641233074257,38000,1.4624994999999996,38000.0,1144.8245482444763,0.8379189565181732,0.8452306022047996,0.8518912696838379,0.8383543835878372,0.46007975738063583
-8.216492885112762,0.8508558122515678,1.069009787261486,0.2537331631332636,9.84029628753662,10.143033514022827,32.83281839617389,39000,1.4614995000000006,39000.0,1175.2818791866302,0.9082735325098038,0.9079154245853424,0.9167051012516022,0.908382314324379,0.4376408557679648
-8.186389305114746,0.8505655200481415,0.9912768359780312,0.25219762274622914,9.505595462799072,10.017303431510925,25.36749891414229,40000,1.4604995000000003,40000.0,1214.7024002075195,0.9458057092428207,0.9471545185446739,0.9565276783704758,0.9465215029716492,0.41629633898206825
-11.279601766586303,0.8506863778829574,0.968072392821312,0.2153885598257184,13.234352379798889,13.203228053569793,32.683190440194224,41000,1.4594994999999997,41000.0,1245.2991688251495,0.9461059511899949,0.9522130101919174,0.9609438542723656,0.9465199179649353,0.39599283194381996
-12.928977416992188,0.8511627694368362,0.9311515923738479,0.22389551799744367,14.26390149307251,14.98200099658966,33.325806304493156,42000,1.4584994999999994,42000.0,1275.3059453964233,0.9964328122735023,1.002496283352375,1.0117511469125748,0.9963359659314156,0.37667956277088704
-13.819886487960815,0.8509858210682869,0.9327781878113747,0.2262320867329836,15.467815003395081,15.502878272056579,33.895917094688784,43000,1.4574995000000006,43000.0,1304.8080246448517,1.066777414381504,1.0680873187184334,1.0783598387241364,1.0674081550240517,0.3583082358152284
-12.315976130485534,0.8508337756991387,0.9852690533995628,0.22433053062856198,13.858682676315308,14.122596073150635,33.45779731615483,44000,1.4564995000000007,44000.0,1334.6964242458344,1.1216518514156342,1.1236288588047028,1.1338977708220481,1.121961966097355,0.34083291089278106
-18.916100761413574,0.8507500519156456,0.940651909828186,0.1964607229977846,20.928320589065553,20.88324952983856,33.28610155126513,45000,1.4554994999999993,45000.0,1364.7389936447144,1.101789450585842,1.1016326957345008,1.1126683307290077,1.1024619114398957,0.3242098884033219
-16.09374199795723,0.850830256998539,1.1753496224284172,0.24662673652172087,17.786701058864594,17.7879649143219,32.83386319047275,46000,1.4544994999999996,46000.0,1395.1953551769257,1.215409824848175,1.2168814563155175,1.2314046467542648,1.2165442882180213,0.3083976000532428
-12.746268951416015,0.8508756012916565,1.0442650045156479,0.2544620207324624,15.007890226364136,14.263183871269225,32.651353803802024,47000,1.4534995,47000.0,1425.8219571113586,1.3854072296619415,1.3822003594636918,1.3962118977904319,1.38633355396986,0.2933565049079651
-16.540737855911257,0.8507343762516976,0.9568872367739677,0.19996387381106615,18.11457343673706,18.448355347633363,33.39608459846074,48000,1.4524994999999996,48000.0,1455.7655878067017,1.2443731563091278,1.2495674688220024,1.2648270757198334,1.2449447697401046,0.27904899051406257
-12.354900300979613,0.8508359372615815,0.9765497145652771,0.2277248880788684,14.900335576057435,13.959575710773468,33.56341518094635,49000,1.451499500000001,49000.0,1485.5599341392517,1.4587997479438781,1.4570876376628876,1.474239575266838,1.459773005247116,0.2654392788438319
-21.560665172576904,0.8509313341975212,0.8388901602625847,0.16915652618557214,23.939353137016298,23.39429271030426,27.45657797361876,50000,1.4504995,50000.0,1521.9810795783997,1.3263772761821746,1.3321348532438277,1.3462626835107803,1.3266360400915145,0.252493336827115
-24.685640281677244,0.8504128838181496,1.1621309292912483,0.20724351955205203,26.73659685897827,26.41389106082916,32.95699057507029,51000,1.4494994999999988,51000.0,1552.3236565589905,1.4261003003716468,1.422807110786438,1.4407332258224488,1.4263071469068527,0.24017879124663816
-21.823383450508118,0.8507965481877326,1.0282887910604477,0.20867822705954314,23.378474969387053,23.90552153611183,33.217347933683435,52000,1.4484995000000005,52000.0,1582.4284081459045,1.530558642745018,1.5332449893355369,1.5531654692292214,1.5308992140889168,0.22846484778406018
-27.6793685836792,0.8507037799954414,1.0174486266374587,0.14014101377874613,29.976186912536622,29.18817150783539,33.489339708110855,53000,1.4474995000000013,53000.0,1612.2886571884155,1.3839878938794137,1.3756968388557433,1.3903368937373162,1.3838216853141785,0.2173222140142833
-18.080226435020567,0.8508113503456116,1.2403384196162224,0.2486276390478015,19.863248616218566,20.36011282777786,33.09016037253254,54000,1.4464994999999994,54000.0,1642.509122133255,1.7738134521842004,1.7683264052867889,1.7924815360307693,1.7742418580651282,0.20672302615547075
-31.820979328155516,0.8505676456093788,0.9625237066149711,0.13427343666553498,34.29553071022033,34.03940998649597,32.543964046259205,55000,1.4454995,55000.0,1673.2367882728577,1.465129083752632,1.456931813955307,1.4773198541402817,1.465409430384636,0.19664077939159413
-34.894898502349854,0.8508061791062355,0.9601526371240616,0.12931691589951516,37.016370237350465,36.36916529464722,31.959870455932418,56000,1.4444995,56000.0,1704.5260269641876,1.484969112932682,1.478417918086052,1.4974959242343902,1.4844835887551309,0.18705026159327173
-26.78935642248392,0.8509103806614876,1.1144331222772599,0.1919575594291091,29.517465487003328,28.784434819936752,33.364473372720816,57000,1.4434994999999997,57000.0,1734.4980278015137,1.7109778152704238,1.7111070712208747,1.7355706322193145,1.7110010716319084,0.17792749027116103
-32.06975413513184,0.8509518548846244,1.04147043299675,0.14401489643007517,34.11022032165528,34.711159074783325,33.23059085341278,58000,1.4424995000000007,58000.0,1764.5907821655273,1.7296636182069778,1.714603965997696,1.7380838360786437,1.7302700337171555,0.1692496526042433
-29.13178680038452,0.8505859975218772,0.9860651769638061,0.14573979096114636,31.978406398773192,31.00167520713806,32.16141288817455,59000,1.4414995000000002,59000.0,1795.6839447021484,1.7976417816877366,1.7911439666748046,1.8180025402307511,1.7980279850959777,0.16099504839303616
-35.066852319717405,0.8503746650815011,1.3452922624349595,0.12997590330988168,37.68461781692505,37.05411161613464,27.301138719301374,60000,1.440499499999999,60000.0,1832.3124542236328,1.7927311195135116,1.7809182683229445,1.8054262973070145,1.79315365588665,0.15314303579507796
-41.82231114959717,0.850825962126255,0.9879971159100532,0.09221934614703059,44.532055213928224,43.33908714294434,33.35293968711517,61000,1.4394995,61000.0,1862.294819355011,1.6391997482776641,1.6270120656490326,1.649684864759445,1.6391324449777602,0.14567397970698662
-47.68387133026123,0.8509413161873818,1.0962836201786994,0.07912366956472397,49.68390049362183,49.95317853164673,33.621845952933775,62000,1.4384995000000005,62000.0,1892.0373866558075,1.5605089827775955,1.5461509155035018,1.568881328701973,1.5600654016733169,0.1385692026640207
-42.7467610168457,0.8505326665043831,1.4289767969846725,0.12795377792790533,45.07206225967407,45.58250638008118,33.450740591496704,63000,1.4374995000000004,63000.0,1921.9320917129517,1.9132275441884994,1.899459192276001,1.925046979188919,1.9131290273666381,0.131810938134352
-20.49640688061714,0.8507281324267387,1.4161487073302268,0.1844982584193349,23.854154215335846,24.599157353520393,33.5503479832407,64000,1.4364994999999992,64000.0,1951.7380421161652,2.488411549329758,2.498429173588753,2.5344433044195176,2.489516955256462,0.1253822860912596
-23.519710306167603,0.8514938750863075,1.1470707576274872,0.15362207747995854,26.690678773880006,26.370379831314086,33.68867950124641,65000,1.4354994999999997,65000.0,1981.4216043949127,2.508088683724403,2.4858862199783327,2.5255644955635073,2.5088827192783354,0.11926717075214711
-33.163675886154174,0.8508190487623215,1.22879209369421,0.1067037167698145,35.959407890319824,36.11320406341553,33.603643056696235,66000,1.4344994999999998,66000.0,2011.1802830696106,2.208508106350899,2.189953623056412,2.222969684958458,2.2081546087265016,0.11345030037870259
-34.49841613388062,0.8508397162556648,1.421386314034462,0.1466278113797307,37.13423972892761,37.619124572753904,32.23617365138206,67000,1.4334995000000004,67000.0,2042.201334953308,2.7299126814603807,2.7113326399326323,2.7496960884332657,2.729866870164871,0.1079171290376746
-34.46825423049927,0.851048939883709,2.013514105319977,0.14029450539499522,38.02571974372864,37.483732946395875,33.38673284476551,68000,1.4324995000000003,68000.0,2072.1533527374268,2.6690119574069975,2.6516528646945954,2.6991430757045745,2.6697623693943022,0.10265382022664421
-35.87208433914184,0.8506083670854568,1.9255914754867554,0.11543797670677304,38.01318399238586,39.04440257835388,33.05581048568588,69000,1.4314994999999995,69000.0,2102.405220746994,2.4479016251564025,2.433149211525917,2.4789243754148482,2.4475948667526244,0.10000118263024259
-36.15099696016312,0.8505664172768593,1.9982870131731034,0.14734845365583896,40.574252376556394,39.410514219522476,26.83944625033751,70000,1.430499499999999,70000.0,2139.6638140678406,2.7084936538934707,2.6913180959224703,2.7363908064365385,2.708425732970238,0.09999999999999859
-32.84864087557793,0.8505540152192116,1.512123901605606,0.12523137325793504,34.9409172539711,36.681070585370065,33.50146859026453,71000,1.4294995000000006,71000.0,2169.5132524967194,2.614334827184677,2.594181107163429,2.6354521243572235,2.6139484800100328,0.09999999999999859
-39.02630801010132,0.8510698409080505,1.086565220952034,0.09302183367684483,42.274409217834474,41.524717002868655,33.283223255900616,72000,1.4284995000000007,72000.0,2199.558419942856,2.307318515539169,2.2984800534248353,2.3359594616889954,2.3063399398326876,0.09999999999999859
-35.17349040222168,0.8508532615303993,1.7180618063807487,0.13433846039324998,38.460997095108034,38.587162822723386,33.17270204082511,73000,1.427499499999999,73000.0,2229.7036883831024,2.7249085737466814,2.7031044608354566,2.7482921390533446,2.7243583577871324,0.09999999999999859
-48.149573768615724,0.8507184735536575,1.753825434744358,0.091962368901819,50.841067447662354,51.33247566986084,33.11497116525893,74000,1.4264995,74000.0,2259.9015107154846,2.112208152413368,2.086889501452446,2.1240608036518096,2.1097009048461914,0.09999999999999859
-45.61078823852539,0.8504318291544914,1.640464002430439,0.10012110407277942,49.4867148475647,48.873593959808346,32.86421950240675,75000,1.4254995000000001,75000.0,2290.329740524292,2.2748862344026564,2.251068600058556,2.286917261004448,2.27437199139595,0.09999999999999859
-52.961571044921875,0.8507922301888466,1.643239120721817,0.07097889095917344,55.14150925827026,55.68633237838745,32.84400796245806,76000,1.4244994999999996,76000.0,2320.7766947746277,1.8467158972024917,1.8279933278560638,1.8614295437335968,1.844543836236,0.09999999999999859
-29.30055183506012,0.8507438639998436,1.674784895837307,0.18902813509479166,32.831544235229494,33.52049727845192,32.28537103301666,77000,1.423499500000001,77000.0,2351.750476360321,2.9994755243062974,2.9895870490074157,3.036820484995842,2.9990999640226366,0.09999999999999859
-39.23061204910278,0.8509010595083236,1.3435312044620513,0.10456405869498848,42.79687689971924,42.555046234130856,32.39075449836281,78000,1.4224994999999998,78000.0,2382.623484134674,2.3769515187740327,2.3583392225503923,2.3938504012823105,2.376831984996796,0.09999999999999859
-48.84668128967285,0.8505005497336388,1.656996573805809,0.08596930311992765,52.44183182525635,51.31684447479248,33.0704434149862,79000,1.4214994999999992,79000.0,2412.8619668483734,2.1299166889190673,2.1017924745082857,2.1393851722478865,2.1277940285205843,0.09999999999999859
-41.65423591041565,0.8507911188006401,1.5516843583583833,0.10991100789234041,45.51243815231323,43.554684463500976,25.89358207841596,80000,1.4204995000000005,80000.0,2451.4815757274628,2.3651913998126983,2.3480317883491515,2.3834183354377747,2.364425540804863,0.09999999999999859
-31.703436339378356,0.8511548003554344,1.6557219190597534,0.157653241885826,35.773058135032656,34.69085693931579,33.75374842450669,81000,1.4194995000000008,81000.0,2481.107915878296,2.9279079691171646,2.8918136117458344,2.9445049008131026,2.927051431655884,0.09999999999999859
-45.294238399505616,0.8510329408049584,1.3501915599703789,0.0900010379590094,47.96080912590027,48.776485612869266,34.29322157180656,82000,1.4184994999999996,82000.0,2510.2681975364685,2.183075248003006,2.1666927316188813,2.2025356739759445,2.181837821364403,0.09999999999999859
-51.718497619628906,0.8507257894277572,1.4013649637699128,0.0774863085821271,54.48521165847778,54.07259188079834,34.41062675406409,83000,1.4174995,83000.0,2539.328988313675,2.0526234611272813,2.034408313393593,2.0685728183984757,2.051083530306816,0.09999999999999859
-51.4083053817749,0.8505857389569282,0.9854089332818985,0.07053704335168004,54.50463801193237,54.19045574951172,33.568335736115216,84000,1.4164995,84000.0,2569.1189670562744,2.0218005582094194,2.0049378435611724,2.038481833577156,2.0206789293289185,0.09999999999999859
-57.65813246917725,0.85091754591465,1.3343393993973731,0.05564575911313295,60.06628078842163,59.8822576675415,34.34661552967683,85000,1.4154994999999997,85000.0,2598.233917951584,1.6441057518720628,1.6243436218500138,1.6507431458234787,1.6422443667650222,0.09999999999999859
-51.67091038513183,0.8509246752858162,1.256015188217163,0.07558784820139408,54.22017150115967,54.20159943389893,34.010842542144864,86000,1.4144995000000002,86000.0,2627.636307001114,2.039383086681366,2.020554846405983,2.052057368397713,2.0376023383140565,0.09999999999999859
-51.68119445800781,0.8509820207953454,1.1825442568063735,0.07726558608189225,54.75442435836792,53.85978382873535,33.701107848841765,87000,1.4134995,87000.0,2657.3089225292206,2.069878125548363,2.054029553771019,2.086767751336098,2.0680125831365586,0.09999999999999859
-43.247708030700686,0.8505944249033928,1.535920830309391,0.12098224889859557,45.979795295715334,46.23880304336548,32.87194983699626,88000,1.4124994999999998,88000.0,2687.729996442795,2.3910178912878037,2.3765964139699935,2.4152187349796295,2.390135850787163,0.09999999999999859
-49.621949687957766,0.8506047633886338,1.2010184950232505,0.08040846794471145,52.388876815795896,52.62439130020142,32.74964842747571,89000,1.4114995,89000.0,2718.2646758556366,2.0524800403118135,2.038761551856995,2.072752733707428,2.050769987463951,0.09999999999999859
-47.95589639472961,0.8507107679247856,1.5241126640439033,0.10790283263474702,51.576477367401125,51.40289575386048,26.72006248652308,90000,1.4104994999999998,90000.0,2755.689738512039,2.320926867842674,2.310326691746712,2.346324063897133,2.319704733967781,0.09999999999999859
-53.12132695007324,0.8507564945220947,0.8847339995205402,0.05500245063938201,55.36463035774231,55.560240915298465,32.50585248936793,91000,1.4094995000000001,91000.0,2786.4534301757812,1.7280004366636277,1.7104575325250626,1.7377674448490144,1.7265359688997268,0.09999999999999859
-39.957291984558104,0.8505395776629447,1.1637254178524017,0.13022516527026892,44.25856318473816,43.10247534275055,32.458592524088196,92000,1.4084994999999993,92000.0,2817.2619137763977,2.6426951810121535,2.6324176131486894,2.664653261423111,2.641790587067604,0.09999999999999859
-47.07585387802124,0.8510173756480217,1.1273548888564109,0.09783571863546968,50.05785743331909,50.26589594650269,32.35358744810051,93000,1.4074995000000001,93000.0,2848.1703877449036,2.263938204407692,2.246702360033989,2.2786667429208753,2.2631524076461793,0.09999999999999859
-52.594689071655274,0.8505059352517128,1.2393079541623593,0.08245784706994891,54.993933113098144,55.752826881408694,32.522351060017655,94000,1.4064995000000002,94000.0,2878.918473005295,2.124243386387825,2.103953841090202,2.1349069402217866,2.122115492105484,0.09999999999999859
-56.94604175567627,0.8505940779447555,0.912856230199337,0.0554317433629185,59.393550148010256,60.557634559631346,32.43050761532434,95000,1.4054994999999995,95000.0,2909.7536368370056,1.7768756424188614,1.7546006127595901,1.785035989522934,1.775073419690132,0.09999999999999859
-54.93942235565186,0.8510331094264985,1.2830163571834565,0.0689868025984615,57.430038539886475,57.2464390411377,32.32843506714412,96000,1.4044995000000005,96000.0,2940.686158657074,1.9386525391340255,1.9185897170305253,1.9466834762096406,1.9371261962652206,0.09999999999999859
-49.165095520019534,0.8509197660088539,1.4820220087468625,0.09640383544750511,51.911883281707766,53.33116235733032,32.42162358443568,97000,1.4034995000000001,97000.0,2971.529771566391,2.24755284845829,2.227280458211899,2.2621503669023513,2.246470260977745,0.09999999999999859
-52.597092155456544,0.8504388080835342,1.1502771646380425,0.08282554527744651,54.98727439880371,55.81783931732178,32.2293199025239,98000,1.4024994999999993,98000.0,3002.557420730591,2.0610256249904633,2.048296459197998,2.0818069754242896,2.0597213531136513,0.09999999999999859
-47.42672074890137,0.8504992519617081,1.5870789713859559,0.11883283082768321,51.61952240753174,50.67776731491089,32.329436294811345,99000,1.4014995000000003,99000.0,3033.4889843463898,2.29891110765934,2.2778098253011705,2.3133124269247056,2.29685649061203,0.09999999999999859
-47.90537565612793,0.8507079797983169,1.1358300266861916,0.09850763433799148,51.40884264755249,50.13599157333374,26.716147789820354,100000,1.4004995000000002,100000.0,3070.919531106949,2.3233424149751665,2.3076357527971267,2.343132572889328,2.321632364153862,0.09999999999999859
-43.479136707305905,0.8505598859786987,1.6914218215346337,0.15776411291584372,46.75010160064697,47.32488412666321,32.401652988724216,101000,1.3994994999999992,101000.0,3101.7821547985077,2.6042876460552216,2.5890270709991454,2.6271937237977983,2.6032920867204665,0.09999999999999859
-51.926807052612304,0.8511931644678116,1.0869839938282966,0.08194266485422849,53.974479946136476,54.66310105514526,32.3372508915942,102000,1.398499500000001,102000.0,3132.7062435150146,2.03543121111393,2.018468605518341,2.0523848264217377,2.0329996218681337,0.09999999999999859
-58.44509561920166,0.8511920245289802,0.8926862819790841,0.06380853784643113,61.39960391616821,60.95818408584595,31.648411482228617,103000,1.3974995000000006,103000.0,3164.3034069538116,1.7988618986606597,1.7826426072120667,1.8145079576969148,1.7967844817638396,0.09999999999999859
-61.28924786376953,0.8509415729045868,1.0679161840081215,0.05859057454206049,62.99426541137695,63.97806422424316,32.524365315450645,104000,1.396499499999999,104000.0,3195.049587726593,1.6595886540412903,1.638683401465416,1.6675412516593933,1.657597549676895,0.09999999999999859
-56.89215980529785,0.8511042259931564,1.073142193377018,0.07450160405598581,59.57665654373169,59.39269278717041,31.693747126545524,105000,1.3954995000000001,105000.0,3226.601553440094,1.89760806953907,1.8795578738451004,1.9123699160814285,1.895573783636093,0.09999999999999859
-60.56170574951172,0.8509701427221298,0.8174622466564179,0.04650607741996646,62.89761828613281,62.48587526321411,31.874552072080633,106000,1.3944995000000007,106000.0,3257.9745438098907,1.6161456170082091,1.597671138048172,1.626033229470253,1.6145493196249008,0.09999999999999859
-58.061705360412596,0.8511446511745453,0.9333492011129856,0.06080288914218545,60.409245506286624,60.30401822662353,32.14949840529657,107000,1.3934995,107000.0,3289.0792286396027,1.8071991894245147,1.7929009806513787,1.8217717059850693,1.8061118516325951,0.09999999999999859
-65.24619445037841,0.8505989823937417,0.8106045497357846,0.038582200972363354,67.01400891494751,66.98150895309448,33.041132456379884,108000,1.3924995000000004,108000.0,3319.3445358276367,1.3933034771084785,1.374034604012966,1.399638253390789,1.3911518381237984,0.09999999999999859
-68.96842762756347,0.8507216331362725,0.7312539477348328,0.030872045001015067,70.52774244308472,70.53416241073609,32.96153519899285,109000,1.3914995000000001,109000.0,3349.682928800583,1.2675305181145669,1.25040594547987,1.273404470026493,1.265478896021843,0.09999999999999859
-70.44927535247803,0.8510234563350677,0.6302839512526989,0.02782329106517136,72.0711768913269,71.95595220947266,26.85334685677595,110000,1.3904994999999993,110000.0,3386.92223572731,1.1896722536683082,1.1728096416592597,1.194666574716568,1.187449166059494,0.09999999999999859
-67.16930381774903,0.8512116420865059,0.6502634420394897,0.03394780695158988,68.76662615585327,69.02579514694214,32.91530963963275,111000,1.3894995000000003,111000.0,3417.3032352924347,1.34076450663805,1.3240951068997384,1.3489938484430313,1.3391397832632064,0.09999999999999859
-69.39830879211426,0.8509241136908531,0.7671649059355259,0.0303079812861979,71.2318694229126,70.92045392608642,32.870579834813874,112000,1.3884995000000007,112000.0,3447.7255771160126,1.2970610731840133,1.2802499284148217,1.3042122768163682,1.295515974700451,0.09999999999999859
-70.91506732177734,0.8504651495218277,0.5771575956642627,0.02556024636607617,72.541803024292,72.48202174377441,32.71000439556593,113000,1.3874994999999994,113000.0,3478.2972643375397,1.1393898839354515,1.1205407141447068,1.1441829364299774,1.1375613602399826,0.09999999999999859
-70.42059658813477,0.8505548273324967,0.6173353497385978,0.029255518917925657,72.02299139022827,72.00033018875122,32.68199248554104,114000,1.386499499999999,114000.0,3508.8951547145844,1.2266906658411025,1.2086983892917633,1.2315856010317803,1.2247603566646577,0.09999999999999859
-70.60656857299804,0.8510560739636421,0.5724440463781357,0.026587021462619306,72.07006602478027,72.1466753616333,32.6329957668409,115000,1.3854994999999999,115000.0,3539.5389862060547,1.1634147792458533,1.1455130818486214,1.1681144999265671,1.1615090181231498,0.09999999999999859
-66.90737503814697,0.8504282258152962,0.7122517560720444,0.036726301589049395,68.3303173751831,68.66867937469482,32.83507024841414,116000,1.3844995000000007,116000.0,3569.9942281246185,1.35714347332716,1.338356381356716,1.3630741401910782,1.3556507165431977,0.09999999999999859
-65.11565853118897,0.8508123772740364,0.6726347862184048,0.04015796862915158,66.82303070068359,67.28169686889649,32.80883674899101,117000,1.3834994999999997,117000.0,3600.473822116852,1.3995166476368903,1.3809598830342293,1.4075917940735816,1.397606103539467,0.09999999999999859
-70.45847352600097,0.8503381932973861,0.5664240659177303,0.029453695237636565,71.83713776397705,71.78853468322754,32.765928067017384,118000,1.3824994999999998,118000.0,3630.993330478668,1.1913243178129196,1.1731976441144942,1.1984922913312912,1.189665310382843,0.09999999999999859
-71.94721214294434,0.8512168287038803,0.519155082821846,0.026240019232966007,73.15704473495484,73.48931247711181,31.755684595630623,119000,1.3814994999999997,119000.0,3662.483756542206,1.1224416128993033,1.1032432870864868,1.1252673637866974,1.1205091122984887,0.09999999999999859
-73.5546015625,0.8509802057147026,0.5650869309306145,0.022733472450636328,74.912666015625,74.84826785278321,25.605921994605833,120000,1.3804995000000002,120000.0,3701.537222623825,1.054535070836544,1.0380608907938003,1.057501967191696,1.0524983991980552,0.09999999999999859
-73.88591641235351,0.8510037119984627,0.4539159259796143,0.021187475627288222,75.02419870758057,75.0563368988037,33.00498559492667,121000,1.379499500000001,121000.0,3731.8356761932373,1.0110044534802436,0.9949245498180389,1.0155910584330559,1.0090042166113853,0.09999999999999859
-75.74783610534668,0.8506845558285713,0.5794138667583466,0.019673742035403848,76.79680564880371,77.02145091247559,33.08476699994406,122000,1.3784995,122000.0,3762.0610675811768,0.9340388312935829,0.9162394944429397,0.9361156147718429,0.9319464930295944,0.09999999999999859
-75.59679910278321,0.8512214255332947,0.46132143872976306,0.0197350629074499,76.77501597595214,76.69284947967529,32.992545979162855,123000,1.3774994999999985,123000.0,3792.370944738388,0.9498129001855851,0.9327596502900124,0.9531715784072876,0.947179245352745,0.09999999999999859
-76.97391529846192,0.8512120177149772,0.44102287754416464,0.018349247505888344,77.91331839752198,78.12969870758057,33.16094266263987,124000,1.3764995000000002,124000.0,3822.526903629303,0.8924389238953591,0.8764748858213425,0.8956084343194961,0.8898324332237244,0.09999999999999859
-76.27070135498047,0.8510962037444114,0.5003077905327081,0.019488815602846443,77.6488722000122,77.30808961486817,33.09213148162009,125000,1.375499500000001,125000.0,3852.7455677986145,0.9426870552897453,0.9260728915929795,0.9462539530992508,0.940648993730545,0.09999999999999859
-74.6553524017334,0.8508721185326577,0.4795308467745781,0.021527429121546447,75.80385350036622,76.01689719390869,33.227529727195055,126000,1.3744995,126000.0,3882.8410952091217,1.020649748802185,1.0053865690231323,1.0251333589553833,1.0188639882802963,0.09999999999999859
-74.74045596313476,0.8508187760114669,0.5107922030687332,0.02293042539153248,75.89481548309327,76.15934220123292,33.149632292976364,127000,1.3734994999999999,127000.0,3913.0073430538177,1.0301357464194298,1.0130613745450974,1.0321423364281654,1.0283251622915268,0.09999999999999859
-72.18471256256103,0.8508286048769951,0.5658970297574997,0.03449857061728835,73.73637022018433,73.80305060577392,33.24117646056504,128000,1.3724994999999995,128000.0,3943.0905148983,1.191597319483757,1.172339584350586,1.1954288435578346,1.1898373486399652,0.09999999999999859
-28.981426403045653,0.8504702734351158,2.3169080082178115,0.21203271593153478,33.29900354003906,34.05743212890625,33.10370048869328,129000,1.3714994999999994,129000.0,3973.2986183166504,3.3585293236970903,3.360080315709114,3.4039129807949067,3.358017789006233,0.09999999999999859
-49.008180530548096,0.8506460375189782,0.7660966249108314,0.08279331839084625,51.859935127258304,51.75943430709839,26.845055451822788,130000,1.3704995000000018,130000.0,4010.5494270324707,2.2043133116960525,2.1957443177700045,2.228511641383171,2.203098603606224,0.09999999999999859
-58.436914962768554,0.8508275485634804,0.7239255608320236,0.06510576644167304,61.217140533447264,61.173718181610106,33.18189855941822,131000,1.3694995000000005,131000.0,4040.6863408088684,1.8297027513384818,1.8132844622135162,1.8423575850129128,1.8279256311655045,0.09999999999999859
-51.50321105957031,0.8508341005444526,1.5994636436998844,0.15910231572948397,54.72675309944153,54.993320373535155,32.90759453017818,132000,1.3684994999999989,132000.0,4071.074463367462,2.445651205420494,2.4215861996412276,2.4594359406232833,2.4443355462551115,0.09999999999999859
-40.2615136680603,0.850274182677269,2.2907289256453516,0.14500703101977705,43.60928206825256,44.057543767929076,32.998524858853216,133000,1.3674994999999999,133000.0,4101.378849029541,2.6590078128576278,2.624980515360832,2.6749208151102066,2.6571697353124617,0.09999999999999859
-42.444331897735594,0.8506833154559136,1.682775084078312,0.16944549115747212,46.85007183074951,46.74664204978943,32.912395937589565,134000,1.3664995000000009,134000.0,4131.762538194656,2.7805343344211577,2.7512512403726577,2.803589103579521,2.7792712659835814,0.09999999999999859
-45.408244216918945,0.8505846489667892,1.3732255940437317,0.14024721026048065,48.80412578201294,48.804877351760865,33.266742541173635,135000,1.3654995000000005,135000.0,4161.822590351105,2.574872730612755,2.5528721181154252,2.596637387275696,2.5722778306007386,0.09999999999999859
-52.4390853805542,0.8504910925626755,1.0450676903128624,0.07839304626733065,55.266450702667235,54.810819425582885,33.17551585512968,136000,1.3644994999999995,136000.0,4191.965302467346,2.083602030158043,2.0693661398887633,2.103527908563614,2.0807969715595247,0.09999999999999859
-59.68872722625733,0.8509740321040153,0.7038289791643619,0.05632500665634871,61.79768156051636,61.7700877494812,33.07678783601834,137000,1.3634994999999992,137000.0,4222.197984695435,1.8165963582992555,1.801152841925621,1.8305946840047835,1.8146488740444184,0.09999999999999859
-56.90477778625488,0.8507158096432685,0.8837130889594554,0.06632589625194668,59.57200322341919,59.34054256439209,33.117556062975616,138000,1.3624995,138000.0,4252.393450260162,1.8063401433229447,1.7944650788903236,1.8229794963598251,1.8033710477352143,0.09999999999999859
-68.86694129943848,0.8506951021552086,0.6323346599936486,0.03452348281629383,70.39098691558839,70.80339413452148,33.22823835880878,139000,1.3614995000000005,139000.0,4282.4883353710175,1.2974494011402131,1.2817671417593957,1.307641545176506,1.2951150728464127,0.09999999999999859
-69.55439517974854,0.8511042066216469,0.6555908463895321,0.033962010213173924,71.03361992263794,71.06562185287476,26.981781251961046,140000,1.3604995000000004,140000.0,4319.550381422043,1.317214308679104,1.2988133558630943,1.3228068889975548,1.3146462475061416,0.09999999999999859
-59.631136707305906,0.8508310630917549,1.0362219995260238,0.08763149829767644,61.87145211601257,62.56640532875061,33.08360518713331,141000,1.3594994999999992,141000.0,4349.776834011078,1.8507884975075721,1.8311394855976104,1.8615182200670242,1.8481213926672935,0.09999999999999859
-41.26519867324829,0.8502081744074822,2.3394152110219,0.17878860535100102,46.35561833000183,45.27881458854675,33.40668545487938,142000,1.358499499999999,142000.0,4379.710963010788,2.7867615061998365,2.763806695461273,2.809165361881256,2.7856349272727967,0.09999999999999859
-55.93084385681152,0.8507814857959747,1.123206606388092,0.08614433943480253,58.808465061187746,58.60977479934692,33.715950553812675,143000,1.3574995,143000.0,4409.37051653862,2.0020313918590547,1.983517837047577,2.0195493805408478,1.999475727558136,0.09999999999999859
-54.00635730743408,0.8509053500294685,1.3015201005339623,0.09613714151456952,57.1137081451416,57.231822132110594,33.667433373374394,144000,1.3564995000000013,144000.0,4439.07281088829,2.1273288573026656,2.1059664944410326,2.1429536417722703,2.1255522820949553,0.09999999999999859
-47.27711637878418,0.8503441904783249,1.5689077570438386,0.14308560902625322,50.21765466308594,51.10679948806763,33.34768356499667,145000,1.3554994999999994,145000.0,4469.059901714325,2.4782401473522184,2.453226087808609,2.493317509055138,2.4768079196214674,0.09999999999999859
-52.11125371551514,0.8507643783688545,1.016729605615139,0.08534830173105001,54.87545901489258,55.44507984542847,33.715756771355906,146000,1.3544994999999995,146000.0,4498.719624996185,2.0708780966997145,2.0530412126779556,2.0894787403345108,2.0685576560497285,0.09999999999999859
-61.19022319793701,0.85079937261343,0.9710579417347908,0.07723452476970852,64.53993051528931,63.311592262268064,33.732207208572966,147000,1.3534994999999999,147000.0,4528.364883899689,1.834228931069374,1.8063132622241973,1.840828183412552,1.8304468994140626,0.09999999999999859
-63.538812339782716,0.8505516642928124,0.7742563524842262,0.052383228583261374,65.72677077484131,65.77456307983398,33.70248702550303,148000,1.3524995,148000.0,4558.036285161972,1.5471929275393486,1.5291475470066072,1.5593155573606492,1.5453907009363175,0.09999999999999859
-67.35937992858887,0.85056580555439,0.7737128762304782,0.039302098708227276,69.2092396621704,69.28638077163696,33.647212708566514,149000,1.3514995000000012,149000.0,4587.756429195404,1.3908420042991638,1.3733497254848481,1.4011782491207123,1.3883975311517716,0.09999999999999859
-71.57300118255615,0.8504482822418213,0.5902572539150714,0.029595800122246146,72.9566513671875,73.24699145507813,27.283868827183433,150000,1.3504994999999997,150000.0,4624.408123970032,1.1547899253368377,1.1363775094151496,1.1602164617776871,1.1512200293540955,0.09999999999999859
-69.97605130004882,0.8509817304611206,0.6789061990082264,0.031244421006180346,71.84148448944092,71.86986429595947,33.65070856163452,151000,1.3494994999999985,151000.0,4654.1251809597015,1.2420049123764039,1.2253328507542611,1.2486844628453255,1.2396176545619964,0.09999999999999859
-71.7581270904541,0.8511664317846298,0.4688077963888645,0.027774075005203486,73.1124496231079,73.24968906402587,33.533122907584655,152000,1.3484995000000006,152000.0,4683.946441888809,1.1538036779165268,1.135513394832611,1.1605269019007682,1.1513826702833176,0.09999999999999859
-70.24937175750732,0.8508422805070877,0.6363689550459385,0.03170231137704104,71.67918420410156,72.13334894943237,33.64113624238932,153000,1.3474995000000012,153000.0,4713.671954631805,1.2641774100661278,1.2448276413083077,1.2682221667766571,1.2617780498862265,0.09999999999999859
-72.27877027130127,0.8502251464724541,0.534322683095932,0.02889286182727665,73.5619499168396,73.92837581634521,34.29891183263082,154000,1.3464995,154000.0,4742.827399253845,1.1335675171017647,1.1122564640045165,1.1374292857050896,1.1307024486064912,0.09999999999999859
-69.85389469146729,0.8510278236865997,0.5538150277733803,0.033632329031825066,71.59754965209962,71.45116984558105,34.40550190888298,155000,1.3454994999999996,155000.0,4771.892518758774,1.242206502199173,1.2243614988923073,1.2510397580862045,1.2396709214448929,0.09999999999999859
-74.72575630187988,0.8514516449570656,0.5058327974379062,0.02318629442155361,75.79957989501953,76.20093912506104,34.981157831767774,156000,1.3444995000000002,156000.0,4800.479336977005,1.0199650525450707,1.002065436899662,1.0244724651575088,1.0168649066090585,0.09999999999999859
-74.62797915649413,0.8506440000534058,0.4853461422920227,0.02403349531814456,75.72693203735352,76.53947289276122,34.726475552975316,157000,1.3434994999999998,157000.0,4829.275810480118,1.029346053659916,1.011284681379795,1.0330248554944992,1.0267129005789757,0.09999999999999859
-74.4443681640625,0.8506631944775581,0.48435113646090033,0.023119177510030568,75.69652298736573,75.87113010406495,34.849932518254654,158000,1.3424995000000008,158000.0,4857.970271110535,1.0103400458097458,0.991865700006485,1.015339502990246,1.0071988355517387,0.09999999999999859
-76.30163542175293,0.8510225278735161,0.4640930752158165,0.021974128941074013,77.4333730545044,77.62712637329102,34.93595738608555,159000,1.3414995000000003,159000.0,4886.594075918198,0.9455050152540206,0.9263935492634773,0.9494715130329132,0.9429611985087395,0.09999999999999859
-76.24405400085449,0.8503606423139572,0.4492170775532722,0.02090383669734001,77.2814349746704,77.75856221771241,28.56325052817924,160000,1.3404994999999988,160000.0,4921.604097366333,0.9454638878703118,0.9256454163193703,0.9487933287024498,0.9422730264663697,0.09999999999999859
-76.08022430419922,0.8508303270936012,0.47583356162905693,0.0209865666879341,77.12844526672363,77.67000631713867,35.032799607975136,161000,1.3394995,161000.0,4950.148776292801,0.9335075289607048,0.9144829140901566,0.9368844572901726,0.9306284778118133,0.09999999999999859
-76.48920953369141,0.8510293891429901,0.5291144809424877,0.021439068854786456,77.63235347747803,77.7862545928955,35.50530567340349,162000,1.3384995000000006,162000.0,4978.3135821819305,0.9293118985891342,0.9107382665872574,0.9325666502416133,0.9267659194469452,0.09999999999999859
-76.68724200439453,0.850491600394249,0.46176162499189377,0.020661332858726383,77.724405960083,78.19226929473876,34.60020092894889,163000,1.3374995000000003,163000.0,5007.215148448944,0.9266829044818878,0.9074910017251968,0.9293213723301887,0.9235603342950344,0.09999999999999859
-75.4173754272461,0.8511268423199654,0.44681033997237685,0.023007456440478562,76.53441051483155,76.87525582885742,34.55637245619084,164000,1.3364994999999993,164000.0,5036.153371810913,1.0039037707448006,0.9842665428519249,1.0070253510475158,1.0006811012625694,0.09999999999999859
-77.08422979736328,0.8508988239169121,0.42596059253811835,0.020441937239840627,78.18385782623291,78.44664688110352,34.87829401257023,165000,1.3354994999999994,165000.0,5064.824499368668,0.892309588611126,0.8727208024263382,0.8948186326622963,0.8892937350273132,0.09999999999999859
-77.3502319946289,0.8507598899006844,0.46883175729215143,0.01988266237732023,78.1902621383667,78.70504294586182,34.058456835959305,166000,1.3344995000000004,166000.0,5094.185783147812,0.9033722172379494,0.8838994569778442,0.9060997920632362,0.9003419119119644,0.09999999999999859
-76.45181303405762,0.8508184773921966,0.4637443170696497,0.020725593987852335,77.41972309875489,77.93956488800049,34.07531794155379,167000,1.3334995000000003,167000.0,5123.5325384140015,0.9593737330436707,0.9405792260766029,0.9617265139818192,0.9562036291360855,0.09999999999999859
-76.63699922180176,0.8508320532441139,0.40252729216218,0.021169592301361263,77.75474814605712,78.00326580810547,34.0578119092689,168000,1.3324995000000004,168000.0,5152.894378423691,0.937063926756382,0.9169414745569229,0.9408448239564896,0.9346917818784714,0.09999999999999859
-76.73402981567382,0.8506065747737884,0.4633896268010139,0.020311138201504944,77.7905698928833,78.17420333862304,34.0474673828163,169000,1.331499499999999,169000.0,5182.265139102936,0.9216340888738632,0.9015224173665046,0.9255968825221061,0.9191466436386109,0.09999999999999859
-77.87821081542968,0.8510627324581146,0.40491689237952233,0.019170806736685336,78.88229886627197,79.18905027770997,28.294860812090942,170000,1.3304994999999995,170000.0,5217.607246637344,0.8531600878834724,0.8323887724280358,0.855913702070713,0.850057588815689,0.09999999999999859
-77.56805992126465,0.8507774536013604,0.4581619074046612,0.02016034029889852,78.66962715911865,78.96631774902343,33.964143913446264,171000,1.3294995000000007,171000.0,5247.050061702728,0.8931703760623931,0.8737214103341102,0.8965398911237716,0.8903182955980301,0.09999999999999859
-77.77983644104003,0.8509649213552475,0.4299257378280163,0.020143009895458818,78.8168226928711,79.10307846832275,34.02458728567047,172000,1.3284995000000004,172000.0,5276.440572977066,0.8834124860167504,0.8633676437735558,0.8865768996477127,0.8802176801562309,0.09999999999999859
-77.79019635009766,0.8505822285413742,0.4483501025438309,0.020820017364807427,78.8087758178711,79.0808378982544,34.05779752867769,173000,1.3274994999999992,173000.0,5305.802424907684,0.8797153059840203,0.8593916634321213,0.8828797995448112,0.8763569495081902,0.09999999999999859
-76.7161037902832,0.8510013383030891,0.43791743054986,0.02138407882209867,77.86336409759521,78.08777898406983,33.45038684634076,174000,1.3264994999999997,174000.0,5335.697445869446,0.9352187980413437,0.9151693485379219,0.9373295673131943,0.9314089118242264,0.09999999999999859
-77.74555577087402,0.8509125823974609,0.4414067419320345,0.020599714746698736,78.85572863006591,79.08391719055176,33.02946719731634,175000,1.3254995000000005,175000.0,5365.973442077637,0.8765600279569626,0.856128957927227,0.879562805712223,0.8728658323287963,0.09999999999999859
-76.78568971252442,0.8509640399813652,0.4523872993886471,0.021885626061819492,77.78561890411378,78.06917811584472,33.82934386250325,176000,1.3244994999999997,176000.0,5395.533578157425,0.9325132977962494,0.9128776628375054,0.9360577653050423,0.9302999519705772,0.09999999999999859
-77.84243649291992,0.8508098241090775,0.45118231782317164,0.02122455982491374,78.91657286071778,79.05988946533203,33.85691974262889,177000,1.3234995000000007,177000.0,5425.0696387290955,0.8724693172574043,0.8524296522140503,0.8763847254514694,0.8694432938992978,0.09999999999999859
-76.76842106628418,0.8509192849993705,0.4144751032888889,0.023703843051567672,77.99020925903321,78.19260722351075,34.1201087368261,178000,1.3224995,178000.0,5454.3778693675995,0.9412897303700447,0.920660500228405,0.9442216309905053,0.9384521868824959,0.09999999999999859
-75.59526118469238,0.8506382054686547,0.4061270689070225,0.02412619975861162,76.81259191131592,77.01689347839356,33.93867838593098,179000,1.3214994999999992,179000.0,5483.84277677536,0.9657870329618454,0.946318878531456,0.9708241595029831,0.9628862655162811,0.09999999999999859
-78.0203765258789,0.8516337719559669,0.4729176745861769,0.019721266626380383,78.94717680358886,79.29250782775878,28.013222137406476,180000,1.320499500000001,180000.0,5519.540205717087,0.8531229722797871,0.8340099267661572,0.8565929908156394,0.8494655049741268,0.09999999999999859
-78.27535087585449,0.8503770011663437,0.43708096396923063,0.020543743930757044,79.2458678894043,79.5598900680542,34.58271272004769,181000,1.3194995000000005,181000.0,5548.456387996674,0.8517186233401298,0.8320175357460976,0.8549567526578903,0.8483242385983467,0.09999999999999859
-77.74429013061524,0.8504940949082375,0.37686000621318816,0.02082149135507643,78.73208502197265,78.96212280273437,34.82835833617577,182000,1.3184994999999995,182000.0,5577.168623209,0.8852593552470207,0.8653498319387436,0.8885520408153534,0.8820401092171669,0.09999999999999859
-76.63652142333984,0.8505964272022247,0.44077944085001947,0.02392578918207437,77.95553725433349,77.97516212463378,34.73904654920955,183000,1.3174994999999998,183000.0,5605.95467543602,0.950905698120594,0.9325977849364281,0.9560487930774688,0.9476154021024704,0.09999999999999859
-77.19248292541504,0.8509629368185997,0.44621529151499273,0.021813855743035675,78.1304774093628,78.56687728118897,34.50922978061002,184000,1.3164995000000004,184000.0,5634.932430505753,0.8994805139899253,0.8776047496795655,0.9020811973810196,0.8957275451421738,0.09999999999999859
-78.82916572570801,0.8505501828789711,0.4087146060019732,0.02008279605768621,79.78431298828124,79.95181350708008,34.570415012726,185000,1.3154995,185000.0,5663.8588988780975,0.8217249018549919,0.8012868016958237,0.8251306368708611,0.8176528104543686,0.09999999999999859
-77.83437107849122,0.8508289043903351,0.46287412773072717,0.021596560772508384,78.8075682144165,79.14434265136718,34.894095900145224,186000,1.3144995,186000.0,5692.51704287529,0.879512178003788,0.8582251236438752,0.882702162861824,0.8757821319699287,0.09999999999999859
-78.0288429107666,0.8504966642260552,0.3999672999083996,0.020988604543730617,79.0086943359375,79.3500929107666,34.64610527776902,187000,1.3134994999999994,187000.0,5721.380316495895,0.8615366634726525,0.8411177253127098,0.8653689910769462,0.8577778836488724,0.09999999999999859
-78.10101368713379,0.8510824257135391,0.41355206120014193,0.0211707812147215,79.1409222869873,79.42509297180176,34.61402232901469,188000,1.3124994999999997,188000.0,5750.270342826843,0.8650201609134675,0.8456588305234909,0.8696790025234222,0.8617544902563095,0.09999999999999859
-78.65423643493652,0.8507841621637344,0.4249885793030262,0.02098521705251187,79.63859351348877,79.82692435455323,35.018471656359274,189000,1.3114995000000005,189000.0,5778.826701402664,0.8210117110610008,0.8007061708569526,0.8252804344296455,0.8171425141692161,0.09999999999999859
-77.667107711792,0.8514486464858055,0.4609997434020042,0.02329675835184753,78.69388985443115,78.98470398712158,28.142086490131284,190000,1.3104995,190000.0,5814.360669851303,0.9017001628279686,0.882558366060257,0.906538959801197,0.8984508900046349,0.09999999999999859
-78.40666246032715,0.8515454006791114,0.41361680306494236,0.021342431692406537,79.41205001068116,79.64470998382568,33.70461545226451,191000,1.3094994999999998,191000.0,5844.030197143555,0.8549005559682846,0.8346880533695221,0.8591617104411126,0.8516470863223076,0.09999999999999859
-78.04815116882324,0.851043319106102,0.39988689520955084,0.022173591608181595,79.10843035888672,79.33317970275878,33.81446196633275,192000,1.3084994999999995,192000.0,5873.603343248367,0.8568581321835518,0.8367568401694297,0.8620821291208267,0.8535926311612129,0.09999999999999859
-78.89289883422852,0.850384654045105,0.46550379875302317,0.020199904356151818,79.85572328186035,80.08172218322754,33.70540010492918,193000,1.3074995,193000.0,5903.272180557251,0.8183452658057213,0.797788589656353,0.8223925453424453,0.8141774705648422,0.09999999999999859
-79.03555061340332,0.850792345225811,0.4248647645711899,0.02089495596010238,79.85511557769776,80.1835722808838,33.808021097900316,194000,1.3064995000000006,194000.0,5932.850960493088,0.8242480729222298,0.8026297093629837,0.8274392597675323,0.8200563208460808,0.09999999999999859
-79.24585748291015,0.8512819721698761,0.41565643206238745,0.02068690726812929,80.15450635528565,80.46671614074707,34.40614370110923,195000,1.3054994999999994,195000.0,5961.915537595749,0.8090577504038811,0.7875236415863037,0.8122177939414978,0.8049574714899063,0.09999999999999859
-80.1080299987793,0.8507093179821968,0.4198108340799809,0.019882133968174457,80.95810790252686,81.2042961807251,34.323464601304366,196000,1.3044994999999997,196000.0,5991.050126075745,0.7498869466781616,0.7286227006316185,0.7544908702969552,0.7460459463596344,0.09999999999999859
-79.15967172241211,0.8509910050630569,0.4554197615981102,0.020901752453297378,80.10259314727783,80.39811372375489,34.33515491567855,197000,1.3034994999999998,197000.0,6020.174794912338,0.8241378245353699,0.8037541612684727,0.8276308752298355,0.8199511695504188,0.09999999999999859
-79.66081138610839,0.8511224047541618,0.3863926219791174,0.020609741744585335,80.5237907333374,80.8769200592041,34.35534524611282,198000,1.3024995,198000.0,6049.28234744072,0.787673323571682,0.76659561252594,0.7914124535918236,0.7836865798830986,0.09999999999999859
-79.75095671081543,0.8503463834524154,0.42581819005310534,0.02111894036177546,80.613882270813,80.94620710754394,34.35146879436615,199000,1.3014995000000005,199000.0,6078.393184661865,0.7878454466462135,0.7662080387473107,0.7917085154652596,0.7841518976092339,0.09999999999999859
-79.1267839050293,0.8513130631446838,0.413735579714179,0.02152072013914585,79.9936134262085,80.39983142852783,28.27492814296849,200000,1.3004994999999997,200000.0,6113.7602071762085,0.8303605278730393,0.811045730471611,0.8358245064616203,0.8271998280882835,0.09999999999999859
-79.97070063781739,0.8508423356413841,0.4145173972994089,0.02029279591049999,80.81584686279297,81.10792063140869,34.39157465195691,201000,1.299499499999999,201000.0,6142.837096691132,0.7718019798696041,0.750885892778635,0.7762824984788894,0.7681578881442547,0.09999999999999859
-80.09549787902831,0.8510079296827316,0.39143814077973366,0.019897519800812006,80.91761345672607,81.28263634490966,34.31000332498242,202000,1.2984995000000006,202000.0,6171.983115911484,0.7689681472182274,0.7492859917879104,0.7740192713737488,0.7654708634614944,0.09999999999999859
-80.31004841613769,0.8507399859428406,0.419151374027133,0.020240346972830593,81.15769505310058,81.38816648101806,34.334883120871964,203000,1.2974995000000014,203000.0,6201.108015060425,0.7539797722995282,0.7349044034481048,0.759376911342144,0.7506624566912651,0.09999999999999859
-79.25773690795899,0.8509197271466256,0.46666152338683603,0.022128398216329514,80.0633673324585,80.61925031280518,34.31657260442787,204000,1.2964994999999995,204000.0,6230.248454809189,0.8298527090549469,0.8094213520288467,0.8340015355944633,0.826388571381569,0.09999999999999859
-78.31352265930175,0.8510700733661651,0.41293288196623323,0.023358347304165365,79.2547801361084,79.64584968566895,34.3004057303237,205000,1.2954994999999998,205000.0,6259.402629613876,0.8606524381637574,0.8420594874620437,0.8673416073918343,0.857439692735672,0.09999999999999859
-80.82272186279297,0.8507923277020455,0.3978879986107349,0.018427532250992952,81.64417663574218,81.77694332885743,34.31740566387937,206000,1.2944995000000004,206000.0,6288.542362451553,0.715282447218895,0.6936886968612671,0.7191920835375786,0.7113562918901444,0.09999999999999859
-79.93832795715332,0.8512404437661171,0.42273604999482634,0.0208942184811458,80.65639925384521,81.14300560760498,34.20788692856906,207000,1.2934994999999998,207000.0,6317.77538728714,0.7997585375905036,0.7811565279960633,0.8056132764816284,0.7963282723426819,0.09999999999999859
-79.38455462646485,0.8508073510527611,0.41586939080059526,0.021532159727066756,80.29175318908692,80.58671327972412,34.25142800912897,208000,1.2924995000000008,208000.0,6346.971250772476,0.8094296937286853,0.7896354210376739,0.814803287088871,0.805759998857975,0.09999999999999859
-80.15073085021973,0.8507967102527618,0.37631225433945653,0.02119557006377727,80.96934967041015,81.33317719268798,34.35946632458893,209000,1.2914994999999998,209000.0,6376.075312137604,0.7650823710560799,0.746142712533474,0.7722704482078552,0.7620434461832046,0.09999999999999859
-79.65545956420898,0.8509816777706146,0.41854394938051703,0.020980461508966982,80.5276949005127,80.85300104522705,28.136038498526965,210000,1.2904994999999995,210000.0,6411.616919517517,0.7949511139392853,0.7752047849297523,0.8003577064871789,0.7917101642489434,0.09999999999999859
-79.64974505615234,0.8507385614514351,0.42922302533686163,0.021279413890093565,80.50147182464599,80.97443779754639,34.175981832537005,211000,1.2894994999999998,211000.0,6440.8772349357605,0.7920927884578705,0.7716454600095749,0.7973377556800842,0.7882521132230759,0.09999999999999859
-80.24075366210937,0.8507836210131645,0.3909442814439535,0.0200794819612056,81.12315335845948,81.34998211669922,34.16053527193867,212000,1.288499500000001,212000.0,6470.150781154633,0.7581857398152352,0.7392343744635582,0.7642985315918922,0.7553110016584397,0.09999999999999859
-80.01522521972656,0.8506558488607406,0.39548653027415276,0.02023075096029788,80.828372215271,81.23896042633056,34.32235487642843,213000,1.2874994999999998,213000.0,6499.286311864853,0.7756029142737388,0.7562352068126201,0.7820492385029792,0.7719174177050591,0.09999999999999859
-80.11589151000976,0.8503541694283485,0.42520111380517484,0.02017498429492116,80.9157465057373,81.22265355682373,34.21595617986258,214000,1.2864994999999992,214000.0,6528.512442827225,0.7526476474702358,0.7318627651333809,0.7572007368505002,0.7485660556256771,0.09999999999999859
-80.53829692077636,0.850726305603981,0.39849395510554314,0.01958553505502641,81.33535845947266,81.5994052734375,34.179020793134576,215000,1.2854994999999996,215000.0,6557.770156621933,0.7426824097633362,0.7227522267699241,0.74856870418787,0.7388878214359283,0.09999999999999859
-80.34701322937012,0.850445371389389,0.3836790796816349,0.020485049756243826,81.27119087982177,81.40288143157959,34.15137675522219,216000,1.2844995000000006,216000.0,6587.051553726196,0.7501742252111435,0.7301375820934772,0.7557774844169617,0.7466485215425491,0.09999999999999859
-80.55738673400879,0.8505791279673577,0.39072918786108496,0.02046781753562391,81.37586055755615,81.70332115936279,33.68902531589325,217000,1.2834995000000005,217000.0,6616.734811306,0.7513402480781078,0.732070975124836,0.7579001563787461,0.7483099400699139,0.09999999999999859
-80.0105294342041,0.8513977837562561,0.42625709959864616,0.021675995069555937,80.87328533935546,81.16939456939697,33.98677339403857,218000,1.2824994999999997,218000.0,6646.158022642136,0.785891097009182,0.7661684395074845,0.7919749960303306,0.7821206344366074,0.09999999999999859
-79.58883512878418,0.8509448646306992,0.40515594771504404,0.02027412321511656,80.5966328201294,80.70307592773437,33.92774522339817,219000,1.2814994999999993,219000.0,6675.632425069809,0.7951411538124085,0.7755356187820435,0.8018639761805534,0.7915692712664604,0.09999999999999859
-80.47399839782715,0.8500349929332733,0.39366975401341914,0.02019424978364259,81.29812107086181,81.51374788665771,28.2922819075276,220000,1.2804994999999995,220000.0,6710.977754354477,0.7443662392497062,0.7243321329057216,0.7507524146735668,0.7405585645735264,0.09999999999999859
-81.28322584533691,0.850768887937069,0.35901957324147227,0.01826752930600196,82.10014421844483,82.29711742401123,34.38192517284395,221000,1.279499500000001,221000.0,6740.0628044605255,0.7002605908811093,0.6794795858860015,0.7060335019230842,0.6963038624227047,0.09999999999999859
-80.09275674438477,0.8509228871464729,0.45872058208286765,0.021387875655665994,81.00692463684082,81.2353087234497,34.16535640400253,222000,1.2784995000000003,222000.0,6769.332220077515,0.7756221114993095,0.756543889284134,0.7825729610323906,0.7724305430352688,0.09999999999999859
-80.60979949951172,0.8508801975250244,0.3906225549727678,0.020535774941556156,81.48442591094971,81.6254355392456,34.32565982656208,223000,1.2774994999999987,223000.0,6798.464945077896,0.7443871946334839,0.7252811416387558,0.7516800216138363,0.7410416778326034,0.09999999999999859
-80.40715545654297,0.8509462587237359,0.3847858066409826,0.02029764037858695,81.2456024017334,81.514465675354,34.29805218519344,224000,1.2764995000000001,224000.0,6827.621120214462,0.7432188658118248,0.7250545600354672,0.7505540988445282,0.7399041125178337,0.09999999999999859
-80.5616276550293,0.8510815220475196,0.3862665158957243,0.019703589904122056,81.40925926208496,81.68844184875488,34.22169063051669,225000,1.2754995000000005,225000.0,6856.842354059219,0.7467047336101532,0.7277362287342548,0.7539921548068523,0.7430217519998551,0.09999999999999859
-80.7415672302246,0.8510979086160659,0.3646912572383881,0.01943869572225958,81.65699378204346,81.7940869216919,34.22235546088583,226000,1.2744995,226000.0,6886.063019990921,0.7362737650275231,0.7175635266304016,0.7429237933158874,0.7330013099908829,0.09999999999999859
-80.04757720947265,0.850310990691185,0.39035745157301427,0.02068688398320228,80.92359477996825,81.12992892456055,34.23551916993389,227000,1.2734995000000005,227000.0,6915.2724504470825,0.7681744819283486,0.7499264924526214,0.774938449382782,0.7644333356022834,0.09999999999999859
-80.0465556640625,0.8507805714011192,0.39309850108623506,0.02033206079993397,81.05960987091065,81.17226619720459,34.226373473607445,228000,1.2724994999999997,228000.0,6944.4896857738495,0.7655323303937912,0.7472985094189644,0.7726611864566802,0.7623344274759293,0.09999999999999859
-79.99429595947265,0.8511238293051719,0.4248566514700651,0.020211638591252266,80.81477167510987,81.12706278991699,34.23467638924128,229000,1.2714994999999991,229000.0,6973.699835062027,0.7691249308288097,0.7504876093268394,0.776922401368618,0.7659161711931228,0.09999999999999859
-80.04478707885742,0.8508770635128021,0.3911421918421984,0.020118689852766693,80.98473703765869,81.25106784057617,28.119785223051203,230000,1.2704995000000008,230000.0,7009.261984825134,0.7776297405958176,0.7594892229437828,0.7856861051917076,0.7748143084645271,0.09999999999999859
-80.10750888061523,0.8509676401615143,0.38971733444929124,0.01986409777868539,80.93937392425538,81.17900595855713,34.11995469029225,231000,1.269499500000001,231000.0,7038.570347547531,0.7663911403119564,0.7465597037374974,0.7729857875108719,0.7630456686019897,0.09999999999999859
-80.72077743530274,0.8507570860981941,0.4140887751728296,0.018626866687089204,81.56115676879882,81.71178452301025,34.14864075056822,232000,1.268499499999999,232000.0,7067.854090690613,0.7284540605545043,0.7104213151335717,0.7364225717186927,0.725877199113369,0.09999999999999859
-79.92463386535644,0.8507106804251671,0.3895124279558659,0.020080275668762623,80.79502076721191,81.06387811279296,34.64548884330913,233000,1.2674995,233000.0,7096.717878103256,0.7737004163861275,0.7554796442985535,0.7819200872778892,0.770798756480217,0.09999999999999859
-81.20865148925782,0.8505506895780564,0.41436576236784456,0.019264336249791087,82.03224320983887,82.16196306610108,35.66677446140973,234000,1.2664995000000003,234000.0,7124.755177259445,0.7000823762714863,0.68059283131361,0.7076809142827988,0.6969154265522957,0.09999999999999859
-79.88821810913086,0.8507688654065132,0.3736766873151064,0.020720774055458604,80.7959052810669,80.95231901550292,34.197398630835075,235000,1.2654995000000002,235000.0,7153.997168302536,0.7813028112053871,0.7613908647894859,0.7884364846944809,0.7779913184046745,0.09999999999999859
-79.65652751159668,0.8510533974170685,0.4401540316790342,0.020483864298090338,80.59642182159423,80.71493202209473,34.153734686521204,236000,1.2644995000000003,236000.0,7183.276544094086,0.7968951300680638,0.7786524622142315,0.8055210993289947,0.7945470113158226,0.09999999999999859
-80.07897611999512,0.850796543955803,0.41400929674506187,0.019361854661256075,80.96217321777344,81.16373966217041,34.138168740453516,237000,1.2634994999999996,237000.0,7212.569269895554,0.7567058622837066,0.7369248810410499,0.764427767932415,0.7533423863649368,0.09999999999999859
-79.6822377166748,0.8509455597400666,0.40080636790394786,0.021274506518617273,80.61359296417237,80.82281994628906,34.1560439894052,238000,1.2624994999999999,238000.0,7241.846666097641,0.7942465925216675,0.7741411523520947,0.8015564762353897,0.790751375168562,0.09999999999999859
-80.14775202941894,0.8509552593231201,0.3883291168808937,0.01909820566698909,80.99034442138672,81.21206813812256,34.30865368073271,239000,1.2614995,239000.0,7270.993831396103,0.7598679316937923,0.7407022921144962,0.7679582316875457,0.7563355792760849,0.09999999999999859
-80.48918946838378,0.8511271417737007,0.3847010236084461,0.019470272890292108,81.42780463409424,81.45839793395996,29.162962518074476,240000,1.2604995,240000.0,7305.2839012146,0.7355398979187012,0.7159288700222969,0.7425175243616104,0.7325078033804894,0.09999999999999859
-80.95447253417969,0.8509165807366371,0.3925288289785385,0.018924111026339233,81.75492035675049,81.93447840118408,35.529465832868446,241000,1.2594995,241000.0,7333.429553985596,0.7285777904689312,0.7089359763562679,0.735895641952753,0.7250570099651813,0.09999999999999859
-79.39973767089843,0.8513102009892464,0.41801148903369906,0.020553957676514984,80.33827199554443,80.60491976928711,34.82422319277769,242000,1.2584994999999997,242000.0,7362.145198583603,0.8134584831595421,0.793857435643673,0.8211600525975228,0.810398084461689,0.09999999999999859
-80.73800912475586,0.8505511261820793,0.39247512905299664,0.018608876078389586,81.5957512588501,81.80395616149903,35.54476540417884,243000,1.2574995000000002,243000.0,7390.278736591339,0.7240943684279919,0.7046059588193894,0.7318809471726417,0.7205861564874649,0.09999999999999859
-80.59123091125488,0.8502781985402107,0.41052269169688227,0.019711317747831344,81.40974024200439,81.70451653289796,35.26878025651141,244000,1.2564995,244000.0,7418.632425546646,0.7506229913830758,0.7311089531183242,0.7594165138602257,0.7478239042758942,0.09999999999999859
-80.18777293395996,0.850885449051857,0.38445272862911223,0.01945034536998719,81.05194303131104,81.27946099090576,34.871700731038786,245000,1.2554995,245000.0,7447.308974027634,0.7604966722726821,0.7419791507422924,0.7692613647580147,0.7570963044762611,0.09999999999999859
-80.33452391052246,0.8503664309978485,0.40304405777156355,0.019366347464732824,81.18289828491211,81.29780193328857,35.669839538517095,246000,1.2544994999999999,246000.0,7475.343863964081,0.7372923964858055,0.717923347890377,0.745774101793766,0.7340553244948387,0.09999999999999859
-80.6704208984375,0.8508148546814919,0.39056035488843915,0.018813059446401895,81.48701843261719,81.71059993743897,35.52785784425096,247000,1.2534995000000002,247000.0,7503.490791082382,0.7311916192770004,0.7116457767486573,0.7395421641767025,0.727849973410368,0.09999999999999859
-80.49722528076173,0.850632366001606,0.38558334308862685,0.01955739975720644,81.37150415039062,81.60918357086182,35.399188494021395,248000,1.2524994999999994,248000.0,7531.740026712418,0.7481851816177368,0.7291706495285034,0.7566568371355533,0.7448692659139633,0.09999999999999859
-80.27702542114258,0.8508429245352745,0.43105478228628635,0.019114016415551306,81.2142668914795,81.3208486404419,35.14738575363338,249000,1.2514995000000002,249000.0,7560.191645860672,0.7567863403558731,0.7371842310428619,0.7646770077943802,0.7532522574067115,0.09999999999999859
-80.18767404174805,0.85086788469553,0.40239023718237876,0.019689059593714774,81.10014922332763,81.21234915924072,28.835133160776437,250000,1.2504995000000003,250000.0,7594.871562242508,0.7490535509586335,0.7302293246686459,0.7583217236101627,0.7463027364909649,0.09999999999999859
-80.11794700622559,0.850826564848423,0.3948628735691309,0.019713024478405713,81.0111693725586,81.24672580718995,35.39113388602616,251000,1.2494994999999995,251000.0,7623.127227544785,0.7734255316853523,0.7542245302200318,0.7816041539907456,0.77022739559412,0.09999999999999859
-79.61616717529297,0.8507658793330193,0.3906411029547453,0.020034501892514527,80.52725910186767,80.69890353393555,35.35098101596901,252000,1.2484995000000005,252000.0,7651.414985895157,0.7747951063513756,0.7568403439521789,0.7840995228886605,0.77219499579072,0.09999999999999859
-80.57684674072266,0.8505806940793991,0.40995420691370965,0.019186228924430906,81.38473217010498,81.57952362060547,35.23597859232572,253000,1.2474995000000004,253000.0,7679.7950694561005,0.7353636493980884,0.7174508856832981,0.7447046331167221,0.7323126101791859,0.09999999999999859
-80.77305676269532,0.8508618248105049,0.41721882800757887,0.018656441604718566,81.53524730682373,81.7333342590332,35.44888987093584,254000,1.2464994999999992,254000.0,7708.004698038101,0.7225145402550698,0.703635225892067,0.7314320318102837,0.7196636920571328,0.09999999999999859
-79.73268832397461,0.8506494872570037,0.3759188041239977,0.020236129983328282,80.72477224731445,80.9313009262085,35.38633082427504,255000,1.2454995000000006,255000.0,7736.2641978263855,0.7925186819434166,0.773251607477665,0.8024234951138497,0.7894087151288987,0.09999999999999859
-80.47854747009278,0.8507087354660035,0.39601629176735875,0.019079560838639736,81.35376923370362,81.48224431610107,35.26290241364471,256000,1.2444995000000008,256000.0,7764.622612953186,0.7410813577473163,0.7218192892670632,0.7497102244496345,0.7370500516295433,0.09999999999999859
-80.41826182556153,0.8509550782442092,0.3821999242901802,0.019473288276232778,81.2593051223755,81.40910682678222,35.18590767781309,257000,1.2434994999999998,257000.0,7793.043081998825,0.7450567447543144,0.7267732496857643,0.7545679178237915,0.7419808872044087,0.09999999999999859
-80.4567671661377,0.850955195248127,0.4167667529731989,0.02042536890693009,81.24359183502197,81.59421414947509,35.5914931736832,258000,1.2424994999999999,258000.0,7821.139684438705,0.7496563403606414,0.7314128019213676,0.7594410850405693,0.7469467961490154,0.09999999999999859
-80.44986570739746,0.8509032571315766,0.4005645430237055,0.019485331923700867,81.31587243652343,81.53719829559326,35.14862605356006,259000,1.2414995000000002,259000.0,7849.590299129486,0.7482102039456368,0.729177395761013,0.7566276579797268,0.7444438202381134,0.09999999999999859
-80.59473233032226,0.8507819753289223,0.4113154891133308,0.018427514769136906,81.47847225952148,81.6030359954834,28.852663573372595,260000,1.2404994999999999,260000.0,7884.249144792557,0.7268346021473407,0.7075543293952942,0.7358820866644382,0.7234422401487828,0.09999999999999859
-80.43278778076171,0.8508290034532547,0.3962878704816103,0.019508427859283983,81.33971543121338,81.53340461730957,35.24738801456333,261000,1.2394995000000009,261000.0,7912.620042324066,0.7482202872633934,0.7300372049808502,0.757722757101059,0.7448871555328369,0.09999999999999859
-80.25404626464844,0.8509299615025521,0.39814930579066277,0.01910566163342446,81.2326224746704,81.33925593566894,35.44923202024662,262000,1.2384994999999999,262000.0,7940.82939863205,0.7671186386942863,0.7487365961968899,0.776455972313881,0.7636682687699795,0.09999999999999859
-80.28568186950683,0.8507957515716553,0.4027640470713377,0.019273135609924795,81.15458463287354,81.25956176757812,35.17641273276067,263000,1.2374994999999995,263000.0,7969.2575397491455,0.7741384675502777,0.7561294435858726,0.7841166684031486,0.7713786317110062,0.09999999999999859
-81.23337083435058,0.8508803360462188,0.3900757633596659,0.01741354139521718,82.11704341125488,82.22151920318603,35.409668016295775,264000,1.2364995,264000.0,7997.498414993286,0.697704625070095,0.6788070269227028,0.7073685174882411,0.6935314083993435,0.09999999999999859
-80.27200492858887,0.8506032966971397,0.36971061177551745,0.01936926534678787,81.20148680877685,81.44668106079102,35.5663211960767,265000,1.2354995000000004,265000.0,8025.614902019501,0.774907717704773,0.7563537064790725,0.7844944950938225,0.7712011883258819,0.09999999999999859
-80.37004696655274,0.8510435366630554,0.37918198058009145,0.019913997892290355,81.25565406036377,81.42648499298096,35.227935350656416,266000,1.2344995,266000.0,8054.001465559006,0.7676100605428219,0.7500102699398995,0.7780326699018478,0.7647836894392968,0.09999999999999859
-79.74323791503906,0.850719616830349,0.3845045965015888,0.01965967411454767,80.74841439056397,80.82002201843262,35.11557053789446,267000,1.2334994999999995,267000.0,8082.47886133194,0.7870448762774468,0.7684391285181046,0.7968620526790618,0.7835312899947167,0.09999999999999859
-80.83797451782226,0.8508170019388199,0.38855458703637125,0.018435871218331158,81.68806715393066,81.92534741210937,35.574370362743224,268000,1.2324994999999994,268000.0,8110.588986873627,0.7240974853336811,0.706733999967575,0.734387548148632,0.7214222578704357,0.09999999999999859
-80.7013254699707,0.8503767228126526,0.3787703720331192,0.017823115137405695,81.53647156524659,81.7491492767334,35.07066389632405,269000,1.2314995000000004,269000.0,8139.10284781456,0.7346517644524574,0.716836490213871,0.7444217732548714,0.7312646152973175,0.09999999999999859
-81.25405741882324,0.8514518014788628,0.4124967890828848,0.018307680134661497,82.02316793060302,82.19434381866455,28.775997579314048,270000,1.2304995000000005,270000.0,8173.8540325164795,0.6928091686367989,0.6750828692018985,0.7030806857943535,0.6895673142671586,0.09999999999999859
-80.64661553955078,0.850857925772667,0.39048991821706297,0.01817077779956162,81.53419010162354,81.71278440856933,35.067989428327685,271000,1.2294995,271000.0,8202.370067358017,0.7408362461924553,0.7220941713452339,0.7504252175092697,0.737288964509964,0.09999999999999859
-81.22252613830567,0.8508777405023575,0.36961982737481597,0.017417420397512616,82.07713008880616,82.19018068695068,35.327837734307806,272000,1.2284994999999994,272000.0,8230.676357269287,0.7097840450108052,0.6910684695839882,0.7188440628349781,0.7059219966232777,0.09999999999999859
-80.58309051513672,0.8508548599481582,0.3892549890130758,0.018259269416332245,81.56863136291504,81.59675088500977,35.0872164910145,273000,1.2274994999999993,273000.0,8259.17676615715,0.7467209727168084,0.729392667979002,0.756991189301014,0.743258202791214,0.09999999999999859
-81.3566650390625,0.8508984912633896,0.39605354964733125,0.01772540116775781,82.1894730834961,82.23256994628906,35.12836749863858,274000,1.2264995000000007,274000.0,8287.643788576126,0.701807851433754,0.683723484903574,0.7124022644758224,0.6984667772352695,0.09999999999999859
-80.78742106628418,0.8505123655200004,0.38159559907019136,0.0180548696462065,81.72954981231689,81.92362987518311,35.619411229858976,275000,1.2254995000000009,275000.0,8315.718368768692,0.7306362488269806,0.7129655277729035,0.7412403889000416,0.7279194393754005,0.09999999999999859
-81.4661044921875,0.8510570729970932,0.40714402206242084,0.01831897448655218,82.37745348358155,82.38963967895508,35.31247069873019,276000,1.2244994999999985,276000.0,8344.03697681427,0.6981273048520088,0.6810005306601524,0.708945347070694,0.6945081312656403,0.09999999999999859
-80.83158633422852,0.8509901353120803,0.3640049657672644,0.01762139993160963,81.86651198577881,81.78855318450928,35.11371964460425,277000,1.2234994999999997,277000.0,8372.515874385834,0.7394482303857803,0.7215079420208931,0.7505668321251869,0.7364578679502011,0.09999999999999859
-80.9598621673584,0.8511554229259491,0.4238872461169958,0.0179296647766605,81.86816456604004,81.9496275100708,35.282005521393486,278000,1.2224995000000003,278000.0,8400.858934879303,0.7340068329572678,0.7162202018797398,0.7446341946423054,0.7302851918935775,0.09999999999999859
-80.88981025695801,0.8508953776359558,0.3762051492333412,0.017891080072149634,81.80041013336182,81.872042137146,35.418255949926504,279000,1.2214995000000004,279000.0,8429.092962503433,0.7303584728240967,0.7107990196347237,0.7399338682889939,0.7267925835847855,0.09999999999999859
-80.42921774291992,0.8502274399995804,0.3889496081769466,0.019169702377170323,81.3500336227417,81.54731230926514,28.73361955579934,280000,1.2204995000000005,280000.0,8463.895400762558,0.7641823019385338,0.7456180112063885,0.7746076464951038,0.7610350475609302,0.09999999999999859
-81.12989419555664,0.8509172592759132,0.38217704626917837,0.017314794995822013,82.0650270614624,82.03179891967774,35.2578910565914,281000,1.2194994999999997,281000.0,8492.257846593857,0.7140040987730026,0.6964301010966301,0.7251130745708942,0.7103265472650528,0.09999999999999859
-80.65841061401368,0.8510015862584114,0.37032762710750106,0.017921025871299207,81.59799645233154,81.7775019454956,35.45298201405491,282000,1.2184994999999994,282000.0,8520.464219093323,0.7449954313039779,0.7259681488275528,0.7547905414104462,0.7415050681233406,0.09999999999999859
-80.56669276428222,0.8506909322738647,0.36191839216649535,0.018456226125359534,81.50717523193359,81.52109698486328,35.345513887660765,283000,1.2174995000000008,283000.0,8548.756352901459,0.7469875291883945,0.7285245840251445,0.7580689861476422,0.7439955644607544,0.09999999999999859
-81.115594039917,0.8509173184037209,0.3702344017624855,0.01771136518381536,82.04560659790039,82.15404439544677,35.178327480334964,284000,1.2164995000000012,284000.0,8577.182946443558,0.7166435514688492,0.6978021714091301,0.727335131585598,0.712984167188406,0.09999999999999859
-80.63803762817383,0.8508292914628982,0.35752726438641547,0.018760362384840846,81.62291230773926,81.66295558929443,35.238607099836166,285000,1.215499499999999,285000.0,8605.560913085938,0.7502701175808907,0.7331579130291939,0.7619867868423462,0.7474478645920754,0.09999999999999859
-81.10573405456543,0.8508330904245377,0.3980783007442951,0.017362551600672304,82.03745518493652,82.0717508468628,35.49283694509112,286000,1.2144994999999992,286000.0,8633.735612392426,0.7020598120093345,0.6847750302553177,0.7140981095433235,0.6990164644420147,0.09999999999999859
-82.22122409057617,0.8505829601883889,0.3698867006599903,0.016167897378094494,82.99508959197998,82.97910092926026,35.02133274150402,287000,1.2134995,287000.0,8662.289637804031,0.6535758617520332,0.6355549024939537,0.6648751165568828,0.6495398597419262,0.09999999999999859
-80.65065960693359,0.8505737069249153,0.39220592464506626,0.01840253261756152,81.68844721984863,81.64937153625489,35.23568376449645,288000,1.2124995000000007,288000.0,8690.669958591461,0.7440227276384831,0.7259288930296898,0.7548632375597953,0.7402282147407532,0.09999999999999859
-81.04253587341309,0.8508435887098312,0.36517699556052685,0.017855927572585643,82.02297335052491,81.90598597717285,35.63413989477782,289000,1.2114995000000006,289000.0,8718.732934951782,0.7323509996831417,0.7133359146416187,0.7429323313236237,0.7285601117610931,0.09999999999999859
-81.21794502258301,0.8509081587791443,0.4089295444041491,0.01833808382600546,82.17096838378906,82.15186380767823,28.13530337197496,290000,1.210499499999999,290000.0,8754.275470256805,0.7130760592520237,0.6956350785195827,0.7245476431846619,0.7100766188204288,0.09999999999999859
-81.37274206542969,0.8510815136432648,0.3690712127387524,0.017343404181301595,82.24132213592529,82.29200625610352,35.306435629029224,291000,1.2094994999999997,291000.0,8782.598918914795,0.7034404739141464,0.6859993191957474,0.7153571740984916,0.7001917532682419,0.09999999999999859
-80.77917695617676,0.8510730663537979,0.38979387490451334,0.018062493316829204,81.69383972930908,81.74799491882324,35.45818807470659,292000,1.2084995000000003,292000.0,8810.80115032196,0.7390551164746284,0.7218717104494572,0.7507477898597718,0.7359627281427383,0.09999999999999859
-81.2056288909912,0.8510924793481827,0.36366685111820696,0.017649034186266364,82.11081541442871,82.1393133392334,35.323334146311886,293000,1.2074995000000008,293000.0,8839.111048936844,0.7018543077409267,0.6833006203770637,0.7131686832308769,0.6982598447501659,0.09999999999999859
-81.19207933044433,0.8507390365600586,0.40080567683279517,0.018032458061352372,82.0421906967163,82.07019686126709,34.22692397126436,294000,1.2064994999999996,294000.0,8868.327814817429,0.7028159217536449,0.6847251616418362,0.7136775562763215,0.6993684728145599,0.09999999999999859
-81.49886027526856,0.8505980010032654,0.35342313459515573,0.018374839017167688,82.47628900146485,82.46577772521972,34.24791166162041,295000,1.2054994999999988,295000.0,8897.526675701141,0.700188461959362,0.6826791509091854,0.7126012259125709,0.6973749649226666,0.09999999999999859
-81.13885588073731,0.8508401330113411,0.4109581625759602,0.018348754360340537,82.021935256958,82.04844843292236,34.28629462776791,296000,1.2044994999999998,296000.0,8926.69284915924,0.7211913856565952,0.7025136916935444,0.7317165527641774,0.7168666661679745,0.09999999999999859
-80.786796875,0.8507961890101433,0.39699608033895495,0.01861399221327156,81.80828484344482,81.76416703033448,34.216952403059665,297000,1.2034995000000008,297000.0,8955.918128967285,0.7467299970388412,0.7292193515002727,0.7585084331631661,0.7432832060456276,0.09999999999999859
-80.68453965759278,0.8509038209915161,0.37959892308712007,0.018265038354322315,81.60079822540283,81.79745663452148,34.42440501269023,298000,1.2024995000000003,298000.0,8984.967288017273,0.737683816343546,0.7179972869455814,0.7486186272501946,0.7340670924186706,0.09999999999999859
-81.09497352600097,0.8507448427677154,0.3823148570209742,0.01787954874476418,81.9784751739502,81.96477396392822,35.56889666580094,299000,1.2014994999999995,299000.0,9013.081739664078,0.7053062155246734,0.6875043201744556,0.7175801773667335,0.702397727817297,0.09999999999999859
-81.1606725769043,0.8511779389977455,0.39738659754395483,0.018230020540766417,81.97128245544434,82.07042841339111,29.063047073159655,300000,1.2004994999999996,300000.0,9047.489695072174,0.7179330120682716,0.6996439825296402,0.7293959467411041,0.7139591642022133,0.09999999999999859
-81.2466526184082,0.8510940960645675,0.3807505457997322,0.017842426332645118,82.13992009735108,82.17898219299316,34.20799629399454,301000,1.1994994999999997,301000.0,9076.722626924515,0.7048023264408112,0.687813442915678,0.7178299361467362,0.7023868689537048,0.09999999999999859
-80.84106062316894,0.850773418188095,0.4010430884510279,0.01804168964922428,81.68107975769043,81.70714169311523,33.50630488391694,302000,1.1984995000000007,302000.0,9106.567756175995,0.7319915828108787,0.7153759979009628,0.7451253870129585,0.7291181422770023,0.09999999999999859
-81.07474310302734,0.8507864016890526,0.3790966580957174,0.018757218929007648,81.99630564117432,81.98687491607666,34.059891691872735,303000,1.1974995000000006,303000.0,9135.927802801132,0.7158468552231788,0.6983690032660961,0.7281807904541493,0.7128336686491966,0.09999999999999859
-81.33636178588867,0.850717634320259,0.4009337641745806,0.018277513217180966,82.13164733886718,82.28164176940918,33.45312283044526,304000,1.1964994999999983,304000.0,9165.820378541946,0.7017633376717567,0.6835793949663639,0.7130318135917186,0.6980121212005616,0.09999999999999859
-80.81107875061035,0.850274287045002,0.40753078839182855,0.0184025556826964,81.80752848052978,81.76839794158936,34.01979613967052,305000,1.1954995000000004,305000.0,9195.215029239655,0.7447260698676109,0.7272871979475022,0.7573636054992676,0.7416877101659775,0.09999999999999859
-81.08582997131347,0.8509038360714912,0.36284952448308466,0.017888697674497963,82.06307875061034,82.00934084320069,34.16587349179985,306000,1.194499500000001,306000.0,9224.484002113342,0.7166128680706024,0.6984636192321777,0.7287378682792187,0.7129588506817818,0.09999999999999859
-81.2935779876709,0.8504843483567238,0.3752087346613407,0.01775093375891447,82.22224103546142,82.18197164154053,34.35933966332205,307000,1.1934995,307000.0,9253.588170528412,0.7039131762981414,0.6859335693717002,0.716484018087387,0.701444622784853,0.09999999999999859
-80.80488549804687,0.8507504321932793,0.3926741533279419,0.01892380200047046,81.7392038345337,81.82955432891846,34.35195608129986,308000,1.1924994999999998,308000.0,9282.698595046997,0.7408435459733009,0.7227693713903427,0.7526056119203568,0.737335791349411,0.09999999999999859
-81.23695350646973,0.8513756378293037,0.36360732387006284,0.01732958000060171,82.1867276763916,82.16460887145996,34.31040158714925,309000,1.1914995,309000.0,9311.844275712967,0.7020162044763565,0.6840573204159737,0.7149493771791459,0.6990691484212875,0.09999999999999859
-81.10395089721679,0.8512930300235748,0.38438611625134944,0.018017275872640313,82.07233375549316,82.09445259094238,28.383661799765115,310000,1.1904995,310000.0,9347.075811862946,0.7191526346206665,0.7019103027582169,0.73167690294981,0.7166937094330788,0.09999999999999859
-81.07077290344239,0.8510254245996475,0.38872253923118116,0.017686215405352413,82.05820288085937,82.03959860229492,34.44637768551607,311000,1.1894995000000004,311000.0,9376.106441259384,0.7209168580174447,0.704105841010809,0.733968089401722,0.7181871384382248,0.09999999999999859
-81.04196954345703,0.8505722492337227,0.3775452849417925,0.017846505669876934,81.97236790466309,82.01374494934082,34.36906208194867,312000,1.1884995000000003,312000.0,9405.202377319336,0.7215282919406891,0.7046513148546218,0.7347639663219452,0.7186643747091294,0.09999999999999859
-80.82608555603028,0.8506339936256408,0.40324262019991874,0.017415259463712574,81.81949143218993,81.82793606567382,34.325254749157125,313000,1.187499499999999,313000.0,9434.335446357727,0.7342407889962196,0.717544326633215,0.747469756603241,0.7316057824492455,0.09999999999999859
-81.06358517456054,0.8513513728380203,0.37985414719581606,0.01729404642805457,81.88576096343994,81.92743168640136,34.408420930216494,314000,1.1864995,314000.0,9463.398099660873,0.7170549769699573,0.6998602467775344,0.7306978066861629,0.7140665464997291,0.09999999999999859
-80.97921478271485,0.8507437613010407,0.36105685073137284,0.01766831518895924,81.95151918029785,81.97832232666016,34.35396895915502,315000,1.1854995000000006,315000.0,9492.506818532944,0.7157772840261459,0.6981051420271397,0.7291421351730824,0.7128103641271591,0.09999999999999859
-81.09371131896972,0.8508215546607971,0.39075330314040185,0.018144081304781137,82.08510837554931,81.94503639984131,34.28999603175612,316000,1.1844995,316000.0,9521.669843435287,0.7110278431773186,0.6930039040148258,0.7236459760963917,0.707892025500536,0.09999999999999859
-80.50811724853516,0.8509770141839981,0.37133916142582896,0.018382722053676845,81.46503624725342,81.4810765914917,34.290916671614944,317000,1.1834994999999997,317000.0,9550.832085847855,0.7533714304566383,0.7360839408636093,0.7661711626052856,0.7499729085564614,0.09999999999999859
-80.9404326019287,0.8507568863630295,0.39244026845693586,0.018004397136159242,81.86663795471192,81.84440525817871,34.341204095968436,318000,1.1824994999999991,318000.0,9579.951624393463,0.7192800706624984,0.7018257417082786,0.7311216824650765,0.7160033712387085,0.09999999999999859
-81.88589002990723,0.8511269001960754,0.38271014189720154,0.016755847154185176,82.76364086914063,82.6262088470459,34.24699332947297,319000,1.1814995000000006,319000.0,9609.151268720627,0.6599739415049553,0.6434488892257214,0.6734878647625446,0.65705622112751,0.09999999999999859
-80.96382368469239,0.8508422113060952,0.38185489831864833,0.017959412296302615,81.93681239318848,81.92038191223145,28.334071920362305,320000,1.1804995000000003,320000.0,9644.444466590881,0.7194097779989242,0.7024463118612766,0.7325609955787659,0.7161713398694992,0.09999999999999859
-81.31726167297363,0.8512083089351654,0.3631449094414711,0.016780801530927418,82.190435005188,82.21943852233886,34.42216380471442,321000,1.1794995,321000.0,9673.495517015457,0.6954132875800133,0.6775843403637409,0.7088954937160015,0.6927604676187038,0.09999999999999859
-80.64733325195313,0.8509756799936294,0.4002068825364113,0.01880360443238169,81.59042533874512,81.66584977722168,34.395086152912995,322000,1.1784994999999996,322000.0,9702.569437742233,0.7383194056749344,0.7215094129443169,0.7521067967414856,0.736108064353466,0.09999999999999859
-80.51300387573242,0.8507483770251274,0.3937644536793232,0.018254841783083977,81.44783432769775,81.48714615631104,34.32058468938436,323000,1.1774994999999995,323000.0,9731.706471204758,0.7482236883044243,0.7313380862474441,0.7611912870407105,0.7450177109241486,0.09999999999999859
-81.40119102478027,0.8504994524121284,0.365396124497056,0.01735112948063761,82.2711784439087,82.26822032928467,34.32850715562043,324000,1.1764995000000007,324000.0,9760.836780309677,0.6781629157960415,0.6601173804998398,0.6908723121285438,0.6738441597223281,0.09999999999999859
-80.88158390808105,0.8509838210344315,0.4016399336755276,0.018396686982363464,81.72136142730713,81.83160415649414,34.33832204991048,325000,1.1754995000000001,325000.0,9789.95876288414,0.7268641931414604,0.7102872751355171,0.7409378684163094,0.7243706087172032,0.09999999999999859
-80.34145892333984,0.8512318345308304,0.36166042383015157,0.018488147834315898,81.36948020172119,81.42899659729004,34.370446056475075,326000,1.174499499999999,326000.0,9819.053526878357,0.7577201115190982,0.7399503799974918,0.77093375903368,0.7547518399059773,0.09999999999999859
-81.28801190185547,0.8508775301575661,0.388498599678278,0.017624699872918426,82.18484780883789,82.17785182189941,34.19379106142072,327000,1.1734995,327000.0,9848.298602819443,0.689852399289608,0.6728090167045593,0.7037010950446129,0.6873886062502861,0.09999999999999859
-81.6608854675293,0.8507830435037613,0.37961508221924306,0.01712448257021606,82.4509174118042,82.48814109039307,34.30373479092538,328000,1.172499500000001,328000.0,9877.449948310852,0.6676965654492378,0.6502158840000629,0.6809847349524498,0.663860542267561,0.09999999999999859
-80.82439570617676,0.8511295088529587,0.4188395428359509,0.017764043999370187,81.71811823272705,81.76775115203857,34.34483833961506,329000,1.1714994999999997,329000.0,9906.566405773163,0.7208307952582836,0.7036412970423699,0.7339226053953171,0.7175028930008411,0.09999999999999859
-81.15848359680176,0.8505795840620994,0.3549758741557598,0.016949348747730256,82.10114768218995,82.15311833953858,28.37248631919898,330000,1.1704995,330000.0,9941.811819791794,0.6966617714762687,0.6788791841864585,0.7091015782952309,0.6930219478905201,0.09999999999999859
-81.22359085083008,0.8504357995986939,0.36429586812853815,0.017105885243043302,82.06448612213134,82.12969190216064,34.405233232528005,331000,1.1694995,331000.0,9970.877165794373,0.6944467993974686,0.6776688575744629,0.7078623176217079,0.6912444930672645,0.09999999999999859
-81.10300482177735,0.8514197487831116,0.3847828380614519,0.0174740530224517,81.94205899810791,82.00967911529541,34.41660654043728,332000,1.1684994999999996,332000.0,9999.93290758133,0.6945026207566262,0.6777157137095928,0.7079850185513497,0.6914111968576908,0.09999999999999859
-81.08856571960449,0.85088146173954,0.36923580308258536,0.016830412163399158,81.9489482345581,81.96289937591553,34.362344038707974,333000,1.167499500000001,333000.0,10029.034531593323,0.7045421388447285,0.6878692545294761,0.718677410364151,0.7016265028119087,0.09999999999999859
-81.34290589904785,0.8508070108294487,0.3929211540520191,0.017968245008029043,82.27399162292481,82.23927744293213,34.07789878653531,334000,1.1664995000000002,334000.0,10058.379064321518,0.6817736734747887,0.6650966785252094,0.6959336099028587,0.6788084044754505,0.09999999999999859
-80.90706854248047,0.8512280715107918,0.37928336378932,0.01764796073269099,81.8725331954956,81.89970572662354,34.586157840063805,335000,1.1654994999999992,335000.0,10087.292366027832,0.7159060542285443,0.6983156615495681,0.7292262819409371,0.7121866103410721,0.09999999999999859
-80.89592208862305,0.8508301844596863,0.35453969648480416,0.018032083000056445,81.79715534210204,81.77573233032227,34.74606152239827,336000,1.1644994999999998,336000.0,10116.072606801987,0.7111024069786072,0.6952088313102722,0.7258163385689259,0.7084922800958157,0.09999999999999859
-81.00008782958984,0.8509113407135009,0.4063618495315313,0.017134268870577216,81.90655624389649,81.91759119415283,34.82929538624753,337000,1.1634995000000004,337000.0,10144.784069776535,0.7063390804827213,0.6894804258942604,0.7197679985165596,0.702940724760294,0.09999999999999859
-81.17300950622558,0.850623610675335,0.3683184956014156,0.01679230218566954,81.95345322418213,82.03072555541992,34.71962080776686,338000,1.1624995,338000.0,10173.586228132248,0.6995665241777896,0.6816597407758236,0.7127041301131248,0.6957195042967796,0.09999999999999859
-81.24444465637207,0.8508013528585434,0.3732231430113316,0.0163706493768841,82.19423362731933,82.21676071929932,34.723575049712416,339000,1.1614994999999997,339000.0,10202.385107040405,0.6873900701403618,0.669889781832695,0.7014248074293137,0.6838110492825508,0.09999999999999859
-80.319762008667,0.8506568738818169,0.38212781356275083,0.018736687739379705,81.25264794158936,81.26992371368408,28.5556343399738,340000,1.1604994999999994,340000.0,10237.404466152191,0.7487008506655694,0.731546042650938,0.763173545986414,0.7457296968102455,0.09999999999999859
-80.86364901733398,0.8505312169194221,0.3968598438799381,0.01850802714843303,81.7746508026123,81.77250531005859,34.69354716023376,341000,1.1594995000000001,341000.0,10266.2282705307,0.7104257759451866,0.6936836059987544,0.7247815455198288,0.7073470692038536,0.09999999999999859
-81.1393765258789,0.850553727209568,0.35053285127878187,0.017808236277662218,82.03302956390381,82.03767191314697,34.84670447262837,342000,1.158499500000001,342000.0,10294.925389528275,0.6919548842906952,0.6758568837344646,0.7066211186647415,0.688695223391056,0.09999999999999859
-81.52140013122559,0.8508548991084098,0.3638628692626953,0.016385143109597267,82.4305290145874,82.39602868652344,34.76850911957735,343000,1.1574994999999997,343000.0,10323.687048912048,0.6673839747607708,0.6502551758885383,0.681801865041256,0.663802640080452,0.09999999999999859
-80.19432803344726,0.8505408952236175,0.3742305290699005,0.01832782939542085,81.17325218963623,81.10412721252442,34.610716169903554,344000,1.1564994999999991,344000.0,10352.57983469963,0.7542885238826275,0.7379342487156391,0.7690945131778717,0.7507789608836174,0.09999999999999859
-80.68508897399903,0.8508827934265136,0.39466716964542864,0.01854704297054559,81.56329695129395,81.66027637481689,34.72354486563666,345000,1.1554994999999997,345000.0,10381.378738641739,0.730242792725563,0.713002600222826,0.7436680962443352,0.7265630230009555,0.09999999999999859
-81.7006615447998,0.850538801074028,0.3598505719602108,0.016521254423074425,82.5900940246582,82.51465593719482,34.679936891389104,346000,1.1544995000000007,346000.0,10410.213855028152,0.66483620429039,0.6478507268726825,0.6790097635090351,0.6609512625038624,0.09999999999999859
-81.42111473083496,0.8512410621643066,0.3677934884727001,0.017423097397200764,82.24733868408204,82.25406213378906,34.632346324652254,347000,1.1534995000000006,347000.0,10439.08859539032,0.6825467894673347,0.6659633579254151,0.6973268886208535,0.6791708942949772,0.09999999999999859
-80.35504675292968,0.8507312775850296,0.4051539673060179,0.018221619553864,81.30578033447266,81.29744195556641,34.791474320975055,348000,1.1524994999999991,348000.0,10467.831269979477,0.7402290845811367,0.7230803833305836,0.7543240854442119,0.7359393020570278,0.09999999999999859
-81.35639427185059,0.850619050681591,0.3870220889300108,0.01678645372763276,82.17326964569092,82.18356867980957,34.856997564882484,349000,1.1514994999999997,349000.0,10496.519914388657,0.675501805126667,0.6593242830336093,0.690366014778614,0.6722482968270779,0.09999999999999859
-80.89818139648438,0.8508666069507599,0.38557915240526197,0.01833723631873727,81.86821327972412,81.82335482025147,28.58539212410259,350000,1.1504995000000005,350000.0,10531.502818346024,0.7165836751461029,0.6995562795996666,0.7302948887348175,0.7127311711609363,0.09999999999999859
-80.7639077758789,0.850678118288517,0.3613420017212629,0.017442528495565057,81.63203165435792,81.73273706054688,34.772578574466245,351000,1.1494995000000001,351000.0,10560.261111974716,0.7139656527936459,0.6979046778380871,0.7288878704309464,0.7112389450371266,0.09999999999999859
-80.79756520080566,0.8505728724002838,0.3849363861680031,0.01764149545133114,81.74141870880126,81.71173271942139,34.78156628334586,352000,1.1484995000000002,352000.0,10589.01197385788,0.7147446163296699,0.6982478875219822,0.7295613022446632,0.7114852768182754,0.09999999999999859
-81.39655096435547,0.8508760460019111,0.37319546736776826,0.017567477426491677,82.27128517913819,82.34167164611816,34.939585596400946,353000,1.1474994999999997,353000.0,10617.632806301117,0.6762711398899556,0.6590922848880291,0.6903359497785568,0.671965460717678,0.09999999999999859
-80.38207414245605,0.8505097261667252,0.37715795639157296,0.01802318969834596,81.32469120788575,81.32530369567871,34.30631471724121,354000,1.1464994999999991,354000.0,10646.781959533691,0.7389767462015152,0.7226617329716682,0.7538645091056824,0.7356693566143513,0.09999999999999859
-81.22779719543458,0.8506845499873161,0.376384617716074,0.017016474802978337,82.17394841766358,82.1546374053955,34.385686156682574,355000,1.1454995000000006,355000.0,10675.86382818222,0.697204313069582,0.6809441334605217,0.7121617814302444,0.6936162843108177,0.09999999999999859
-80.86563444519042,0.8509811176657677,0.39587164036929606,0.018880305964499713,81.77454117584229,81.79865788269043,34.503428087489546,356000,1.1444995000000011,356000.0,10704.846455812454,0.7217907423973083,0.7064849799871444,0.7368044778704643,0.7190121223926544,0.09999999999999859
